/* XPM */
static char *result[] = {
/* columns rows colors chars-per-pixel */
"50 50 165 2 ",
"   c #030202",
".  c #0A0807",
"X  c #0F0709",
"o  c #0A0A09",
"O  c #120707",
"+  c #140A07",
"@  c #100709",
"#  c #160C0D",
"$  c #190D0E",
"%  c #190E11",
"&  c #181917",
"*  c #191918",
"=  c #23100F",
"-  c #221115",
";  c #2C1512",
":  c #361A12",
">  c #2E211E",
",  c #341D23",
"<  c #3B1E25",
"1  c #3B1E29",
"2  c #132125",
"3  c #1B2427",
"4  c #3B2024",
"5  c #3A212A",
"6  c #31292C",
"7  c #31332F",
"8  c #2E2E30",
"9  c #382B32",
"0  c #3B2E38",
"q  c #333332",
"w  c #393631",
"e  c #3A3C37",
"r  c #472317",
"t  c #462219",
"y  c #4D261B",
"u  c #50271B",
"i  c #431F24",
"p  c #442028",
"a  c #6B2F2F",
"s  c #663221",
"d  c #793B27",
"f  c #723629",
"g  c #793B29",
"h  c #6A3434",
"j  c #733531",
"k  c #7C3733",
"l  c #7B3833",
"z  c #5C453C",
"x  c #65422F",
"c  c #6C4232",
"v  c #295058",
"b  c #335258",
"n  c #474A44",
"m  c #484B44",
"M  c #724545",
"N  c #75484E",
"B  c #615F56",
"V  c #6C5854",
"C  c #5E6158",
"Z  c #62655C",
"A  c #4C6A75",
"S  c #696766",
"D  c #6E726C",
"F  c #72766C",
"G  c #73786C",
"H  c #803F29",
"J  c #803633",
"K  c #833B33",
"L  c #8A3F32",
"P  c #8D452B",
"I  c #97492F",
"U  c #8D4230",
"Y  c #964630",
"T  c #9C4A31",
"R  c #AB4F2E",
"E  c #A7522E",
"W  c #AA512E",
"Q  c #A24C31",
"!  c #AA4F31",
"~  c #A75232",
"^  c #A95131",
"/  c #817B6D",
"(  c #3C7D8C",
")  c #497582",
"_  c #437C8A",
"`  c #4D7B89",
"'  c #517B89",
"]  c #5F7E89",
"[  c #627D87",
"{  c #667C88",
"}  c #4B838F",
"|  c #4A8492",
" . c #5C8B95",
".. c #679094",
"X. c #488EA1",
"o. c #4E9AA7",
"O. c #4E99AA",
"+. c #539CAB",
"@. c #47A6B7",
"#. c #4DA4B6",
"$. c #4DA4B8",
"%. c #4FA9B9",
"&. c #51A4B6",
"*. c #52A4B9",
"=. c #5EACB8",
"-. c #6CA5AE",
";. c #65AFBD",
":. c #6CB3BE",
">. c #72B5BE",
",. c #7EB9BE",
"<. c #65AFC0",
"1. c #74B8C2",
"2. c #7BBAC1",
"3. c #87898C",
"4. c #8F948C",
"5. c #91978A",
"6. c #949A8C",
"7. c #94959A",
"8. c #9FA39C",
"9. c #A9AE9E",
"0. c #9D9CA2",
"q. c #A9ACAF",
"w. c #AAB1A1",
"e. c #B5BCAB",
"r. c #B5BBB0",
"t. c #BBC3B1",
"y. c #93C5C6",
"u. c #91C6C8",
"i. c #A1CBC8",
"p. c #ABCFD2",
"a. c #B2D1D4",
"s. c #B5DAD3",
"d. c #BADED4",
"f. c #C6C7CE",
"g. c #C7CACB",
"h. c #CED2CC",
"j. c #CBDBC9",
"k. c #D2DAC7",
"l. c #D6DECB",
"z. c #D6D9D8",
"x. c #D9E2CE",
"c. c #CBE5D8",
"v. c #DFE8D3",
"b. c #D9EDDD",
"n. c #DCF0DF",
"m. c #E3ECD6",
"M. c #E1E7DD",
"N. c #E6F0DA",
"B. c #E8F1DC",
"V. c #D2DDE2",
"C. c #DEDFE6",
"Z. c #DEE1E6",
"A. c #DFE0E8",
"S. c #DFF2E0",
"D. c #E2E5E7",
"F. c #E9EEE7",
"G. c #E0E2E8",
"H. c #E6EAE8",
"J. c #E8EEE8",
"K. c #EAF3E6",
"L. c #EEFAE4",
"P. c #EDF4E8",
"I. c #EFF8E8",
"U. c #F3FDE6",
"Y. c #F5FFE8",
/* pixels */
"A.A.A.A.A.A.C.A.A.A.A.A.A.A.A.A.A.G.J.Y.Y.Y.Y.Y.Y.Y.Y.Y.Y.Y.Y.Y.Y.Y.Y.Y.Y.Y.Y.Y.Y.Y.Y.Y.Y.Y.Y.Y.Y.Y.",
"A.A.A.A.A.A.A.A.G.G.A.A.A.A.A.G.A.G.P.Y.Y.Y.Y.Y.Y.Y.L.L.Y.Y.Y.Y.Y.Y.Y.Y.Y.Y.Y.Y.Y.Y.Y.Y.Y.Y.Y.Y.Y.Y.",
"D.G.D.A.A.A.D.D.G.G.G.H.G.G.G.G.G.G.P.Y.Y.Y.Y.U.U.B.N.N.Y.Y.Y.Y.Y.Y.Y.Y.U.Y.U.Y.Y.I.U.Y.Y.Y.Y.Y.Y.Y.",
"I.I.I.I.I.I.I.I.I.I.I.I.P.I.I.I.I.I.I.Y.Y.Y.Y.U.e.p e C v.Y.Y.Y.Y.Y.F.G.G.H.G.H.H.H.H.J.Y.Y.Y.Y.Y.Y.",
"Y.Y.Y.Y.Y.Y.Y.Y.Y.Y.Y.Y.Y.Y.Y.Y.Y.Y.Y.Y.Y.Y.U.U.w.o . 7 x.U.U.U.Y.U.H.G.A.G.A.G.A.A.A.H.I.Y.Y.Y.Y.Y.",
"Y.Y.Y.Y.Y.Y.Y.Y.Y.Y.Y.Y.Y.Y.Y.Y.Y.Y.Y.Y.Y.I.B.B.9.# . w k.B.B.U.Y.I.H.A.A.A.A.A.A.A.A.H.I.Y.Y.Y.Y.Y.",
"Y.Y.Y.Y.Y.Y.Y.Y.Y.Y.Y.Y.Y.Y.Y.Y.Y.Y.Y.Y.U.e.B B B f f c Z C S z.H.H.G.A.A.A.A.A.A.A.A.A.H.H.J.H.H.J.",
"Y.Y.Y.Y.Y.Y.Y.Y.Y.Y.Y.Y.Y.Y.Y.Y.Y.Y.Y.Y.U.5.    : E W P +   & g.A.A.A.A.A.A.A.G.A.A.A.A.A.A.A.A.A.A.",
"Y.Y.Y.Y.Y.Y.Y.Y.Y.Y.Y.Y.Y.Y.Y.Y.Y.Y.Y.U.U.5.    : E W P +   & h.G.G.G.G.G.G.G.G.G.G.G.G.G.G.G.G.G.G.",
"Y.Y.Y.Y.Y.Y.Y.Y.Y.Y.Y.Y.Y.Y.Y.Y.Y.Y.Y.U.U.5.    : W W P +   & h.F.J.F.P.P.J.F.F.P.J.P.J.J.J.P.J.P.J.",
"Y.Y.Y.Y.Y.Y.Y.Y.Y.Y.Y.Y.Y.Y.Y.Y.Y.Y.Y.U.U.4.    : W E P +   & k.U.Y.Y.Y.Y.Y.U.U.Y.Y.Y.Y.Y.Y.Y.Y.Y.Y.",
"Y.Y.Y.Y.Y.Y.Y.Y.Y.Y.Y.Y.Y.Y.Y.Y.Y.Y.U.U.U.5.    : W E P +   & l.Y.Y.Y.Y.Y.Y.Y.Y.Y.Y.Y.Y.Y.Y.Y.Y.Y.Y.",
"Y.Y.Y.Y.Y.Y.Y.Y.Y.Y.Y.Y.Y.Y.Y.Y.Y.Y.Y.Y.U.5.    : ~ ! P +   & l.Y.Y.Y.Y.Y.Y.Y.Y.Y.Y.Y.Y.Y.Y.Y.Y.Y.Y.",
"Y.Y.Y.Y.Y.Y.Y.Y.Y.Y.Y.Y.Y.Y.Y.Y.Y.Y.Y.Y.U.5.    : ~ E P +   & l.Y.Y.Y.Y.Y.Y.Y.Y.Y.Y.Y.Y.Y.Y.Y.Y.Y.Y.",
"Y.Y.Y.Y.Y.Y.Y.Y.Y.Y.Y.Y.Y.Y.Y.Y.Y.Y.Y.Y.Y.5.    : ~ R P +   * l.Y.Y.Y.Y.Y.Y.Y.Y.Y.Y.Y.Y.Y.Y.Y.Y.Y.Y.",
"Y.Y.Y.Y.Y.Y.Y.Y.Y.Y.Y.Y.Y.Y.Y.Y.Y.U.l.e.t./ ; ; u T Q P ; = > 9.t.t.B.Y.Y.Y.Y.Y.Y.Y.Y.Y.Y.Y.Y.Y.Y.Y.",
"Y.Y.Y.Y.Y.Y.Y.Y.Y.Y.Y.Y.Y.Y.Y.Y.Y.U.Z   . r W ~ T l J g k k h %   o t.U.Y.Y.Y.Y.Y.Y.Y.Y.Y.Y.Y.Y.Y.Y.",
"Y.Y.Y.Y.Y.Y.Y.Y.Y.Y.Y.Y.Y.Y.Y.Y.Y.U.Z     r W W I l l l J k j +   o t.U.Y.Y.Y.Y.Y.Y.Y.Y.Y.Y.Y.Y.Y.Y.",
"Y.Y.Y.Y.Y.Y.Y.Y.Y.Y.Y.Y.Y.Y.Y.Y.U.U.Z     r W ^ T J l l k l j @     r.I.I.I.I.I.I.U.I.I.Y.Y.Y.Y.Y.Y.",
"Y.Y.Y.Y.Y.Y.Y.Y.Y.Y.Y.Y.Y.Y.Y.Y.U.U.Z     y W W T l l J k l j O   . q.A.D.D.D.D.G.D.D.H.Y.Y.Y.Y.Y.Y.",
"Y.Y.Y.Y.Y.Y.Y.Y.Y.Y.Y.Y.Y.Y.Y.U.U.L.Z     r W ^ T l k k l k j @     q.C.C.C.A.A.C.C.A.H.Y.Y.Y.Y.Y.Y.",
"Y.Y.Y.Y.Y.Y.Y.Y.Y.Y.Y.Y.Y.Y.Y.m.x.x.Z $ + u W W T l k k l k j +   . 0.f.f.z.A.A.C.G.C.H.I.I.I.Y.Y.Y.",
"Y.Y.Y.Y.Y.Y.Y.Y.Y.Y.Y.Y.Y.Y.Y.Z 7 w x P P I W W T k l k l k j < , , 6 8 q 7.C.A.A.A.A.G.D.H.H.Y.Y.Y.",
"Y.Y.Y.Y.Y.Y.Y.Y.Y.Y.Y.Y.Y.Y.U.m     s W R R W W T l k k l k l p 1 1 #   o 3.Z.A.A.A.A.A.A.G.D.Y.Y.Y.",
"Y.Y.Y.Y.Y.Y.Y.Y.Y.Y.Y.Y.Y.Y.Y.m     s ! E W ~ W T k k k l k j i < , X   . 3.A.A.G.G.G.G.G.G.H.I.Y.Y.",
"Y.Y.Y.Y.Y.Y.Y.Y.Y.Y.Y.Y.Y.Y.U.m     s W W T L L K J k k k k k i < < X   o 4.K.I.I.P.P.P.P.P.P.Y.Y.Y.",
"Y.Y.Y.Y.Y.Y.Y.Y.Y.Y.Y.Y.Y.Y.Y.m     s ^ W Y l k l J l k k k j i < < X   o 6.L.Y.Y.Y.Y.Y.Y.Y.Y.Y.Y.Y.",
"Y.Y.Y.Y.Y.Y.Y.Y.Y.Y.Y.Y.Y.Y.Y.m     s W W Y l k l k k k k k k i < < X   o 6.U.Y.Y.Y.Y.Y.Y.Y.Y.Y.Y.Y.",
"F.F.F.F.F.F.F.F.J.Y.Y.Y.Y.Y.Y.n     s W ^ Y k k k k l k k l j i < < X   X 6.U.Y.Y.Y.Y.Y.Y.Y.I.P.J.J.",
"A.A.G.A.G.G.G.G.D.Y.Y.Y.Y.U.Y.n     s W ^ Y l k l k k k k k l p < < @   o 6.U.Y.Y.Y.Y.Y.Y.Y.I.G.A.G.",
"A.A.A.A.A.A.A.A.G.I.Y.U.U.I.Y.n     s R ~ Y k k l k k k k k j p < < @   o 6.U.U.U.Y.Y.Y.Y.Y.I.D.A.A.",
"A.A.A.A.A.A.A.A.A.F.F.M.8.5.6.z t t H W ~ Y l k l k k k k k j p < 4 - % - Z 6.6.t.F.P.J.P.J.F.G.A.A.",
"A.A.A.A.A.A.A.A.A.A.A.f.5     g ^ ^ ^ E ^ Y l k l l l l l l j i < < < < < %     D Z.G.G.G.G.G.A.A.A.",
"A.A.A.A.A.A.G.G.A.A.A.f.9     g W W ^ W W I l k l l l J l l k i < < 1 < < #     D Z.A.A.A.A.A.A.A.A.",
"H.H.H.H.H.H.H.H.H.H.D.h.8     g W W R R W Y l k l k l l a a a i < , 1 < < #     D H.H.D.H.H.F.D.D.F.",
"Y.I.Y.Y.I.Y.Y.Y.Y.Y.I.x.q     g W W ~ ~ W Y l l l k k j i < 1 1 < < < < < #     F U.U.U.I.I.Y.Y.Y.Y.",
"Y.Y.Y.Y.Y.Y.Y.Y.Y.Y.U.x.7     d W W ^ R ~ Y l k l k k a i 1 1 < < < < < < %     G U.Y.Y.Y.Y.Y.Y.Y.Y.",
"Y.Y.Y.Y.Y.Y.Y.Y.Y.Y.U.x.7     d W ^ ^ ! Q Y l k l k k j i < < < < < < < < %     G U.Y.Y.Y.Y.Y.Y.Y.Y.",
"Y.Y.Y.Y.Y.Y.Y.Y.Y.Y.U.x.7     d ^ ^ U l K k k k k k l j < < < < < < < < < %     G U.Y.Y.Y.Y.Y.Y.Y.Y.",
"Y.Y.Y.Y.Y.Y.Y.Y.Y.U.L.x.7     d ^ ~ U k k k k k k l l j i < < < < < < < < #     F U.Y.Y.Y.Y.Y.Y.Y.Y.",
"Y.Y.Y.Y.Y.Y.Y.Y.U.S.S.j.7     d ^ ^ Y k k k k k k k l j i i < < < < < < < #     F N.S.K.U.U.Y.Y.Y.Y.",
"Y.Y.Y.Y.Y.Y.Y.Y.n.2.:.-.3     d ^ ! U k k k k k k k k j i < < < < < < < < #     b 1.:.i.L.U.Y.Y.Y.Y.",
"Y.Y.Y.Y.Y.Y.Y.Y.n.<.#.O.2     d ~ ! U k k k k k l k k j 1 < 1 < < < < < < #     v &.#.y.L.Y.Y.Y.Y.Y.",
"Y.Y.Y.Y.Y.Y.Y.L.n.;.#.O.2     d ! ! U k k k k k k l l f < < < < 1 < , 1 , %     v *.#.u.L.Y.Y.Y.Y.Y.",
"Y.Y.Y.Y.U.b.u.,.>.&.#.&.} _ (  .....V k l k k k k k l M ' | ` 9 < 1 A | | } ( _ X.#.#.=.2.2.y.L.U.Y.",
"Y.Y.Y.Y.U.c.O.@.#.#.#.&.#.#.#.#.$.$.S J l k k k l l k N +.*.O.0 < 5 | *.#.&.$.@.#.#.#.&.#.$.1.K.U.Y.",
"Y.Y.Y.Y.U.c.&.&.&.&.$.*.#.#.#.#.$.*.S l l k l l l k l N o.$.O.0 4 5 | $.&.#.#.#.*.%.%.*.#.#.1.L.Y.Y.",
"Y.Y.I.J.F.Z.a.a.a.a.p.p.;.#.&.#.$.$. .{ ] { ] ] { ] [ { #.$.O.' ) ) O.$.%.u.d.d.d.d.d.d.d.d.c.L.Y.Y.",
"Y.Y.J.G.G.A.A.A.A.A.A.V.>.&.&.#.&.#.@.#.#.#.$.&.&.#.&.@.$.+.@.*.$.#.$.$.*.s.U.U.U.U.Y.U.U.Y.U.Y.Y.Y.",
"Y.Y.P.A.A.A.A.A.A.A.C.V.:.&.#.#.&.$.$.#.#.#.$.$.$.#.$.$.$.$.#.$.#.#.#.#.*.s.Y.Y.Y.Y.Y.Y.Y.Y.Y.Y.Y.Y."
};
