/* XPM */
static char *result[] = {
/* columns rows colors chars-per-pixel */
"50 50 184 2 ",
"   c #77999E",
".  c #6D9DA9",
"X  c #739EA3",
"o  c #7A9EA0",
"O  c #769EAD",
"+  c #66A1A3",
"@  c #6CA3A5",
"#  c #6FAEA7",
"$  c #65A3AB",
"%  c #6CA4AA",
"&  c #68A8AD",
"*  c #73A3A5",
"=  c #7CA2A7",
"-  c #74AAA6",
";  c #7DAFA7",
":  c #74A4AA",
">  c #7BA3AB",
",  c #75ABAB",
"<  c #7CABAD",
"1  c #6DB0AF",
"2  c #7BB2AF",
"3  c #7FB8AE",
"4  c #74ABB2",
"5  c #73B2B0",
"6  c #7BB4B4",
"7  c #7CB9B4",
"8  c #7DC0B9",
"9  c #84A5AC",
"0  c #8CAAAB",
"q  c #89BDAE",
"w  c #86A9B3",
"e  c #88A8B2",
"r  c #93ADB2",
"t  c #81B1B2",
"y  c #88B6B6",
"u  c #87BBB6",
"i  c #8BBCB4",
"p  c #87B5BD",
"a  c #8DB4BA",
"s  c #8BBABD",
"d  c #97B4B3",
"f  c #9FB7B4",
"g  c #9CBCB7",
"h  c #95B4BB",
"j  c #9CB6BE",
"k  c #96BBBF",
"l  c #A0B8B4",
"z  c #A1B7BD",
"x  c #A4BCBD",
"c  c #8DC3B6",
"v  c #89C4BE",
"b  c #8BCABF",
"n  c #92C5B5",
"m  c #98C9B7",
"M  c #95CBBD",
"N  c #98CBBD",
"B  c #A6C3BC",
"V  c #ACC3BC",
"C  c #9DB6C2",
"Z  c #91B8C1",
"A  c #9CBCC4",
"S  c #A3BEC2",
"D  c #A4BBCA",
"F  c #8DC2C0",
"G  c #8DCBC1",
"H  c #94C2C4",
"J  c #9AC5C5",
"K  c #92CDC3",
"L  c #9BCEC5",
"P  c #92C2C9",
"I  c #9DC3CA",
"U  c #96C8C9",
"Y  c #9BCCCA",
"T  c #9FD4C4",
"R  c #9BDAC6",
"E  c #9CD5CC",
"W  c #A3C2C4",
"Q  c #ABC5C2",
"!  c #AECBC3",
"~  c #A6C5CC",
"^  c #AAC4CD",
"/  c #A4CCCF",
"(  c #AFC9CD",
")  c #B3CAC4",
"_  c #BCCEC7",
"`  c #B4C6CA",
"'  c #A6DECC",
"]  c #ABDECB",
"[  c #B3D1C8",
"{  c #BDD3CB",
"}  c #B2DDCE",
"|  c #BEDECE",
" . c #A7C8D0",
".. c #AECAD3",
"X. c #B1CDD3",
"o. c #A9D0D0",
"O. c #B5D3D4",
"+. c #B9D4D3",
"@. c #B5DCD2",
"#. c #B6D0D9",
"$. c #BAD6DA",
"%. c #B4DADA",
"&. c #BCDCDB",
"*. c #ABE2C5",
"=. c #A6E2CA",
"-. c #AAE2CB",
";. c #B5E4C3",
":. c #BBE6C6",
">. c #B4E3CC",
",. c #BBE5CE",
"<. c #BFEAC9",
"1. c #A5E3D1",
"2. c #BDE5D2",
"3. c #BEE8D1",
"4. c #BAD5E2",
"5. c #BBDAE4",
"6. c #C5D8CD",
"7. c #C4D4D6",
"8. c #C3DBD5",
"9. c #CDDFD6",
"0. c #C3D3DB",
"q. c #CBD5DD",
"w. c #C5DDDB",
"e. c #CBDCDB",
"r. c #D0DDD6",
"t. c #C0E7C7",
"y. c #C2E9CD",
"u. c #CBECC9",
"i. c #CFE1D7",
"p. c #C3EBD5",
"a. c #C9EED3",
"s. c #CDE5DD",
"d. c #C7ECDA",
"f. c #CDEFD9",
"g. c #D3E4D6",
"h. c #D2EBD7",
"j. c #DBEFD7",
"k. c #D3E4DB",
"l. c #D9E6DC",
"z. c #D6EBDE",
"x. c #DBEBDC",
"c. c #CDF1DA",
"v. c #D3F2D5",
"b. c #DCF5D5",
"n. c #D5F3DC",
"m. c #DAF3DD",
"M. c #DEFADE",
"N. c #E0EDDD",
"B. c #E7FBDE",
"V. c #C2DDE2",
"C. c #C8D9E1",
"Z. c #D4DCE3",
"A. c #DCDFE7",
"S. c #DCDFE8",
"D. c #C4E1E2",
"F. c #CCE5E2",
"G. c #D1E5E5",
"H. c #DFE2E6",
"J. c #D4EBE5",
"K. c #DBEBE3",
"L. c #D1E5EA",
"P. c #DFE0E8",
"I. c #DBEEE9",
"U. c #DFF7E1",
"Y. c #DDFAE4",
"T. c #E2E5E7",
"R. c #E3EEE4",
"E. c #E8EDE7",
"W. c #E0E2E8",
"Q. c #E6EAE8",
"!. c #E8EEE8",
"~. c #E5F3E3",
"^. c #EAF4E5",
"/. c #E4FCE4",
"(. c #EDFBE5",
"). c #E5F5EB",
"_. c #ECF3E8",
"`. c #E4FEE9",
"'. c #EDFBE9",
"]. c #F3FDE6",
"[. c #F5FFE8",
"{. c #F8FDED",
"}. c #F6FDF1",
"|. c #F9FBF2",
/* pixels */
"P.P.P.P.P.P.P.P.P.P.P.P.P.P.W.W.W.W.!.[.[.[.[.[.[.[.[.[.[.[.[.[.[.[.[.[.[.[.[.[.[.[.[.[.[.[.[.[.[.[.",
"P.P.P.W.P.P.W.S.P.P.P.P.P.P.W.T.P.W.!.[.[.[.[.[.[.[.[.[.[.[.[.[.[.[.[.[.[.[.[.[.[.[.[.[.[.[.[.[.[.[.",
"T.T.T.T.T.T.T.T.Q.T.T.T.T.T.T.T.T.T.!.[.[.[.[.[.[.[.[.[.[.[.[.[.[.[.]._.[._.[.[.[._._.[.[.[.[.[.[.[.",
"_._.'._._.'._._._._._.]._._._._._._.[.[.[.[.[.[.[.[.[.[.[.[.[.[.[.[.!.Q.Q.Q.Q.Q.Q.Q.Q.!.[.[.[.[.[.[.",
"[.[.[.[.[.[.[.[.[.[.[.[.[.[.[.[.[.[.[.[.[.[.[.[.[.[.[.[.[.[.[.[.{.[.E.P.W.P.P.W.P.P.P.E.[.[.[.[.[.[.",
"[.[.[.[.[.[.[.[.[.[.[.[.[.[.[.[.[.[.[.[.[.[.[.[.[.[.[.[.[.[.[.[._.'.E.P.P.P.P.P.P.P.P.Q.[._.[._.[.[.",
"[.[.[.[.[.[.[.[.[.[.[.[.[.[.[.[.[.[.[.[.[.{.[.[.[.[.[.[.[.[.[._.Q.Q.W.P.P.P.P.P.P.P.P.T.Q.E.E.E.E.E.",
"[.[.[.[.[.[.[.[.[.[.[.[.[.[.[.[.[.[.[.[.[.[.[.[.[.[.[.[.[.[._.Q.W.P.P.P.P.P.W.W.P.P.P.P.P.P.P.P.W.W.",
"[.[.[.[.[.[.[.[.[.[.[.[.[.[.[.[.[.[.[.[.[.[.].].[.[.[.[.[.[.[.Q.W.W.W.W.W.W.T.T.P.P.T.P.W.W.T.T.W.W.",
"[.[.[.[.[.[.[.[.[.[.[.[.[.[.[.[.[.[.[.[.[.[.[.].[.[.[.[.[.[.[._.!.!.!._._.!.!.!._._.!.!.!._.!.!.E._.",
"[.[.[.[.[.[.[.[.[.[.[.[.[.[.[.[.[.[.[.[.[.].N.6.N.[.[.[.[.[.[.[.[.[.[.[.{.].[.[.[.[.[.[.{.[.[.[.[.[.",
"[.[.[.[.[.[.[.[.[.[.[.[.[.[.[.[.[.[.x.6.B.^.) 9 l N.[.[.[.[.[.[.[.[.[.[.].[.[.[.[.[.[.[.[.[.[.[.[.{.",
"[.[.[.[.[.[.[.[.[.[.[.[.[.[.[.[.].].x 9 S w.^ w C K.].'.E.^.].].[.[.[.[.[.[.[.[.[.[.[.[.[.[.[.[.[.[.",
"[.[.[.[.[.[.[.[.[.[.[.[.[.[.[.[.].N.x 9 W L.G.^ ..I.'.L.x _ k.^.].].[.[.[.[.[.[.[.[.[.[.[.[.[.[.[.[.",
"[.[.[.[.[.{.[.[.[.[.[.[.[.[.[.[.[.].k.( $.).'.5.A ..D.~ = X s +.K.].[.[.[.[.[.[.[.[.[.[.[.[.[.[.[.[.",
"[.[.[.[.[.[.[.[.[.[.[.[.[.[.[.[.'.[.).$. .5.D.I * , H s < : @ < x l.[.[.[.[.[.[.[.[.[.[.[.[.[.[.[.[.",
"[.[.[.[.[.[.[.[.[.[.[.[.[.[.(.k.e.K.F.A * y I y - # G / b 7 1 . = 7.'.[.].[.[.[.[.[.[.[.[.[.[.[.[.[.",
"[.[.[.[.[.[.{.[.[.[.[.[.[.].z.x 9 A o.2 # < J L i c ' =.=.R s 6 A F.].(.N.^.].].].[.[.[.[.[.[.[.[.[.",
"[.[.[.[.[.[.[.[.[.[.[.[.[.~.+.> . 6 K G 7 i } @.} p.p.>.*.*.=.Y I V.E.l.l l l.^._._.].'.[.[.[.[.[.[.",
"[.[.[.[.[.[.[.[.[.[.[.[.].F.p . # F ' ' } | 6.t.h.`./.n.<.;.>.N 2 A 0.7.0 o ` H.Q.T.T.E.[.[.[.[.[.[.",
"[.[.[.[.[.[.[.[.[.[.].[.R.( : % 6 R *.>.c.`.B.j.B.].(.(.M.a.>.q @ : ^ 0.` z q.P.W.W.W.T.[.[.[.[.[.[.",
"[.[.[.[.[.[.[.[.[.[.[.[.R.A O < G =.*.y.U.(.].].[.].(.].(.`.,.c & Z 4.A.Z.Z.Z.P.P.P.W.T._.'.[.].[.[.",
"[.[.[.[.[.[.[.[.[.[.[.[.'.e.~ s E -.;.v.(.].].].[.].].].[./.3.' U P 4.S.S.0.D C.P.P.P.W.Q.T.E.{.[.[.",
"[.[.[.[.[.[.[.[.[.[.[.].].(.s.J K ;.y./.(.].].].].].].].[.m.,.' E Z I C.Z.C O D S.P.P.P.P.W.T._.[.[.",
"[.[.[.[.[.[.[.[.[.].^.l.B.^.w.< ; n d.`.(.(.].{.[.[.{.[.[./.d.>.c , : D Z.7.C C.P.T.T.P.T.P.T.].[.[.",
"[.[.[.[.[.[.[.[.].].g.l _ g.` > : i >.c.`.].{.{.}.|.|.{.{.[.`.p.n - < 7.E.~.~._._._._._._._._.].[.[.",
"[.[.[.[.[.[.[.[.[.].V   d 9.k.I p L ] 2.m.].[.{.}.|.|.{.{.]./.u.] c k f.].].].].[.[.[.[.[.[.{.[.[.[.",
"[.[.[.[.[.[.[.[.[.].x.B { ^.(.F.Y E ' ,.Y.[.{.}.}.|.|.}.].].b.<.] ' c [ ~.].[.[.[.[.[.[.[.[.[.].[.].",
"!.!.E.E.E.!.!.!.!.[.[.].^.].].K.Z 6 c 3./.].[.].}.}.}.'.'.B.u.;.*.b 2 9 _ ^.[.[.[.[.[.[.[.[.].E.E.E.",
"T.P.P.P.P.P.P.T.T.'.[.^.i.~.(.8.< @ 3 2.v.B.(.].[.).U.U.`.v.:.*.R 8 & : 6.N.[.[.[.[.[.[.[.[.].W.W.W.",
"P.P.P.P.P.P.P.P.T.(.].9.a j ~.k.W t b ] :.u.b./.`.c.,.3.p.>.-.1.b 1 & s l.].[.[.[.[.[.[.{.[.].W.W.P.",
"P.P.P.P.P.P.P.P.W.E._.H.S 8._.^.J.[ L ' *.;.<.a.c.2.>.-.m c M E 7 + 4 8.^.].[.[.]._.!._.E.E.E.W.P.P.",
"P.P.P.P.P.P.P.P.P.P.W.W.P.P.W._.~.! u G R =.-.' m n T N ; * < U Z : W ~.[.[.[.[._.T.P.P.T.P.W.P.P.P.",
"P.P.W.P.P.P.P.P.P.P.W.W.W.W.W._.x.g - 1 8 G ' K , - i J w X a 2.D.O.k.(.[.[.[.[.!.W.P.P.P.P.W.W.W.W.",
"Q.T.Q.Q.T.Q.E.E.E.T.T.T.E.T.E._.x.Q % $ & 5 v F , * k &.$.A ..~.].(.].[.[.[.[.[.'.Q.Q.E.Q.T.Q.Q.E.E.",
"].].{.{.].].{.[.{.].{.].{.].].[.(.J.O.Z 4 @ H %.~ h O.~.).#.^ r.(.[.[.[.[.[.[.[.[.{._.[.].{.].{.].].",
"[.[.[.[.[.[.[.[.[.[.[.[.].[.[.[.[.].~.e.W h e.B.I.X...K.J.A 9 z r.].[.].[.[.[.[.[.[.[.[.[.[.[.[.[.[.",
"[.[.[.[.[.[.[.[.[.[.[.[.[.[.[.[.[.[.[.].x.l._.[.K.C e D O.h   d k.].[.[.[.[.[.[.[.[.[.[.[.[.[.[.[.[.",
"[.[.[.[.[.[.[.[.[.[.[.[.[.[.[.[.[.[.[.[.[.].[.[.r.r   f s.e.V { _.[.[.[.[.[.[.[.[.[.[.[.[.[.[.[.[.[.",
"[.[.[.[.[.[.[.[.[.[.[.[.[.[.[.[.[.[.[.[.[.[.[.[.^.r.V j.].(._.~.].[.[.[.[.[.[.[.[.[.[.[.[.[.[.[.[.[.",
"[.[.[.[.[.[.[.[.[.[.[.[.[.[.[.[.[.[.[.[.[.[.[.[.[.].].[.[.[.[.[.[.[.[.[.[.[.[.[.[.[.[.[.[.[.[.[.[.[.",
"[.[.[.[.[.[.[.[.[.[.[.[.[.[.[.[.[.[.[.[.[.[.[.[.[.[.[.[.[.[.[.[.[.[.[.[.[.[.[.[.[.[.[.[.[.[.[.[.[.[.",
"[.[.[.[.[.[.].[.[.[.[.[.[.[.[.[.[.[.[.[.[.[.[.[.[.[.[.[.[.[.[.[.[.[.[.[.[.[.[.[.[.[.[.[.[.[.[.[.[.[.",
"[.[.[.[.[.[.].[.[.[.[.[.[.[.[.[.[.[.[.[.[.[.[.[.[.[.[.[.[.[.[.[.[.[.[.[.[.[.[.[.[.[.[.[.[.[.[.[.[.[.",
"[.[.[.[.[.[.[.[.[.[.[.[.[.[.[.[.[.[.[.[.[.[.[.[.[.[.[.[.[.[.[.[.[.[.[.[.[.[.[.[.[.[.[.[.[.[.[.[.[.[.",
"[.[.[.[.[.].[.[.[.[.[.[.[.[.[.[.[.[.[.[.[.[.[.[.[.[.[.[.[.[.[.[.[.[.[.[.[.[.[.[.[.[.[.[.[.[.[.[.[.[.",
"[.[.[.[.[.{.].{.].].].{.[.[.[.[.[.[.[.[.[.[.[.[.[.[.[.[.[.[.[.[.[.[.[.[.[.[.[.[.[.[.[.[.[.[.[.[.[.[.",
"[.[._.^.E.Q.E.E.Q.E.E.^.[.[.[.[.[.[.[.[.[.[.[.[.[.[.[.[.[.[.[.[.[.[.[.[.[.[.[.[.[.[.[.[.[.[.[.[.[.[.",
"[.{._.W.W.P.P.P.P.P.W.Q._.[.[.[.[.[.[.[.[.[.[.[.[.[.[.[.[.[.[.[.[.[.[.[.[.[.[.[.[.[.[.[.[.[.[.[.[.[.",
"[.[.^.W.P.P.P.P.P.P.P.W.].[.].{.[.[.[.[.[.[.[.[.[.[.[.[.[.[.[.[.[.[.[.[.[.[.[.[.[.[.[.[.[.[.[.[.[.[."
};
