/* XPM */
static char *result[] = {
/* columns rows colors chars-per-pixel */
"50 50 181 2 ",
"   c #77999F",
".  c #789C9E",
"X  c #759DA1",
"o  c #7B9FA0",
"O  c #789FAB",
"+  c #6CA2A7",
"@  c #6CA8A5",
"#  c #65A4AA",
"$  c #6BA5AB",
"%  c #6FA9AE",
"&  c #73A3A5",
"*  c #75ABA5",
"=  c #79ADA6",
"-  c #74A3AA",
";  c #7CA3AA",
":  c #72AAAC",
">  c #7BABAD",
",  c #70B0AF",
"<  c #7AB1AE",
"1  c #79A0B1",
"2  c #74A9B4",
"3  c #6DB0B1",
"4  c #7CB3B3",
"5  c #7BB8B5",
"6  c #7AB8B8",
"7  c #7EC1B9",
"8  c #82A4AC",
"9  c #89ABAD",
"0  c #92AEAD",
"q  c #83B5AF",
"w  c #82A5B0",
"e  c #85AFB0",
"r  c #8AACB5",
"t  c #85AFB9",
"y  c #88ABB8",
"u  c #94AFB3",
"i  c #88B5B6",
"p  c #83BAB4",
"a  c #8ABDB3",
"s  c #85B4BB",
"d  c #8EB5BA",
"f  c #87B8BA",
"g  c #91B6B2",
"h  c #9BB6B4",
"j  c #9BB9B4",
"k  c #94B4BB",
"l  c #9BB5BC",
"z  c #94B9BF",
"x  c #9CB8B9",
"c  c #A3BDBA",
"v  c #8BC5B7",
"b  c #87C2BC",
"n  c #8BC5BF",
"m  c #8AC9BF",
"M  c #91C3B4",
"N  c #95C8B5",
"B  c #90C6BB",
"V  c #9DC2BC",
"C  c #97CDBE",
"Z  c #99CCBB",
"A  c #A4C2BB",
"S  c #ABC4BF",
"D  c #9EB6C0",
"F  c #94BDC1",
"G  c #9DBCC4",
"H  c #A2BDC3",
"J  c #8CC2C1",
"K  c #8ECAC1",
"L  c #95C5C1",
"P  c #9BC4C6",
"I  c #94CBC4",
"U  c #9BCCC4",
"Y  c #94C4CB",
"T  c #9CC4CB",
"R  c #8ED0C2",
"E  c #9ADAC5",
"W  c #96D3CB",
"Q  c #9CD4CC",
"!  c #9BD9C8",
"~  c #A5C3C3",
"^  c #ADC4C3",
"/  c #A0CBC6",
"(  c #A2C3CC",
")  c #AAC4CB",
"_  c #A2CCCC",
"`  c #ADCDCF",
"'  c #B4C7C2",
"]  c #B5CAC3",
"[  c #B9CEC4",
"{  c #B1C6CF",
"}  c #B2CBCA",
"|  c #A2D7CB",
" . c #A5DDCB",
".. c #AADCCC",
"X. c #B6D0CC",
"o. c #BAD2CE",
"O. c #B3DCCE",
"+. c #AECCD4",
"@. c #B2CDD4",
"#. c #B6D2D4",
"$. c #BBD1D2",
"%. c #BCDDD2",
"&. c #B5D3D9",
"*. c #BAD6DE",
"=. c #B4D9DA",
"-. c #BBDCDC",
";. c #ACE2C5",
":. c #A6E2CA",
">. c #ABE1CA",
",. c #B5E4C2",
"<. c #BEE7C6",
"1. c #B4E3CC",
"2. c #BBE5CE",
"3. c #BAE8C8",
"4. c #A4E1D1",
"5. c #BDE8D1",
"6. c #BEDEE3",
"7. c #C2D5CB",
"8. c #C1D8CE",
"9. c #C9DBCF",
"0. c #C9D2D5",
"q. c #C1DBD4",
"w. c #CBDCD4",
"e. c #C2D5DA",
"r. c #C6DEDD",
"t. c #CBDCDB",
"y. c #D2DADD",
"u. c #C4E1CE",
"i. c #C2EACC",
"p. c #CCEDC9",
"a. c #C3EAD6",
"s. c #CAEDD3",
"d. c #CFE2DA",
"f. c #CDEFD9",
"g. c #D4E4D6",
"h. c #DDEFD7",
"j. c #D3E4DC",
"k. c #DAE5DC",
"l. c #D4EADE",
"z. c #DBEADC",
"x. c #C9F0D7",
"c. c #CDF0DA",
"v. c #D3F2D5",
"b. c #DBF5D4",
"n. c #D9F3DD",
"m. c #E2EFDE",
"M. c #E3F1DE",
"N. c #E6FCDE",
"B. c #E8FBDE",
"V. c #C2DCE2",
"C. c #D7DDE5",
"Z. c #DADEE6",
"A. c #C5E3E3",
"S. c #CCE5E3",
"D. c #D3E6E1",
"F. c #DDE1E7",
"G. c #D5E9E4",
"H. c #DDECE2",
"J. c #D3E6E9",
"K. c #DFE0E8",
"L. c #D5EAE9",
"P. c #DEFAE3",
"I. c #E2E5E7",
"U. c #E8EDE7",
"Y. c #E0E2E8",
"T. c #E6EAE8",
"R. c #E8EEE8",
"E. c #E5F2E3",
"W. c #EAF5E5",
"Q. c #E4FBE4",
"!. c #ECFCE5",
"~. c #E4F4EB",
"^. c #EDF3E8",
"/. c #E4FDE9",
"(. c #EEFBE9",
"). c #F3FDE6",
"_. c #F8FEE4",
"`. c #F5FFE8",
"'. c #F9FBEE",
"]. c #F6FEF2",
"[. c #F9FBF2",
/* pixels */
"K.K.K.K.K.K.K.K.K.K.K.K.K.K.K.K.K.Y.^.`.`.`.`.`.`.`.`.`.`.`.`.`.`.`.`.`.`.`.`.`.`.`.`.`.`.`.`.`.`.`.",
"K.K.K.K.K.K.K.K.K.Y.K.K.K.K.Y.Y.K.Y.R.).`.`.`.`.`.`.`.`.`.`.`.`.`.`.`.`.`.`.`.`.`.`.`.`.`.`.`.`.`.`.",
"I.I.I.I.I.I.I.I.T.I.I.T.Y.T.I.I.I.Y.^.`.`.`.`.`.`.`.`.`.`.`._.`.`.`.`.^.`.^.`.).`.^.^.`.`.`.`.`.`.`.",
"^.^.(.^.^.^.(.^.^.^.^.^.^.^.^.^.^.^.).`.`.`.`.`.`.`._.`.`.`.`.`.`.`.R.T.T.T.T.T.T.T.R.R.`.`.`._.`.`.",
"`.`.`.`.`.`.`.`.`.`.`.`.`.`.`.`.`.`.`.`.`.`.`.`.`.`.`.`.`.`._.'.`.`.R.K.Z.Y.K.Y.K.K.K.T.).`.).).`.`.",
"`.`.`.`.`.`.`.`.`.`.`.`.`.`.`.`.`.`.`.`.`.`.`.`.`.`.`.`.`.`.`.`.^.'.T.K.Y.K.K.K.K.K.K.T.^.`.^.'.`.`.",
"`.`.`.`.`.`.`.`.`.`.`.`.`.`.`.`.`.`.`.`.`.`.`.`.`.`.`.`.`.`.`.^.T.T.Y.K.K.K.K.K.K.K.K.Y.R.R.R.R.R.R.",
"`.`.`.`.`.`.`.`.`.`.`.`.`.`.`.`.`.`.`.'.`.`.`.`.`.`.`.`.`.`.).I.Y.K.K.K.K.K.Y.Y.K.K.K.K.K.K.K.K.K.K.",
"`.`.`.`.`.`.`.`.`.`.`.`.`.`.`.`.`.`.`.`.`.`.`.`.`.`.`.`.`.`.).T.Y.Y.Y.Y.Y.Y.I.Y.I.I.Y.I.Y.Y.Y.Y.K.I.",
"`.`.`.`.`.'.`.`.`.`.`.`.`.`.`.`.`.`.`.`.`.`.`.`.`.`.).).`.`.).^.R.R.^.R.^.R.R.R.R.R.R.R.R.R.^.R.R.R.",
"`.`.`.`.`._.`.`.`.`.`.`.`.`.`.`.`.`.`.`.`.`.`.).).z.] M.`.).`.).).).`.`.`.`.`.`.`.`.`.`.`.`.`.`.`.`.",
"`.`.`.`.`.`.`.`.`.`.`.`.`.`.`.`.`.`.`.`.`.`.`.).k.u O ' E.m.w.E.`.`.`.`.`.`.`.`.`.`.`.`.`.`.`.`.`.`.",
"`.`.`.`.`.`.`.`.`.`.`.`._.'.`.`.`.`.`.`.E.W.).`.H.H y ) t.~ 8 S !.`.`.`.`.`.`.`.`.`.`.`.`.`.`.`.`.`.",
"`.`.`.`.`.`.`.`._.`.`.`.`.`.`.`._.`.W.j.} ^ G.(.T.#.#.L.J.G w ^ U.).`.`.`.`.`.`.`.`.`.`.`.`.`.`.`.`.",
"`.`.`.`.`.`.`.`.`.`.`.`.`.`.`.`.!.D.#.d & 8 } S.&.P V.~.~.@.H j.`.`.`.`.`._.`.`.`.`.`.`.`.`.`.`.`.`.",
"`.`.`.`.`.`.`._.`.`.`.`.`.`.`.`.t.G - + + : F L > - _ V.V.( &.~.).).`.`.`.'._.`.`.`.`.`.`.`.`.`.`.`.",
"`.`.`.`.`.`.`.`.`.`.`.`.).).`.W.$.; O % 6 K Q K @ : i P t & F S.J.e.k.!.).`.`.`.`.`.`.`.`.`.`.`.`.`.",
"`.`.`.`.`._.`.`.`.`.`.).E.z.).).D.z 2 J ! :.:. .v a / P > @ < T z 8 c H.).`.`.`.`.`.`.`.`.`.`.`.`.`.",
"`.`.`.`.`.`.`.`.`.`.`.k.c ' m.).D.` I :.;.;.3.a.a.O.%...v 5 K I e + - #.E.^.).^.).^.(.).'.`.`.`.`.`.",
"`.`.`.`.`.`.`.`.`.`.).[ . 0 w.j.~ p C >.,.i.v.Q./.g.u.2.2.O.>.4.b : + d V.I.Y.I.Y.Y.Y.R.).`.`.`.`.`.",
"`.`.`.`.`.`.`.`.`.`.).M.A [ d.$.; * a 1.s.N.!.!.).B.h.N./.c.1.:.E 6 + O { C.K.K.Y.K.K.T.).`.`.`.`.`.",
"`.`.`.`.`.`.`.`.`.`.`.).B.W.!.r.t > a a./.!.).)._.).).!.).P.i.;.:.K 2 O c C.K.K.K.K.K.T.^.^.).`.`.`.",
"`.`.`._.`.`.`.`.`.`.E.w.W.).(.D.T I ..5.P.!.).)._._._._.)./.v.,.;.| F H V.Z.K.K.K.K.K.Y.T.T.T.).`.`.",
"`.`.`.`.`.`.`.`.`.`.o.y } !.E.+.J Q >.5.n.(.`.`.).!.).).).!.N.i.1.L F 6.Z.K.Y.Z.K.K.K.K.Y.Y.I.).`.`.",
"`.`.`.`.`.`.`.`.`.`.z.H k.E.} > : v >.s.W.).'.].`.`.`.`.).(./.a.M = ; @.F.y.0.Z.Y.I.Y.Y.Y.I.R.^.`.`.",
"`.`.`.`.`.`.`.`.`.`.`.).).!.q.> : M x./.(.'.`.`.].].'.`.`.!.c.1.p # - H t.' 0 g.^.^.^.^.^.^.^.`.`.`.",
"`.`.`.`.`.`.`.`.`.`.`.`.).).l.~ B ..s.!.`.`.].[.].[.'.`.(.n.5...Q F G r.d.j   S ).`.`.`.`.`.`.`.`.`.",
"`.`.`.`.`.`.`.`.`.`.`.`.`.!.%.L | >.<.b.(.(.`.[.[.[.[.'.(.P.5...Q Y 6.(.W.8.S l.).`.`.`.`.`.`.`.`.`.",
"R.R.R.R.R.R.R.R.^.).`.`.!.7.g 4 I :.,.p.N.).`.].].].`.`.`.Q.5.v < s S.(.!.z.E.).`.`.`.`.`.`.`.U.R.R.",
"Y.K.Y.K.K.K.K.Y.I.`.`.`.W.o.: $ b E ;.3.v././.n./.(.`.).N.v.1.p : - X.E.d.` E.`.`.`.`.`.`.`.^.I.K.I.",
"K.K.K.K.K.K.K.K.I.^.`.`.).j.s # 3 m :.:.2.a.5.5.f./.Q.b.p.3.1.n > ~ g.z.l 1 $.`.`.).`.`.`.`.^.I.K.K.",
"K.K.K.K.K.K.K.K.I.R.R.R.R.H.+.2 $ 5 W R a N ..>.5.x.p.<.,.,. .U / l.).!.9.( z.`.^.^.^.R.R.^.R.Y.K.K.",
"K.K.K.K.K.K.K.K.K.K.K.K.Y.K.0.k & f I < & = U | M Z :.;.:.E m p V !.).)._.).`.`.R.I.Y.Y.Y.Y.Y.K.K.K.",
"K.K.K.K.K.K.Y.Y.K.Y.K.K.Y.K.C.$.@.A.-.z X q L a o = K :.R 7 , @ 9 g.`.`.`.`.`.).^.Y.K.K.K.K.K.K.K.K.",
"T.I.R.T.T.T.T.R.T.I.T.T.R.R.R.U.~.^.R.@.G &.-.z   - J n % # # 1 S k.).`.`.`.`.`.^.R.T.T.T.T.R.T.T.T.",
"'.).).'.^.'.`.`._.).'.).`.^.).`.`.(.D.H @.W.~.*.z _ =.T & : F q.H.).`.`._.`.`.`.`.`.'.^._.^.'.`.`.`.",
"_.`.`.`.`.`.`.`.`.`.`.`.`.`.`.`.).k.l 8 G D.L.@.{ H.W.V.~ o.z.!.).`.`.`.`.`.`.`.`.`.`.`.).`.`.`._.'.",
"`.`.`.`.`.`.`.`.`.`.`.`.`.`.`.`._.W.c   k @.( r D z.`.W.E.E.).`.`.).`.`.`.`.`.`.`.`.`.`.`.`.`.).`.`.",
"`.`.).`.`.`.`.`.`.`.`.`.`.`.`.`.`.).z.[ z.j.x   u w.`.`.).`.`.`.`.`.`.`.`.`.`.`.`.`.`.`.`.`.`.`.`.`.",
"`.`.`.`.`.`.`.`.`.`.`.`.`.`.`.`.).).).).).W.w.h o.m.).`.).`.`.`.`.`.`.`.`.`.`.`.`._.`.`.`.`.`.`.`.`.",
"`.`.`.`.`.`.`.`.`.`.`._.`.`.`.`.`.`._.`.`.`.^.z.W.`.`.`.`.`.`.`.`.'.`.`.`.`.`.`.`.`.`.`.`.`.`.`.`.`.",
"`.`.`.`.`.`.`.`.`.`.`.`.`.`.`.`.`.`.`.`.`.`._.`.`.`.`.`.`.`.`.`.`._.`.`.`.`.`.`.`.`.`.`.`.`.`.`.`.`.",
"`.`.`.`.`.`.`.`.`.`.`.`.`.`.`.`.`.`.`.`.`.`.`.`.`.`._.`.`.`.`.`.`.`.`.`._.`.`.`.`.`.`.'.`.`.`.`.`.`.",
"`.`.`.`.`.`.`.`.`.`.`.`.`.'._.`.`.`.`.`.`.`.`.`.`.`.`.`.`.`.`.`.`.`.`.`.`.`.`.`.`.`.`._.`.`.`.`._.`.",
"`.`.`.`.`.`.`.`.`.`.`.`.`.`.`.`.`.`.`.`.`.`.`.`.`.`.`.`.`.`.`.`.`.`.`.`.`.`.`.`.`.`.`.`.`.`.`.`.`.`.",
"`.`.`.`.`.`.`.`.`.`.`.`.`.`.`.`.`.`.`.`.`.`.`.`.`.`.`.`.`.`.`.`.`.`.`.`.`.`.`.`.`.`.`.`.`.`.`._.`.`.",
"`.).`.`.`.).)._.`.'.`.`.`.`.`.`.`.`.`.'.`.`.`._.`.`.`.`.`.`.`.`.`.`.`.`.`.`.`.'.`.`.`._.`.`.`.`.`.`.",
"`._.'.U.T.R.T.U.T.T.R.R.`.`.`.`.`.`.`._.`.`.`.`.`.`.`.`.`.`.`.`.`.`.`.`.`.`.`._.`.`.`.`.`.`.`.`.`.`.",
"`.`.R.Y.Y.K.K.K.K.K.K.I.'._.`.`.`.`.`.`.`.`.`.`.`.`.`.`.`.`.`.`.`.`.`.`.`.`.`.`.'.`.`.`.`.`.`.`.`.`.",
"`.).^.Y.K.K.K.K.K.K.K.I.^.).`.`.`.`.`.`.`.`.`.`.`.`.`.`._.`.`.`.`.`.`._.`.`.`.`._.`.`.`.`.`.`.`.`.`."
};
