/* XPM */
static char *result[] = {
/* columns rows colors chars-per-pixel */
"50 50 161 2 ",
"   c #6E9FAA",
".  c #6CA4A5",
"X  c #6EA8A5",
"o  c #6BA5AA",
"O  c #67A9AC",
"+  c #68A8AB",
"@  c #72A3A4",
"#  c #7BA5AA",
"$  c #74A9AA",
"%  c #7BAAAD",
"&  c #77B5AC",
"*  c #7CB4AD",
"=  c #73A6B1",
"-  c #76ABB5",
";  c #7DACB2",
":  c #7DB6B3",
">  c #7CB9B6",
",  c #7EBBB9",
"<  c #7FC3BA",
"1  c #87A8A7",
"2  c #82A5AD",
"3  c #83ABAF",
"4  c #8CA9AB",
"5  c #82B5AD",
"6  c #84B9AC",
"7  c #95B1AE",
"8  c #83ACB3",
"9  c #8CADB4",
"0  c #8DAEB9",
"q  c #81B5B3",
"w  c #8CB3B5",
"e  c #81B9B4",
"r  c #8BBBB5",
"t  c #86B2B8",
"y  c #8BB2B8",
"u  c #84B9B9",
"i  c #8BBBBB",
"p  c #94B1B4",
"a  c #99B5B5",
"s  c #94B2BA",
"d  c #9BB6BB",
"f  c #9BBABD",
"g  c #A0B9B8",
"h  c #8CC1B4",
"j  c #82C2B9",
"k  c #88C2BE",
"l  c #92C5B5",
"z  c #98CAB7",
"x  c #94C3BE",
"c  c #9EC1BA",
"v  c #9CCDB9",
"b  c #ABC2BE",
"n  c #97B8C1",
"m  c #9FBEC6",
"M  c #A4BCC5",
"N  c #8CC2C2",
"B  c #9DCBCB",
"V  c #9CD3C7",
"C  c #97D2CA",
"Z  c #9CD3CB",
"A  c #9EDACC",
"S  c #9DC8D2",
"D  c #ACC4C6",
"F  c #A5C3CB",
"G  c #AAC5CC",
"H  c #A9CDCC",
"J  c #B1C9C2",
"K  c #BCCDC5",
"L  c #B3CACB",
"P  c #BDCECB",
"I  c #A3D6C7",
"U  c #A2DBC6",
"Y  c #A9DDC5",
"T  c #A2D5C9",
"R  c #ABD6CD",
"E  c #A3DCCB",
"W  c #A9DCC9",
"Q  c #BCD1CC",
"!  c #B4DBCC",
"~  c #ABC6D1",
"^  c #A7CDD2",
"/  c #AECCD2",
"(  c #B5CFD1",
")  c #A0D6D1",
"_  c #ACD1D4",
"`  c #B4D3D5",
"'  c #BCD2D4",
"]  c #B9DAD2",
"[  c #B6D4DB",
"{  c #BCD5D9",
"}  c #B6DADB",
"|  c #BEDADB",
" . c #ADE3C4",
".. c #A2E1C8",
"X. c #ACE2CB",
"o. c #B3E4C4",
"O. c #B3E2CC",
"+. c #BBE6CD",
"@. c #BCE9CD",
"#. c #A3E3D0",
"$. c #B7E2D1",
"%. c #BEE8D1",
"&. c #BEDBE2",
"*. c #C0CECA",
"=. c #C2D3CC",
"-. c #C5DACF",
";. c #C1CFD8",
":. c #C5DCD5",
">. c #C9DCD4",
",. c #CAD5DA",
"<. c #C5DDDC",
"1. c #CADDDB",
"2. c #D0D7DE",
"3. c #C5E2CF",
"4. c #C3EACC",
"5. c #CAECCB",
"6. c #C8E5D1",
"7. c #C2EAD3",
"8. c #CBE1DA",
"9. c #D1E1D7",
"0. c #D3EDD6",
"q. c #D3E4DB",
"w. c #D9E5DD",
"e. c #D4EBDB",
"r. c #DBEBDD",
"t. c #D2F1DA",
"y. c #E1EEDE",
"u. c #E4F1DF",
"i. c #E9FCDF",
"p. c #D5DAE1",
"a. c #DCDEE6",
"s. c #CBE3E2",
"d. c #D3E6E3",
"f. c #D6E8E1",
"g. c #DBEBE2",
"h. c #D4E7EC",
"j. c #DFE0E8",
"k. c #D7ECE8",
"l. c #DCEEE9",
"z. c #D8F7E3",
"x. c #D7F8E0",
"c. c #DBF9E3",
"v. c #E2E5E7",
"b. c #E2ECE6",
"n. c #E8EDE7",
"m. c #E0E2E8",
"M. c #E6EAE8",
"N. c #E8EEE8",
"B. c #E4F2E2",
"V. c #EAF5E4",
"C. c #E3FCE3",
"Z. c #EDFBE5",
"A. c #E3F5E9",
"S. c #ECF3E8",
"D. c #E7FCE9",
"F. c #EEFBEA",
"G. c #F2FDE6",
"H. c #F5FFE8",
"J. c #F8FCEE",
"K. c #F7FDF2",
"L. c #F9FCF2",
/* pixels */
"j.j.j.j.j.j.j.j.j.j.j.j.j.j.m.m.j.m.n.H.H.H.H.H.H.H.H.H.H.H.H.H.H.H.H.H.H.H.H.H.H.H.H.H.H.H.H.H.H.H.",
"j.j.j.m.j.j.j.j.j.j.j.j.j.j.m.m.j.m.n.H.H.H.H.H.H.H.H.H.H.H.H.H.H.H.H.H.H.H.H.H.H.H.H.H.H.H.H.H.H.H.",
"v.v.v.v.v.v.v.v.M.v.v.v.v.v.v.M.v.v.n.H.H.H.H.H.H.H.H.H.H.H.H.H.H.H.H.H.S.H.S.H.H.S.S.H.H.H.H.H.H.H.",
"S.S.F.S.S.F.S.S.S.S.S.G.S.S.S.S.S.S.H.H.H.H.H.H.H.H.H.H.H.H.H.H.H.H.n.M.M.M.M.M.M.M.N.n.H.H.H.H.H.H.",
"H.H.H.H.H.H.H.H.H.H.H.H.H.H.H.H.H.H.H.H.H.H.H.H.H.H.H.H.H.H.H.H.H.H.M.a.j.m.j.m.m.m.m.M.S.H.G.H.H.H.",
"H.H.H.H.H.H.H.H.H.H.H.H.H.H.H.H.H.H.H.H.H.H.H.H.H.H.H.H.H.H.H.H.J.S.M.m.j.j.j.j.m.a.m.M.S.H.J.H.H.H.",
"H.H.H.H.H.H.H.H.H.H.H.H.H.H.H.H.H.H.H.H.H.H.H.H.H.H.H.H.H.H.H.S.M.M.m.j.j.j.j.j.m.m.a.m.N.N.N.M.M.N.",
"H.H.H.H.H.H.H.H.H.H.H.H.H.H.H.H.H.H.H.H.H.J.H.H.H.H.H.H.H.H.S.M.m.j.j.j.j.j.m.m.a.m.j.j.m.m.j.j.m.m.",
"H.H.H.H.H.H.H.H.H.H.H.H.H.H.H.H.H.H.H.H.H.H.H.H.H.H.H.H.H.H.G.M.v.m.m.v.v.v.v.v.m.v.m.m.m.m.m.m.m.m.",
"H.H.H.H.H.H.H.H.H.H.H.H.H.H.H.H.H.H.H.H.H.H.H.H.H.H.H.H.H.H.H.S.n.S.n.n.N.N.n.n.N.n.n.N.S.n.S.N.N.n.",
"H.H.H.H.H.H.H.H.H.H.H.H.H.H.H.H.H.H.H.H.H.H.H.H.H.H.H.H.H.H.H.H.G.G.G.H.J.H.H.H.J.H.H.H.H.H.H.H.H.H.",
"H.H.H.H.H.H.H.H.H.H.H.H.H.H.H.H.H.H.H.H.H.H.G.G.G.G.G.G.H.H.H.H.H.H.H.H.H.H.H.H.H.H.H.H.H.H.H.H.H.H.",
"H.H.H.H.H.H.H.H.H.H.H.H.H.H.H.G.V.u.V.G.G.S.d.:.:.<.1.1.S.G.G.V.r.u.G.G.H.H.H.H.H.H.H.H.H.H.H.H.H.H.",
"H.H.H.H.H.H.J.H.H.H.H.H.H.H.H.i.b p =.Z.G.d.a 2 % ; 2 s 2.G.G.K 4 a y.G.H.H.H.H.H.H.H.H.H.H.H.H.G.J.",
"H.H.H.H.H.H.H.H.H.H.H.H.H.H.H.y.d 2 M l.D.s.9 @ o o   8 | V.V.*.1 7 r.G.H.H.H.H.H.H.H.H.H.H.G.J.G.H.",
"H.H.H.H.H.H.H.H.H.H.H.H.H.V.u.w.( m F ( [ ^ i u > , , i ^ { 8.>.-.>.r.B.B.H.H.H.H.H.H.H.G.J.G.H.H.H.",
"H.H.H.H.H.H.H.H.H.H.H.H.V.g p L h.l.<.8 $ : Z E A ....T r % 0 <.V.Z.f.d n B.H.H.H.H.H.H.H.H.H.H.H.H.",
"H.H.H.H.H.H.H.H.H.H.H.H.u.9 2 F l.A.&.8 X & A X. . . .Y 5 @ ; &.D.F.e.0 0 B.H.H.H.H.H.H.H.H.H.H.H.H.",
"H.H.H.H.H.H.H.H.H.H.H.G.u.Q D / &.| ^ i 5 r +.4.4.4.@.+.h : u S &.d.f.9.q.V.S.H.S.H.S.S.H.H.H.H.H.H.",
"H.H.H.H.H.H.H.H.H.H.H.G.G.Z.b.| t q y B R ! z.i.c.C.i.x.O.A ) n 8 y ,.j.v.v.v.v.v.v.v.N.G.H.H.H.H.H.",
"H.H.H.H.H.H.H.H.H.H.H.H.H.H.V.| % X q ! ] 6.i.H.Z.F.G.D.7.X.R e $ % ' a.a.m.m.m.a.a.j.M.G.J.J.H.H.H.",
"H.H.H.H.H.H.H.H.H.H.H.H.Z.d.s.[ e & r ! 3.0.G.G.G.G.G.F.0.7.O.l % q H 1.p.a.a.a.m.m.j.M.H.S.G.H.H.H.",
"H.H.H.H.H.H.H.H.H.H.H.G.q.s 9 i C A $.c.C.i.H.G.G.G.G.G.D.C.x.%.U V x 9 d ,.a.m.m.m.a.j.v.M.M.G.H.H.",
"H.H.H.H.H.H.H.H.H.H.H.G.:.# @ u E X.7.c.F.G.H.H.G.G.J.J.H.F.C.5.O.E u @ 2 ;.a.a.a.m.j.j.a.j.v.G.H.H.",
"H.H.H.H.H.H.H.H.H.H.H.G.<.# o , U  .4.C.G.H.G.G.H.H.J.J.J.G.Z.5.o.U j + $ | j.v.m.v.m.v.v.v.v.J.H.H.",
"H.H.H.H.H.H.H.H.H.H.H.S.| % o > .. .4.C.G.G.G.J.K.K.L.L.J.G.i.5.o...j O - <.S.S.S.S.S.S.S.S.S.G.H.H.",
"H.H.H.H.H.H.H.H.H.H.H.Z.{ 2 = u E  .4.C.i.G.H.J.K.K.K.K.K.F.Z.5. .#.< . % 8.G.H.H.H.H.H.G.H.G.H.H.H.",
"H.H.H.H.H.H.H.H.H.H.H.Z.>.p 8 i V Y O.c.C.D.H.H.K.K.K.K.D.C.x.@.U A k ; w q.G.G.H.H.H.H.H.H.G.G.H.H.",
"n.n.n.n.n.n.n.n.S.H.H.H.V.1.<.` r 6 l +.7.t.Z.J.K.H.J.F.t.7.%.v 5 q B } 1.V.G.H.H.H.H.H.H.H.J.S.n.n.",
"v.j.j.m.m.m.m.m.v.H.H.H.G.Z.F.1.3 @ 3 T X.@.C.H.G.F.H.D.7.O.W 5 @ # _ B.G.H.H.H.H.H.H.H.H.G.S.v.j.j.",
"m.j.j.j.j.j.j.j.v.S.H.H.G.F.V.q.n ; i Z E O.t.i.C.Z.C.C.+.X.T r # 3 L n.V.G.H.H.H.H.H.H.J.G.G.m.j.j.",
"j.j.j.j.j.j.j.j.v.N.N.N.w.*.P >.d.<.` N < z 7.5.5.5.5.@.z 6 i B ` [ ~ M J w.G.H.S.S.S.n.S.n.n.m.j.j.",
"j.j.j.j.j.j.j.j.j.j.m.j.,.4 1 *.Z.Z.s.t X * I O.o. .X.U * @ 3 ` B.l.F # 4 >.G.H.S.m.j.j.m.j.m.j.j.j.",
"j.j.j.j.j.j.j.j.j.j.j.j.2.7 4 -.G.G.B.f ; t V E Y ....A : # 3 ` B.k.G 2 4 >.G.G.S.m.j.j.m.m.j.j.j.j.",
"M.M.M.M.M.M.n.n.M.v.M.v.n.2.y.n.V.u.V.q.8.] x j j < < N B _ ( ~ F G ' :.1.B.G.H.S.M.M.v.M.v.M.M.u.n.",
"J.H.S.J.G.G.J.G.J.G.G.J.G.H.S.V.L s y.G.Z.r.c $ + O + % } b.l.M # 4 w.S.G.G.H.H.H.J.G.G.G.J.G.H.H.H.",
"H.H.H.H.H.H.H.H.H.H.H.H.H.H.H.V.D s B.H.G.i.b 1 = - - 8 <.H.V.M 4 7 u.H.H.H.H.H.H.H.H.H.H.H.H.H.H.H.",
"H.H.H.H.H.H.H.H.H.H.H.H.H.H.H.H.V.i.G.H.H.G.y.>.| } P ' g.H.G.w.r.y.G.H.H.H.H.H.H.H.H.H.H.H.H.H.H.H.",
"H.H.H.H.H.H.H.H.H.H.H.H.H.H.H.H.H.H.H.H.H.H.H.G.Z.G.Z.G.H.H.H.H.G.G.H.H.H.H.H.H.H.H.H.H.H.H.H.H.H.H.",
"H.H.H.H.H.H.H.H.H.H.H.H.H.H.H.H.H.H.H.H.H.H.H.H.G.H.H.H.H.H.H.H.G.H.H.H.H.H.H.H.H.H.H.H.H.H.H.H.H.H.",
"H.H.H.H.H.H.H.H.H.H.H.H.H.H.H.H.H.H.H.H.H.H.H.H.H.H.H.H.H.H.H.H.H.H.H.H.H.H.H.H.H.H.H.H.H.H.H.H.H.H.",
"H.H.H.H.H.H.H.H.H.H.H.H.H.H.H.H.H.H.H.H.H.H.H.H.H.H.H.H.H.H.H.H.H.H.H.H.H.H.H.H.H.H.H.H.H.H.H.H.H.H.",
"H.H.H.H.H.H.H.H.H.H.H.H.H.H.H.H.H.H.H.H.H.H.H.H.H.H.H.H.H.H.H.H.H.H.H.H.H.H.H.H.H.H.H.H.H.H.H.H.H.H.",
"H.H.H.H.H.H.H.H.H.H.H.H.H.H.H.H.H.H.H.H.H.H.H.H.H.H.H.H.H.H.H.H.H.H.H.H.H.H.H.H.H.H.H.H.H.H.H.H.H.H.",
"H.H.H.H.H.H.H.H.H.H.H.G.H.H.H.H.H.H.H.H.H.H.H.H.H.H.H.H.H.H.H.H.H.H.H.H.H.H.H.H.H.H.H.H.H.H.H.H.H.H.",
"H.H.H.H.H.H.H.H.H.H.H.G.H.H.H.H.H.H.H.H.H.H.H.H.H.H.H.H.H.H.H.H.H.H.H.H.H.H.H.H.H.H.H.H.H.H.H.H.H.H.",
"H.H.H.H.S.H.J.H.G.H.H.J.H.H.H.H.H.H.H.H.H.H.H.H.H.H.H.H.H.H.H.H.H.H.H.H.H.H.H.H.H.H.H.H.H.H.H.H.H.H.",
"H.H.S.S.n.n.n.n.n.n.n.S.G.H.H.H.H.H.H.H.H.H.H.H.H.H.H.H.H.H.H.H.H.H.H.H.H.H.H.H.H.H.H.H.H.H.H.H.H.H.",
"H.H.S.m.m.j.j.j.j.j.j.v.G.J.H.H.H.H.H.H.H.H.H.H.H.H.H.H.H.H.H.H.H.H.H.H.H.H.H.H.H.H.H.H.H.H.H.H.H.H.",
"H.H.S.m.j.j.j.j.j.j.j.m.S.G.H.H.H.H.H.H.H.H.H.H.H.H.H.H.H.H.H.H.H.H.H.H.H.H.H.H.H.H.H.H.H.H.H.H.H.H."
};
