/* XPM */
static char *result[] = {
/* columns rows colors chars-per-pixel */
"50 50 171 2 ",
"   c #6D9DA9",
".  c #709FA5",
"X  c #7D9EA3",
"o  c #66A1A3",
"O  c #6DA8A5",
"+  c #65A6AB",
"@  c #6CA3AB",
"#  c #72A3A4",
"$  c #78A2A7",
"%  c #78A9A4",
"&  c #73A4AA",
"*  c #7BA4AB",
"=  c #76ACAC",
"-  c #79ABAE",
";  c #7DB5AC",
":  c #6FA7B1",
">  c #7AA1B1",
",  c #74AFB1",
"<  c #7DADB2",
"1  c #74B5B3",
"2  c #7CB4B1",
"3  c #77B8B4",
"4  c #82A2A5",
"5  c #82A4AA",
"6  c #88A7AC",
"7  c #85AAAC",
"8  c #86BAAD",
"9  c #89A6B0",
"0  c #84ABB2",
"q  c #8CABB3",
"w  c #87AEBB",
"e  c #94ADB1",
"r  c #86B5B3",
"t  c #87BDB3",
"y  c #87B1B8",
"u  c #8CB2BA",
"i  c #8EBABD",
"p  c #96B6B6",
"a  c #9AB5B2",
"s  c #91B3BB",
"d  c #91BBBD",
"f  c #A1B9BD",
"g  c #8BC0AF",
"h  c #87C6BE",
"j  c #8AC5BE",
"k  c #8ECBBF",
"l  c #91C2BC",
"z  c #94CABF",
"x  c #9DD1BF",
"c  c #A4C2BD",
"v  c #8BBEC1",
"b  c #93B5C0",
"n  c #95BCC2",
"m  c #9DBDC2",
"M  c #A3BFC2",
"N  c #A2BFC9",
"B  c #8EC5C3",
"V  c #8BCCC0",
"C  c #95C4C3",
"Z  c #9BC2C5",
"A  c #92CCC2",
"S  c #9DCAC5",
"D  c #94C7C8",
"F  c #9FD4CB",
"G  c #9FD9CE",
"H  c #A4C3C4",
"J  c #ABC6C7",
"K  c #A3C6CC",
"L  c #ACC5CD",
"P  c #A6CCCE",
"I  c #ABCDCC",
"U  c #B2C3C7",
"Y  c #B3CCC6",
"T  c #B5C4C9",
"R  c #B9C5C8",
"E  c #B2CDCD",
"W  c #BACDCA",
"Q  c #A2D6C7",
"!  c #A2D2CB",
"~  c #ADD5C8",
"^  c #A3DCCB",
"/  c #AEDDCA",
"(  c #BCD0C6",
")  c #B2DECA",
"_  c #AFCBD3",
"`  c #A6CCD8",
"'  c #B3CDD3",
"]  c #BBCDD0",
"[  c #B7CCD8",
"{  c #ACD3D6",
"}  c #A1DAD0",
"|  c #ABD2DB",
" . c #B5D2D5",
".. c #BED3D1",
"X. c #B9DED2",
"o. c #B5D4DD",
"O. c #BED6D9",
"+. c #BBDBDD",
"@. c #A7E3C4",
"#. c #ACE3C5",
"$. c #A5E1CA",
"%. c #ADE2CC",
"&. c #B3E4C3",
"*. c #BBE7C4",
"=. c #B4E3CB",
"-. c #B9E5CD",
";. c #A3E2D3",
":. c #C2D4CC",
">. c #C9D9CE",
",. c #C2CED5",
"<. c #C2D5D3",
"1. c #C6DBD4",
"2. c #CBDDD3",
"3. c #C5D2D9",
"4. c #C9D7DA",
"5. c #C3DEDE",
"6. c #C7E2CE",
"7. c #C3EBCC",
"8. c #CCEDCE",
"9. c #CFF0CC",
"0. c #C2E5D2",
"q. c #CCE3D3",
"w. c #C4EAD3",
"e. c #CCE2DC",
"r. c #D3E4D6",
"t. c #D2E5DD",
"y. c #D3E8DF",
"u. c #DAEBDC",
"i. c #CCF0D0",
"p. c #D6F5DE",
"a. c #DDFADE",
"s. c #E1EFDE",
"d. c #E5F7DE",
"f. c #E8F6DE",
"g. c #E6FADD",
"h. c #E8FBDE",
"j. c #C4DEE0",
"k. c #CCDCE3",
"l. c #D6DDE4",
"z. c #DBDEE5",
"x. c #C5E0E0",
"c. c #CFE5E4",
"v. c #D1E0E7",
"b. c #DEE2E7",
"n. c #D7EAE4",
"m. c #DBECE2",
"M. c #D4E7E8",
"N. c #DFE0E8",
"B. c #DEEEEA",
"V. c #D6F7E1",
"C. c #DAF7E2",
"Z. c #DCFAE3",
"A. c #DDF2EA",
"S. c #E2E5E7",
"D. c #E1EEE1",
"F. c #E8EDE7",
"G. c #E0E2E8",
"H. c #E6EAE8",
"J. c #E8EEE8",
"K. c #E4F3E4",
"L. c #EAF4E5",
"P. c #E3FAE3",
"I. c #EDFBE6",
"U. c #E3F3EC",
"Y. c #ECF3E8",
"T. c #EDFCE9",
"R. c #F2FDE6",
"E. c #F5FFE8",
"W. c #F8FDEE",
"Q. c #F6FEF1",
"!. c #F9FBF2",
/* pixels */
"N.N.N.N.z.N.N.N.N.N.N.N.N.N.N.N.N.N.J.E.E.E.E.E.E.E.E.E.E.E.E.E.E.E.E.E.E.E.E.E.E.E.E.W.E.E.E.E.E.E.",
"N.N.N.G.G.G.N.N.N.N.N.N.N.N.N.N.N.S.J.W.E.E.E.E.E.E.E.E.E.E.E.E.E.E.E.E.E.E.E.E.E.E.R.R.E.E.E.E.E.E.",
"S.S.S.S.G.G.G.S.S.S.S.S.G.S.S.H.S.S.Y.E.E.E.E.E.E.E.E.E.E.E.E.E.E.E.E.R.R.Y.E.R.E.Y.E.E.E.E.E.E.E.E.",
"Y.Y.T.Y.T.R.Y.Y.R.Y.Y.R.Y.Y.Y.Y.Y.Y.R.E.E.E.E.E.E.E.E.E.E.E.E.E.E.E.J.S.H.H.H.H.H.H.H.F.E.E.E.E.E.E.",
"E.E.E.E.W.E.E.E.E.E.E.E.E.E.E.E.E.E.E.E.E.E.E.E.E.E.E.E.E.E.E.E.E.W.F.N.N.N.N.N.N.N.N.H.E.E.E.E.E.E.",
"E.E.E.E.E.E.E.E.E.E.E.E.E.E.E.E.E.E.E.E.E.E.E.E.E.E.E.E.E.E.E.E.E.Y.H.N.N.N.N.N.N.N.z.H.Y.E.Y.E.W.E.",
"E.E.E.E.E.E.E.E.E.E.E.E.E.E.E.E.E.E.E.E.E.E.E.E.E.E.E.E.E.E.E.Y.H.H.S.N.N.N.N.N.N.N.N.S.H.F.F.F.F.F.",
"E.E.E.E.E.E.E.E.E.E.E.E.E.E.E.E.E.E.E.E.E.E.E.E.E.E.E.E.E.E.R.H.N.G.N.N.N.N.N.G.N.N.N.N.N.N.N.N.N.N.",
"E.E.E.E.E.E.E.E.E.E.E.E.E.E.E.E.E.E.E.E.E.E.E.E.E.E.E.E.E.E.R.S.G.G.G.G.G.G.G.G.G.S.S.S.G.G.G.G.G.S.",
"E.E.E.E.E.E.E.E.E.E.E.E.E.E.E.E.E.E.E.E.E.E.R.E.E.E.E.W.E.E.R.Y.J.J.J.Y.J.J.Y.J.J.J.J.J.J.J.Y.J.J.J.",
"E.E.E.E.E.E.E.E.E.E.E.E.E.E.E.E.E.E.E.E.E.R.>.r.E.R.r.2.R.E.E.E.E.R.E.E.E.E.E.E.W.E.E.E.E.E.E.E.W.E.",
"E.E.E.E.E.E.E.E.E.E.E.E.E.E.E.E.E.E.E.E.I.:.4 q 2.r.a 6 >.R.E.E.E.E.E.E.E.E.E.E.E.E.E.E.E.E.E.E.E.E.",
"E.E.E.E.E.E.E.E.E.E.E.E.E.E.E.E.E.E.E.E.I.W u s O.+.u 9 ,.Y.E.E.E.E.E.E.E.E.E.E.E.E.E.E.E.E.E.E.E.E.",
"E.E.E.E.E.E.E.E.E.E.E.E.E.E.E.E.E.E.R.R.E.m.' ' B.J._ N n.R.R.R.E.E.E.E.E.E.E.E.E.E.E.E.E.E.E.E.E.E.",
"E.E.E.E.E.E.E.E.E.E.E.E.E.E.E.E.R.y.:.n.L.n.' o.A.A.o.L M.U.M.<.u.R.E.E.E.E.E.E.E.E.E.E.E.E.E.E.E.E.",
"E.E.E.E.E.E.E.E.E.E.E.E.E.E.E.E.t.c 5 m j.I - u | | r & K +.m 4 c t.R.E.E.E.E.E.E.E.E.E.E.E.E.E.E.E.",
"E.E.E.E.E.E.E.E.E.E.E.E.E.E.T.c.Z #   < D 2 O = d d = O ; C < . & Z n.R.R.E.E.E.E.E.E.E.E.E.E.E.E.E.",
"E.E.E.E.E.E.E.E.E.E.E.E.E.R.e.m &   2 j G A ; 8 P ! t ; A G j = @ & M n.R.R.E.E.E.E.E.E.E.E.E.E.E.W.",
"E.E.E.E.E.E.E.E.E.E.E.E.E.Y.W 5 @ , h ^ $.=.) ~ X.X.~ / =.$.^ V ,   * ] J.Y.Y.R.Y.Y.Y.R.W.E.E.E.E.E.",
"E.E.E.E.E.E.E.E.E.E.E.E.E.T.c.b < B $.@.=.w.Z.p.6.6.p.Z.w.#.@.^ B < b k.S.S.S.S.H.S.S.J.R.E.E.E.E.E.",
"E.E.E.E.E.E.E.E.E.E.R.L.I.E.L.5.C ^ @.&.8.d.h.R.g.f.R.I.P.7.&.#.^ Z  .l.N.l.z.N.G.N.N.H.R.E.E.E.E.E.",
"E.E.E.E.E.E.E.E.E.E.f.:.>.L.K.E r x =.7.P.I.R.R.R.E.R.R.T.a.7.=.x r K k.l.R R l.N.N.N.H.Y.Y.R.E.E.E.",
"E.E.E.E.E.E.E.E.E.R.( 4 a 1.1.7 # 8 ) C.P.I.R.R.R.E.R.R.I.T.Z.=.8 # X ' ,.e X T z.N.N.G.H.H.H.E.E.E.",
"E.E.E.E.E.E.E.E.E.R.>.7 c q.e.y & 8 ) C.T.I.R.R.E.R.R.I.E.E.V.%.t & w [ 3.f 5 ] N.N.N.N.G.G.H.Y.E.E.",
"E.E.E.E.E.E.E.E.E.E.R.u.u.R.K. .n F =.w.K.R.E.W.E.E.W.E.E.P.w.=.F v ` v.b.4.3.l.G.G.G.S.S.G.S.R.E.E.",
"E.E.E.E.E.E.E.E.E.E.E.L.R.R.T.+.D G %.-.P.E.E.W.W.W.W.W.E.K.0./ G D | B.L.m.e.Y.Y.Y.Y.Y.Y.Y.Y.R.E.E.",
"E.E.E.E.E.E.E.E.E.E.u.L 2.I.u.d , t / p.R.Q.Q.Q.!.!.!.W.E.T.p.%.t - y e.K.W u e.E.E.E.E.E.E.W.E.E.E.",
"E.E.E.E.E.E.E.E.R.E.1.0 J L.1.0 @ ; -.Z.E.E.E.Q.!.!.W.W.E.T.a.=.; & * <.D.H > ..R.E.E.E.E.E.E.R.E.E.",
"J.F.J.J.F.F.F.F.Y.R.Y.r.I.R.K.~ r A -.8.g.I.I.Q.Q.Q.Q.E.I.h.8.=.z < I K.R.s.2.R.E.E.E.E.E.E.R.F.F.F.",
"N.G.G.G.G.G.N.N.H.Y.E.E.E.R.I.e.S } ) *.9.P.T.E.U.Z.T.R.P.9.*.=.^ l 0.R.E.R.E.E.E.E.E.E.E.E.Y.H.G.N.",
"N.N.N.N.N.N.N.N.S.R.E.R.R.E.L.Y t k ^ #.*.i.P.C.w.w.V.Z.8.*.#.@.z 8 c L.R.E.E.E.E.E.E.E.E.R.Y.S.N.N.",
"N.N.N.N.N.N.N.N.G.J.J.Y.Y.J.2.p & 3 k $.%.=.-.=.=.-.-.=.=.@.$.k 3 O e >.R.E.E.E.Y.Y.F.Y.Y.Y.F.G.N.N.",
"N.N.N.N.N.N.N.N.N.N.N.N.G.N.4.M @ + 1 V } A 8 g Q Q g 8 A ;.V 3 + @ H u.R.E.E.E.Y.S.N.N.G.S.N.N.N.N.",
"G.G.N.G.N.N.N.N.N.N.N.N.N.N.z.l.n , @ 3 A 2 # % l l % # 2 A 2 o : K u.R.E.E.E.E.Y.G.N.N.N.N.N.N.N.N.",
"H.S.H.H.S.H.F.F.H.H.H.S.S.F.F.L.e.b & i { D * 7 P P 7 $ D ` i * K m.R.E.E.E.E.E.Y.H.H.F.H.F.H.H.s.F.",
"R.W.R.R.W.R.R.E.W.R.W.R.R.R.R.E.Y.1.J j.A.x.N _ n.n._ N e.K.5.] u.R.E.E.E.E.E.E.E.E.R.R.R.Y.W.W.E.E.",
"E.E.E.E.E.E.E.E.E.E.E.E.E.E.E.E.E.I.L.L.R.n.L W T.A.' L D.E.I.R.R.E.E.E.E.E.E.E.E.E.E.E.R.E.E.E.E.E.",
"E.E.E.E.E.E.E.E.E.E.E.E.E.E.E.E.E.E.E.E.L.U 9 e  . .s 6 W L.E.E.E.E.E.E.E.E.E.E.E.E.E.E.E.E.E.E.E.E.",
"E.E.E.E.E.E.E.E.E.E.E.E.E.E.E.E.E.E.E.E.L.W 4 4  .W * 4 T D.E.E.E.E.E.E.E.E.E.E.E.E.E.E.E.E.E.E.E.E.",
"E.E.E.E.E.E.E.E.E.E.E.E.E.E.E.E.E.E.E.E.R.K.:.>.Y.u.W c r.T.E.E.E.E.E.E.E.E.E.E.E.E.E.E.E.E.E.E.E.E.",
"E.E.E.E.E.E.E.E.E.E.E.E.E.E.E.E.E.E.E.E.E.E.E.E.E.E.f.f.R.E.E.E.E.E.E.E.E.E.E.E.E.E.E.E.E.E.E.E.E.E.",
"E.E.E.E.E.E.E.E.E.E.E.E.E.E.E.E.E.E.E.E.E.E.E.E.E.E.E.E.E.E.E.E.E.E.E.E.E.E.E.E.E.E.E.E.E.E.E.E.E.E.",
"E.E.E.E.E.E.E.E.E.E.E.E.E.E.E.E.E.E.E.E.E.E.E.E.E.E.E.E.E.E.E.E.E.E.E.E.E.E.E.E.E.E.E.E.E.E.E.E.E.E.",
"E.E.E.E.E.E.E.E.E.E.E.E.E.E.E.E.E.E.E.E.E.E.E.E.E.E.E.E.E.E.E.E.E.E.E.E.E.E.E.E.E.E.E.E.E.E.E.E.E.E.",
"E.E.E.E.E.E.E.E.E.E.E.E.E.E.E.E.E.E.E.E.E.E.E.E.E.E.E.E.E.E.E.E.E.E.E.E.E.E.E.E.E.E.E.E.E.E.E.E.E.E.",
"E.E.E.E.E.R.E.E.E.E.E.W.E.E.E.E.E.E.E.E.E.E.E.E.E.E.E.E.E.E.E.E.E.E.E.E.E.E.E.E.E.E.E.E.E.E.E.E.E.E.",
"E.E.E.E.R.W.W.R.E.R.R.R.E.E.E.E.E.E.E.E.E.E.E.E.E.E.E.E.E.E.E.E.E.E.E.E.E.E.E.E.E.E.E.E.E.E.E.E.E.E.",
"E.E.Y.Y.F.F.H.F.F.F.F.Y.E.E.E.E.E.E.E.E.E.E.E.E.E.E.E.E.E.E.E.E.E.E.E.E.E.E.E.E.E.E.E.E.E.E.E.E.E.E.",
"E.E.Y.G.N.N.N.N.N.N.N.S.W.R.E.E.E.E.E.E.E.E.E.E.E.E.E.E.E.E.E.E.E.E.E.E.E.E.E.E.E.E.E.E.E.E.E.E.E.E.",
"E.E.Y.S.N.N.N.N.N.N.N.S.Y.R.E.E.E.E.E.E.E.E.E.E.E.E.E.E.E.E.E.E.E.E.E.E.E.E.E.E.E.E.E.E.E.E.E.E.E.E."
};
