/* XPM */
static char *result[] = {
/* columns rows colors chars-per-pixel */
"50 50 185 2 ",
"   c #77999F",
".  c #789C9E",
"X  c #70A29F",
"o  c #6D9FA5",
"O  c #719FA3",
"+  c #7A9BA2",
"@  c #7A9FA9",
"#  c #799EB0",
"$  c #6EA5A6",
"%  c #65A2AA",
"&  c #6CA3AA",
"*  c #6DAFAC",
"=  c #71A2A6",
"-  c #7CA1A3",
";  c #79A9A4",
":  c #72A3AA",
">  c #7DA5AB",
",  c #74AAAB",
"<  c #7EABAD",
"1  c #72B0AB",
"2  c #7DB3AA",
"3  c #79A6B0",
"4  c #74B1B2",
"5  c #77BAB6",
"6  c #7CB8B7",
"7  c #7CBFB8",
"8  c #83A5AA",
"9  c #82ADAD",
"0  c #8BACAE",
"q  c #81B4AC",
"w  c #88BBAC",
"e  c #84A5B6",
"r  c #83ACB4",
"t  c #8AAAB3",
"y  c #8DAEB9",
"u  c #84B3B4",
"i  c #89B3B6",
"p  c #85BEB2",
"a  c #8BBFB3",
"s  c #83B3B9",
"d  c #8CB2B9",
"f  c #87BDBA",
"g  c #8BBCBB",
"h  c #96B4B3",
"j  c #9BB6B5",
"k  c #93B4BB",
"l  c #9BB6BC",
"z  c #92BBBD",
"x  c #9ABFBF",
"c  c #A5BDB7",
"v  c #A2BBB9",
"b  c #81C0B8",
"n  c #8DC4BD",
"m  c #90C5B4",
"M  c #95C2BF",
"N  c #96C9BD",
"B  c #A6C2BD",
"V  c #AAC3BD",
"C  c #B2C5BF",
"Z  c #8EB8C4",
"A  c #9CB5C5",
"S  c #96BCC4",
"D  c #9CBCC4",
"F  c #A3BEC5",
"G  c #A6BECB",
"H  c #8BC5C1",
"J  c #8ECDC2",
"K  c #95C6C2",
"L  c #9BC2C4",
"P  c #92CCC4",
"I  c #91C2C8",
"U  c #9FC6CD",
"Y  c #97C9C9",
"T  c #9ECCCD",
"R  c #96D5C6",
"E  c #9CD5C4",
"W  c #98D9C4",
"Q  c #99D4C9",
"!  c #9EDECA",
"~  c #A4C2C5",
"^  c #AEC4C3",
"/  c #ACC4CD",
"(  c #A1C8C9",
")  c #B1C6C3",
"_  c #B6CDC6",
"`  c #BACEC5",
"'  c #B3CDCD",
"]  c #A4D5C5",
"[  c #A2D9C5",
"{  c #ABDBC6",
"}  c #A4D5C9",
"|  c #A4DBCB",
" . c #ABDECA",
".. c #B4D2CB",
"X. c #BDD5CD",
"o. c #B1DBCC",
"O. c #ABC7D2",
"+. c #ADCED2",
"@. c #B3CED2",
"#. c #ADD1D3",
"$. c #A4DDD1",
"%. c #BCD4D4",
"&. c #BCDCD2",
"*. c #B4D5DD",
"=. c #BAD4DB",
"-. c #B6D9DB",
";. c #BADBDC",
":. c #A7E3C5",
">. c #ACE2C4",
",. c #A6E0CB",
"<. c #ACE2CC",
"1. c #B3E4C5",
"2. c #BEE7C5",
"3. c #B4E3CB",
"4. c #BBE4CD",
"5. c #BCE9CA",
"6. c #A6E2D1",
"7. c #BDE0D1",
"8. c #BEE8D2",
"9. c #C0D2C9",
"0. c #C2CDD6",
"q. c #C3D4D4",
"w. c #C7DDD4",
"e. c #CCDCD4",
"r. c #C5D4DA",
"t. c #CFD6DF",
"y. c #C5DBDC",
"u. c #CCDCDA",
"i. c #D0DBDE",
"p. c #C8E9C6",
"a. c #C5E2CF",
"s. c #C4EAC9",
"d. c #CDEECE",
"f. c #CDE2D4",
"g. c #C5ECD3",
"h. c #CAECD5",
"j. c #CCE1DB",
"k. c #C9EFDA",
"l. c #D3E3D5",
"z. c #D4E5DC",
"x. c #DAE7DC",
"c. c #D7ECDF",
"v. c #DBE9DE",
"b. c #CDF1D5",
"n. c #D1F2D6",
"m. c #DCF5D7",
"M. c #D5F5DC",
"N. c #E3EEDF",
"B. c #E3FADE",
"V. c #E8FADD",
"C. c #C3DDE2",
"Z. c #D4DBE3",
"A. c #DDDFE7",
"S. c #C6E1E1",
"D. c #CAE0E4",
"F. c #CCE8E7",
"G. c #D1E7E4",
"H. c #DEE2E6",
"J. c #D4E9E6",
"K. c #DBECE2",
"L. c #D3E4E9",
"P. c #DFE0E8",
"I. c #D1E9EB",
"U. c #D5F6E1",
"Y. c #DBF2E3",
"T. c #DFF0EA",
"R. c #E2E5E7",
"E. c #E2EDE3",
"W. c #E8EDE7",
"Q. c #E0E2E8",
"!. c #E6EAE8",
"~. c #E8EEE8",
"^. c #E4F2E3",
"/. c #EBF5E5",
"(. c #E5FCE5",
"). c #EDFBE5",
"_. c #E3F3EA",
"`. c #EDF3E8",
"'. c #E4FEE9",
"]. c #ECFBE9",
"[. c #F2FDE6",
"{. c #F5FFE8",
"}. c #F8FCEE",
"|. c #F5FDF1",
" X c #F9FCF3",
/* pixels */
"P.P.P.P.P.P.P.P.P.P.P.P.P.P.P.P.P.Q.`.{.{.{.{.{.{.{.{.{.{.{.{.{.{.{.{.{.{.{.{.{.{.{.{.{.{.{.{.{.{.{.",
"P.P.P.Q.P.P.P.P.P.R.P.P.P.P.P.P.P.Q.~.{.{.{.{.{.{.{.{.{.{.{.{.{.{.{.{.{.{.{.{.}.{.{.{.{.{.{.{.{.{.{.",
"R.R.R.R.R.R.R.R.R.R.R.R.R.R.R.!.R.!.`.{.{.{.{.{.{.{.{.{.{.{.{.{.{.{.`.{.{.`.{.[.{.`.`.{.{.{.{.{.{.{.",
"`.`.].`.`.].`.`.`.`.`.[.`.`.`.`.`.`.`.{.{.{.{.{.{.{.{.{.{.{.{.{.{.{.`.R.R.!.!.!.!.!.W.~.[.{.{.{.{.{.",
"{.{.{.{.{.{.{.{.{.{.{.{.{.{.{.{.{.{.{.{.{.{.{.{.{.{.{.{.{.{.{.{.{.{.!.P.P.Q.P.P.Q.P.P.!.[.{.[.{.{.{.",
"{.{.{.{.{.{.{.{.{.{.{.{.{.{.{.{.{.{.{.{.{.{.{.{.{.{.{.{.{.{.{.{.{.`.!.P.P.P.P.P.P.P.P.!.`.[.[.}.{.{.",
"{.{.{.{.{.{.{.{.{.{.{.{.{.{.{.{.{.{.{.{.{.{.{.{.{.{.{.{.{.{.{.`.W.W.Q.P.P.P.P.P.P.P.P.R.!.!.W.!.W.!.",
"{.{.{.{.{.{.{.{.{.{.{.{.{.{.{.{.{.{.{.{.{.{.{.{.{.{.{.{.{.{.`.!.Q.P.P.P.P.P.P.P.P.P.P.P.Q.Q.Q.Q.Q.Q.",
"{.{.{.{.{.{.{.{.{.{.{.{.{.{.{.{.{.{.{.{.{.{.{.{.{.{.{.{.{.{.[.!.R.Q.Q.Q.Q.Q.P.Q.Q.Q.Q.R.Q.Q.Q.Q.Q.Q.",
"{.{.{.{.{.{.{.{.{.{.{.{.{.{.{.{.{.{.{.{.{.{.{.{.{.{.{.{.{.{.{.`.~.~.`.W.W.`.W.`.~.`.~.~.~.~.`.~.~.`.",
"{.{.{.{.{.{.{.{.{.{.{.{.{.{.{.{.{.{.{.[.{.{.{.{.{.{.{.{.{.{.{.[.{.[.{.{.{.{.{.{.}.{.{.{.{.{.{.{.{.[.",
"{.{.{.{.{.{.{.{.{.{.{.{.{.{.{.{.{.{.[.9.V x.`.{.{.{.[.{.{.{.{.{.{.{.{.{.{.{.{.{.{.{.{.{.{.{.{.{.{.}.",
"{.{.{.{.{.{.{.{.{.{.{.{.{.{.{.{.{.{.^.j > ) /.{._.f.w.j.N./.).[.{.{.{.{.{.{.{.{.{.{.{.{.{.{.{.{.{.{.",
"{.{.{.{.{.{.{.{.{.{.{.{.{.{.{.x.` e.j.~ y ~ T.].D.t 8 y F %.z.).{.{.{.{.{.{.{.{.{.{.{.{.{.{.{.{.{.{.",
"{.{.{.{.{.{.{.{.{.{.{.{.{.{.{.c - l y.L.=.O.=.C.#.> o & o @ l K.{.{.V.[.{.{.{.{.{.{.{.{.[.{.{.{.{.{.",
"{.{.{.{.{.{.}.{.{.{.{.{.{.{.[.) k D L.].I.d < f I g 6 4 , : A J.{.W.c c l.{.{.{.{.{.{.{.{.{.{.{.{.{.",
"{.{.{.{.{.{.{.{.{.{.{.{.{.{.[.K.y.' C.F.-.u $ 1 R | ! W J g U S._.x.j . V ).{.{.{.{.{.{.{.{.{.{.{.{.",
"{.{.{.{.{.{.{.{.{.{.{.{.{.{.{.[.T.+.r g D g 2 p  .<.>.>.,.[ g S @.w.9.B w.).{.{.{.{.{.{.{.{.{.{.{.{.",
"{.{.{.{.{.{.{.{.{.{.{.{.[.).^._.G.z = , M } ] o.k.g.5.1.1.:.2 O e y.E.v.K.K.`.`.`.`.].[.{.{.{.{.{.{.",
"{.{.{.{.{.{.{.{.{.{.[.[.[.i.l F #.f 1 2 ] &.w.B.].(.U.n.g.C q : Z C.Q.H.0.y G H.R.R.R.!.{.{.{.{.{.{.",
"{.{.{.{.{.{.{.{.{.{.{.{./...- > f Q E ] 7.a.l.V.[.).).).(.8.E P I *.L.A./ # A A.R.P.P.!.{.{.{.{.{.{.",
"{.{.{.{.{.{.{.{.{.{.{.{.K.~ o * J ,.<.k.'.(.V.[.[.[.[.{.(.g.3.$.H s Z r.Z.0.t.P.P.P.P.!.`.`.{.{.{.{.",
"{.{.{.{.{.{.{.{.{.{.{.{.D.i % 4 Q :.3.M.].[.[.[.[.[.[.[.).h.3.} 2 , 3 r.A.A.A.P.P.P.P.Q.!.!.!.{.{.{.",
"{.{.{.{.{.{.{.{.{.{.[.[.q.3 : 6 | >.2.B.).[.[.{.[.[.}.{.].Y.U.4.a , d r.A.A.P.P.P.P.P.P.Q.Q.!.`.{.{.",
"{.{.{.{.{.{.{.{.{.{.{./.q.t > f | >.s.(.[.[.[.{.{.{.}.{.}.].].b. .E K @.i.H.P.P.Q.R.Q.Q.R.R.R.`.{.{.",
"{.{.{.{.{.{.{.{.{.{.{.{.K.u.@.K [ 1.h.'.(.[.[.}.|. X X X}.{.(.d.1.| m < h e./.`.`.`.`.`.`.`.`.{.{.{.",
"{.{.{.{.{.{.{.{.{.{.{.{.[.).G.g 2 a 4.U.(.{.{.}.|. X X}.}.[.V.p.1.! b $ < e.[.{.{.{.{.{.{.{.{.{.{.{.",
"{.{.{.{.{.{.{.{.[.{.{././.[.z.t = 9 } 4.h.(.{.}.|.|. X|.{.).m.2.>.W 5 % s K.{.{.{.{.{.{.{.{.{.{.{.{.",
"W.W.W.W.W.W.W.W.~.{.).e.` e.w.F r f | <.5.(.}.}.}.|.|.].'.'.b.1.,.J * % ( ^.{.{.{.{.{.{.{.{.[.`.W.W.",
"Q.Q.Q.Q.Q.Q.Q.Q.!.[./.c 8 B v.K.;.( Y [ 8.(.[.[.).{.'.h.g.g.<.E $.n * = q./.{.{.{.{.{.{.{.{.`.R.P.R.",
"P.P.P.P.P.P.P.P.R.`.).V 0 _ ^.[.T.L 4 2 { n.m.V.(.].U.4.3.[ w 2 f Y z k l.[.{.{.{.{.{.{.[.[.`.R.P.P.",
"P.P.P.P.P.P.P.P.R.~.~.W.x.x./.).^.z : , [ 3.2.s.d.n.4. .| N ; . f ;.J.z.[.[.{.{.`.`.`.`.`.`.W.Q.P.P.",
"P.P.P.P.P.P.P.P.P.P.Q.Q.Q.A.0.x.^.X.x g } <.<.>.1.,.m w n M i 8 D K.[.[.{.{.{.{.`.R.Q.Q.Q.Q.P.P.P.P.",
"Q.P.P.P.P.P.P.P.P.P.Q.Q.Q.G t G ).^.c...n P W ! 6.Q 1 X 9 #.j.=.O.r.E.[.{.{.{.{.`.Q.P.P.P.P.P.P.P.P.",
"!.!.!.!.W.W.W.W.!.R.R.R.W.t.F i.{.{.)...q 4 5 7 n P u > d C.{.J.D t ^ v.{.{.{.{.`.~.W.!.!.!.W.R.W.W.",
"{.{.`.}.`.{.{.{.}.[.}.{.[.[.{.{.{.{.[.` < o % % , T -.+./ =.K.y.y   h x.{.{.{.{.{.`.{.{.}.[.{.{.{.[.",
"{.{.{.{.{.{.{.{.{.{.{.{.{.{.{.{.{.{.[.z.%.S s r > -._._./ k D @.' v ` E.{.{.{.{.{.{.{.{.{.{.{.{.{.{.",
"{.{.{.{.{.{.{.{.{.{.{.{.{.{.{.{.{.{.{.[./.K.w.` ' K.{.E.l + 8 z.^.E.^.[.{.{.{.{.{.{.{.{.{.{.{.{.{.{.",
"{.{.{.{.{.{.{.{.{.{.{.{.{.{.{.{.{.{.{.{.{.{.{.V.^.{.{.^.q.c V `.[.{.{.{.{.{.{.{.{.{.{.{.{.{.{.{.{.{.",
"{.{.{.{.{.{.{.{.{.{.{.{.{.{.{.{.{.{.{.{.{.{.{.{.{.{.{.{.[.).[.{.{.{.{.{.{.{.{.{.{.{.{.{.{.{.{.{.{.{.",
"{.{.{.{.{.{.{.{.{.{.{.{.{.{.{.{.{.{.{.{.{.{.{.{.{.{.{.{.{.{.{.{.{.{.{.{.{.{.{.{.{.{.{.{.{.{.{.{.{.{.",
"{.{.{.{.{.{.{.{.{.{.{.{.{.{.{.{.{.{.{.{.{.{.{.{.{.{.{.{.{.{.{.{.{.{.{.{.{.{.{.{.{.{.{.{.{.{.{.{.{.{.",
"{.{.{.{.{.{.{.{.{.{.{.{.{.{.{.{.{.{.{.{.{.{.{.{.{.{.{.{.{.{.{.{.{.{.{.{.{.{.{.{.{.{.{.{.{.{.{.{.{.{.",
"{.{.{.{.{.{.{.{.{.{.{.{.{.{.{.{.{.{.{.{.{.{.{.{.{.{.{.{.{.{.{.{.{.{.{.{.{.{.{.{.{.{.{.{.{.{.{.{.{.{.",
"{.{.{.{.{.{.{.{.{.{.{.{.{.{.{.{.{.{.{.{.{.{.{.{.{.{.{.{.{.{.{.{.{.{.{.{.{.{.{.{.{.{.{.{.{.{.{.{.{.{.",
"{.{.{.{.{.{.{.{.{.{.{.{.{.{.{.{.{.{.{.{.{.{.{.{.{.{.{.{.{.{.{.{.{.{.{.{.{.{.{.{.{.{.{.{.{.{.{.{.{.{.",
"{.{.{.{.}.`.[.{.{.{.[.[.{.{.{.{.{.{.{.{.{.{.{.{.{.{.{.{.{.{.{.{.{.{.{.{.{.{.{.{.{.{.{.{.{.{.{.{.{.{.",
"{.{.`.`.!.W.W.W.W.W.W.`.{.{.{.{.{.{.{.{.{.{.{.{.{.{.{.{.{.{.{.{.{.{.{.{.{.{.{.{.{.{.{.{.{.{.{.{.{.{.",
"{.{.`.Q.P.P.Q.P.Q.Q.P.Q.`.{.{.{.{.{.{.{.{.{.{.{.{.{.{.{.{.{.{.{.{.{.{.{.{.{.{.{.{.{.{.{.{.{.{.{.{.{.",
"{.{.`.R.P.P.P.P.P.P.P.Q.`.{.{.{.{.{.{.{.{.{.{.{.{.{.{.{.{.{.{.{.{.{.{.{.{.{.{.{.{.{.{.{.{.{.{.{.{.{."
};
