/* XPM */
static char *result[] = {
/* columns rows colors chars-per-pixel */
"50 50 180 2 ",
"   c #77999E",
".  c #7A9D9F",
"X  c #6FA09F",
"o  c #6D9FA9",
"O  c #7B9BA3",
"+  c #759DAF",
"@  c #7B9FA9",
"#  c #66A3A4",
"$  c #6EA2A6",
"%  c #65A3AA",
"&  c #72A2A4",
"*  c #78A0A4",
"=  c #78AAA3",
"-  c #75A4AB",
";  c #7BA4AB",
":  c #74ABAB",
">  c #7BABAC",
",  c #72B1AC",
"<  c #7DB1AA",
"1  c #7AA6B0",
"2  c #71AAB0",
"3  c #6FB0B0",
"4  c #75B2B3",
"5  c #7DB7B7",
"6  c #77BAB6",
"7  c #7EBBB5",
"8  c #83A5AB",
"9  c #81AAAD",
"0  c #81B5AA",
"q  c #8DB0AE",
"w  c #85BAAB",
"e  c #81A6B3",
"r  c #84ADB3",
"t  c #8BABB4",
"y  c #84B4B5",
"u  c #8BB2B6",
"i  c #86BAB0",
"p  c #8CBCB3",
"a  c #84B0BB",
"s  c #8BB6BC",
"d  c #85BBB9",
"f  c #8BBBBB",
"g  c #96B2B4",
"h  c #92B3BC",
"j  c #99B5BA",
"k  c #9DBEBB",
"l  c #A2BBB7",
"z  c #A6BFB9",
"x  c #85C3BC",
"c  c #8EC3BB",
"v  c #93C6B5",
"b  c #94C3BF",
"n  c #96CABD",
"m  c #A7C3BD",
"M  c #ABC3BD",
"N  c #8DBAC1",
"B  c #97B7C1",
"V  c #96BCC3",
"C  c #9CBCC4",
"Z  c #A9BDC2",
"A  c #8DC6C2",
"S  c #8CCAC1",
"D  c #95C6C3",
"F  c #9BC1C4",
"G  c #93CBC5",
"H  c #9CCCC6",
"J  c #93C4CA",
"K  c #9ECBCD",
"L  c #95D3C6",
"P  c #9CD6C5",
"I  c #97D8C4",
"U  c #9DD6CA",
"Y  c #9FDCCD",
"T  c #A9C5C6",
"R  c #A2CEC5",
"E  c #AEC9C7",
"W  c #A5C6CF",
"Q  c #ABC4CA",
"!  c #A3CACD",
"~  c #A8C8CB",
"^  c #B3CAC3",
"/  c #BBCEC6",
"(  c #B0C9CC",
")  c #BECFCD",
"_  c #A2D4C5",
"`  c #A3DAC5",
"'  c #ACDAC5",
"]  c #ABD4CA",
"[  c #A4DCCA",
"{  c #ACDECA",
"}  c #BDD3CC",
"|  c #B3D9CC",
" . c #BDDECD",
".. c #A9C5D0",
"X. c #A6CAD3",
"o. c #AECBD1",
"O. c #B2CDD2",
"+. c #ADD4D2",
"@. c #A6DCD2",
"#. c #AFD3DC",
"$. c #B6D3D7",
"%. c #BDD5D3",
"&. c #B9DFD2",
"*. c #B7D9DB",
"=. c #BCDADC",
"-. c #ACE2C4",
";. c #A1E0C9",
":. c #ABE1CB",
">. c #B2E3C4",
",. c #BDE9C7",
"<. c #B4E3CB",
"1. c #A5E2D1",
"2. c #A9E6D1",
"3. c #BCE2D2",
"4. c #BEE9D1",
"5. c #C0CFD6",
"6. c #C1D7D3",
"7. c #C3DBD5",
"8. c #CBDDD4",
"9. c #C2D6D9",
"0. c #C9D7D9",
"q. c #C3DBDD",
"w. c #CCDFD9",
"e. c #C1E7C5",
"r. c #C6EBC6",
"t. c #C8EAC6",
"y. c #C2EACA",
"u. c #CCEDCD",
"i. c #CCE3D4",
"p. c #C4EAD3",
"a. c #CBEDD5",
"s. c #CEE2D9",
"d. c #C8EDD9",
"f. c #D0E2D3",
"g. c #D3E6DB",
"h. c #D4E9DD",
"j. c #DBEBDC",
"k. c #CEF2D5",
"l. c #CBF0DC",
"z. c #D5F2D6",
"x. c #DDF5D7",
"c. c #D4F4DC",
"v. c #DCF7D8",
"b. c #E0EEDF",
"n. c #E5F0DF",
"m. c #E3FADE",
"M. c #E8FADD",
"N. c #CBDBE1",
"B. c #D7DDE4",
"V. c #DDDFE7",
"C. c #C7E1E3",
"Z. c #CBE4E4",
"A. c #CDE8E7",
"S. c #D2E5E2",
"D. c #DDE3E4",
"F. c #D4E9E4",
"G. c #DBEDE3",
"H. c #DFE0E8",
"J. c #D3EAEA",
"K. c #DCEEEB",
"L. c #D7F5E1",
"P. c #E2E5E7",
"I. c #E4EBE7",
"U. c #E8EDE7",
"Y. c #E0E2E8",
"T. c #E6EAE8",
"R. c #E8EEE8",
"E. c #E5F2E2",
"W. c #EAF5E5",
"Q. c #E4FBE4",
"!. c #EDFBE5",
"~. c #E7F7E8",
"^. c #EDF3E8",
"/. c #E6FEE9",
"(. c #EDFBEA",
"). c #F2FDE6",
"_. c #F5FFE8",
"`. c #F9FCED",
"'. c #F6FDF1",
"]. c #F9FBF2",
/* pixels */
"H.H.H.H.H.H.H.H.H.H.H.H.H.H.H.H.H.H.^.`._._._._._._._._._._._._._._._._._._._._._._._._._._._._._._.",
"H.H.H.H.H.H.H.H.H.Y.H.H.H.H.H.H.H.H.U.`._._._._._._._._._._._._._._._._._._.).`._._._._._._._._._._.",
"P.P.P.P.P.P.P.P.P.P.Y.b.P.P.P.Y.Y.Y.W._._._._._._._._._._._._._._.).).).).`.).).(.`.).)._._._._._._.",
"^.^.(.^.^.^.(.^.^.^.^.).^.^.^.).).^.)._._._._._._._._._._._._._.).`.R.T.P.T.P.P.T.P.T.R.)._._._._._.",
"_._._._._._._._._._._._._._._._.`.)._._._._._._._._._._._._._._._.).T.H.H.Y.Y.Y.H.H.H.R.).`._._._._.",
"_._._._._._._._._._._._._._._._._._._._._._._._._._._._._._._._.`.).T.V.H.H.V.H.H.H.H.P.(.).)._.`._.",
"_._._._._._._._._._._._._._._._._._._._._._._._._._._._.`.)._.^.R.P.Y.H.H.H.H.H.H.H.H.P.T.R.T.T.T.R.",
"_._._._._._._._._._._._._._._._._._._._._._._._._._._._._.).).T.Y.H.H.H.H.H.H.V.H.H.H.V.H.H.Y.H.Y.H.",
"_._._._._._._._._._._._._._._._._._._._._._._._._._._._._._.).U.H.H.Y.Y.Y.Y.Y.Y.Y.Y.Y.Y.Y.Y.Y.Y.Y.Y.",
"_._._._._._._._._._._._._._._._._._._._._._._._._._._._._._.).^.W.U.R.^.^.R.^.U.^.R.^.R.R.R.^.R.R.^.",
"_._._._._._._._._._._._._._._._._._._._._._._._._._._._._._.).)._.`.).)._.`.).).`.)._._._._._._.).`.",
"_._._._._._._._._._._._._._._._._._._._._._.).!.)._._.W.f.M M `._._._._._._._._._._._._._._._._._._.",
"_._._._._._._._._._._._._._.).)._._._.).~.G.S.7.8.W._.E.z @ g I.).`.)._._._._._._._._._._._._._._._.",
"_._._._._._._._._._._._._._.).)._._.W.8.O.C y 8 t S.(.E.) h T w.8./ j._._._._._._._._._._._._._._._.",
"_._._._._._._.`._._._._._.).W.n.).).S.j - o o & 9 $.Z.=.o.N.J.q.j 8 ^ _._._._._._._._._._._._._._._.",
"_._._._._._._._._._._._._.f.M 6.E._.D.B - 2 4 5 c D s 1 V J.(.S.g q 5.)._._._._._._._._._._._._._._.",
"_._._._._._._._._._._._.).M O l j.^.F.! d S L Y @.L : & y *.A.N.W =.I.)._._._._._._._._._._._._._._.",
"_._._._._._._._._._._._.).f.v / 8.6.F c ` :.-.-.:.[ i < f D f 1 W K.).)._._._._._._.)._._.)._._._._.",
"_._._._._._._._._._._._.!.!.j.E.g.t * < ` >.>.,.p.l.| ] +.b : & f N.K.G.^.^.).^.).^.(.).).`._._._._.",
"_._._._._._._._._._.).6.^ I._.).S.N = 0 ' u.z.m.Q./.c. .3.P < , d ! C j 0.D.P.P.P.Y.Y.R.)._._.)._._.",
"_._._._._._._._._._._.T e 8.).~.C.K D H p./.Q.).).).W.u.i.3.' P U f - O ( B.H.Y.H.H.H.T.`.).).`._._.",
"_._._._._._._._._._._.b.j.E.j.E s A @.{ 4./.!.).).).).M.Q./.d.{ 1.S : o C N.H.V.H.H.Y.P.^.).).)._._.",
"_._._._._._._._._._._._._.!.s.t $ 7 [ <.d./.)._.).).).)._.).c.<.;.L 4 o a 0.V.Y.H.H.H.Y.P.T.R.(._._.",
"_._._._._._._._._._._._.).).h.s : i <.c.~.)._.`._.).).).).!.L.,.-.[ 5 o e 5.V.V.H.H.H.H.H.H.P.`._._.",
"_._._._._._._._._._._._._.E.&.R H :.z.!.).`.(.`._._.).).).).Q.y.>.:.c ; t 5.V.Y.Y.Y.Y.Y.Y.P.P.)._._.",
"_._._._._._._._._._._.).g.m p c { <.u.Q.).`.'.'.]._.`.).).)./.a.<.n D X.q.I.^.!.^.^.^.^.^.^.^.`._._.",
"_._._._._._._._._._._.!.8.e - x Y >.r.M.(.).`.].].].`.`.).!.L.<.p < s N.~.)._._._._._._.)._.).)._._.",
"_._._.`.)._._._._._._.).h.5 % 6 I -.,.v.(.'.'.'.].`.`._.~.a.<.[ < $ ; q.W.W.W._._._._._._._.`.)._.).",
"R.U.U.U.U.U.U.U.^.).`._.G.J % 3 n 2.2.k.(.(.(.'.'.`.`.).Q.4.:.@.f a B 7.8.M f.)._._._._._._.).^.U.U.",
"Y.H.H.H.Y.Y.H.Y.P.).)._.E.~ - 2 x Y P -.p.p.d./.(.).).!.Q.4._ G J #.J.h.M . l )._._._._._._.^.P.Y.Y.",
"Y.Y.H.H.V.Y.Y.Y.P.^._._.W.%.t s G d < w ` <.4.c./.!.M.m.a.' i 2 N J._.n.6.q M ).).`._._._.).^.Y.Y.H.",
"H.Y.H.H.V.V.Y.Y.Y.R.^.R.W.D.s.A.=.f X = n [ -.4.k.u.t.e.<.P : - r g.).M.j.j.W._.^.^.^.^.^.^.U.Y.H.H.",
"H.H.H.H.H.H.H.H.H.Y.Y.Y.Y.Y.Y.^.J.C 8 y D c 0 v -.-.-.>.:.U d k %.x.s.( s.)._.).W.Y.H.H.Y.H.Y.H.H.H.",
"H.H.H.H.H.H.H.H.H.H.H.H.H.H.H.j.9.Q $.N.+.9 X : P 2.[ I n c R h.W.E.E + Q )._.`.R.Y.H.H.H.Y.Y.Y.H.H.",
"T.P.T.T.P.T.U.U.T.T.T.U.T.T.V.z t C F.(.Z.h @ y G S 7 6 3 : m )._.).g.Q g._._._.^.I.T.R.T.Y.T.T.U.U.",
"`.).).`.).).).`.`.).`.^.).`.U.z   u q.K.9...o.*.K : # % o ; m E.).).)._._._._._._.`.).).`.).).`._._.",
"`.)._._._._._._._._._._.)._.).f.z } ( Z j Z n.).=.r > s K } g.)._._._._._._._._._._._._.)._._._._._.",
"_.)._._._._._._._._._._.`._.).).).W.w.8 O z n._.G.7.8.G.E.!.)._._._._._._._._._._._._._._._._._._._.",
"_._._._._._._._._._._._._._._._._._.b.l g 5.n._._.).!._._._._._._._._._._._._._._._._._._._._._._._.",
"_._._._._._._._._._._._._._._._._._.^.j.g.n.)._._._._._._._._._._._._._._._._._._._._._._._._._._._.",
"_._._._._._._._._._._._._._._._._._._._._._._._._._._._._._._._._._._._._._._._._._._._._._._._._._.",
"_._._._._._._._._._._._._._._._._._._._._._._._._._._._._._._._._._._._._._._._._._._._._._._._._._.",
"_._._._._._._._._._._._._._._._._._._._._._._._._._._._._._._._._._._._._._._._._._._._._._._._._._.",
"_._._._._._._._._._._._._._._._._._._._._._._._._._._._._._._._._._._._._._._._._._._._._._._._._._.",
"_._._._._._.)._._._._.)._._._._._._._._._._._._._._._._._._._._._._._._._._._._._._._._._._._._._._.",
"_._._._.).`._._._._._.)._._._._._._._._._._._._._._._._._._._._._._._._._._._._._._._._._._._._._._.",
"_._._._.).).`.).).`.).`._._._._._._._._._._._._._._._._._._._._._._._._._._._._._._._._._._._._._._.",
"_._.^.^.U.U.U.U.U.U.U.^.)._._._._._._._._._._._._._._._._._._._._._._._._._._._._._._._._._._._._._.",
"_.).^.Y.Y.H.H.H.H.H.Y.P.^._._._._._._._._._._._._._._._._._._._._._._._._._._._._._._._._._._._._._.",
"_.`.^.P.H.H.H.H.H.H.H.Y.^._._._._._._._._._._._._._._._._._._._._._._._._._._._._._._._._._._._._._."
};
