/* XPM */
static char *result[] = {
/* columns rows colors chars-per-pixel */
"50 49 95 2 ",
"   c #3F4242",
".  c #424343",
"X  c #434749",
"o  c #444B4D",
"O  c #4C4C4C",
"+  c #454C52",
"@  c #494E50",
"#  c #455055",
"$  c #4A5255",
"%  c #4E565A",
"&  c #4F595E",
"*  c #565555",
"=  c #585757",
"-  c #5D5D5D",
";  c #495A62",
":  c #505E65",
">  c #4C6067",
",  c #4C636B",
"<  c #586165",
"1  c #51636A",
"2  c #4E6871",
"3  c #5A6B71",
"4  c #51627A",
"5  c #51727E",
"6  c #656464",
"7  c #6B6B6B",
"8  c #737373",
"9  c #7B7B7B",
"0  c #80807F",
"q  c #596F8E",
"w  c #527380",
"e  c #547987",
"r  c #557E8E",
"t  c #5A7498",
"y  c #6E7682",
"u  c #757981",
"i  c #5C8297",
"p  c #59899B",
"a  c #618B9C",
"s  c #5B8EA1",
"d  c #5C91A5",
"f  c #5E97AD",
"g  c #5E98AE",
"h  c #5F9CB4",
"j  c #6291A7",
"k  c #609DB6",
"l  c #609FB9",
"z  c #5EA0B7",
"x  c #5FA1BA",
"c  c #60A0B7",
"v  c #61A1BB",
"b  c #6791C6",
"n  c #6993C8",
"m  c #679BC9",
"M  c #6A9ED3",
"N  c #65A5C6",
"B  c #69A9C3",
"V  c #67A6CD",
"C  c #67A7D1",
"Z  c #6BAAD6",
"A  c #6AAADA",
"S  c #70AED6",
"D  c #72B1DE",
"F  c #6FA3E4",
"G  c #6DACE3",
"H  c #6FADE8",
"J  c #70AEE5",
"K  c #70A6E8",
"L  c #71AEED",
"P  c #72B0EF",
"I  c #73AFF2",
"U  c #72B0F3",
"Y  c #76B3FE",
"T  c #7BB4FE",
"R  c #838383",
"E  c #8B8B8B",
"W  c #929292",
"Q  c #9C9C9C",
"!  c #A1A1A1",
"~  c #AEAEAE",
"^  c #B0B0B0",
"/  c #8AB3E2",
"(  c #80B7FE",
")  c #84B8FE",
"_  c #8DBCFE",
"`  c #93BEFE",
"'  c #98BFFE",
"]  c #9BC2F3",
"[  c #96C0FE",
"{  c #9CC1FE",
"}  c #A4C4FE",
"|  c #AAC7FE",
" . c #ABC8FE",
".. c #CBCBCB",
"X. c #ECECEC",
/* pixels */
"X.X.X.X.X.X.X.X.X.X.X.X.X.X.X.X.X.X.X.X.X.X.X.X.X.X.X.X.X.X.X.X.X.X.X.X.X.X.X.X.X.X.X.X.X.X.X.X.X.X.",
"X.X.X.X.X.X.X.X.X.X.X.X.X.X.X.X.X.X.X.X.X.X.X.X.X.X.X.X.X.X.X.X.X.X.X.X.X.X.X.X.X.X.X.X.X.X.X.X.X.X.",
"X.X.X.X.X.X.X.X.X.X.X.X.X.X.X.X.X.X.X.X.X.X.X.X.X.X.X.X.X.X.X.X.X.X.X.X.X.X.X.X.X.X.X.X.X.X.X.X.X.X.",
"X.X.X.X.X.X.X.X.X.X.X.X.X.X.X.X.X.X.X.X.X.X.X.X.X.X.X.X.X.X.X.X.X.X.X.X.X.X.X.X.X.X.X.X.X.X.X.X.X.X.",
"W E E E R E E E 0 E E 0 0 0 i R 9 0 0 0 0 0 R R R 0 R R 9 0 R R R R R R R E E E R R E E E E E E E E ",
"7 - 7 7 6 6 6 7 7 7 7 6 6 - 6 6 - 6 6 6 - 6 - - - 6 - - = - - - 6 - - - - 6 6 7 7 7 7 7 7 7 7 8 6 * ",
"7 8 W W W W W W W W W W W W Q ! ! ! ! ! Q W W W W W W W W W W W W W W W W W W W Q ! ! ! ! ! ! ! E = ",
"7 8 Q 6 = = = = * = = = = = = = = = = = = * = = = = = = = = = = * = = = = = * * = = = = = = - E W = ",
"7 8 Q @ # , , , , , , , > > , > , , , > , > , , : 1 > , , , > , > , , > , , , , , , , , , ; . R W : ",
"7 9 Q O 5 v x v x v N v N v N v v N v v v v l h j k h g h l v v v v N v v N N v v v v k v d X R W = ",
"7 9 Q O w v v h N I I I U U U U I U G l v x h 1 : % + + 2 h x v v L U U I U U U U A c v v d X R E * ",
"6 9 ! O 5 v x V H Y Y Y Y Y Y Y Y Y U A v v j % 6 9 7 O ; h k N A Y Y Y Y Y Y Y Y I Z v v s X R E O ",
"7 8 Q O w v N H Y Y Y Y Y Y Y Y Y Y Y Y C v g % R ^ Q - ; h N A Y Y Y Y Y Y Y Y Y Y Y N v d X R E * ",
"7 8 E O 5 N L Y Y Y Y Y Y Y Y Y Y Y Y Y Y A f % R ~ Q - ; v H Y Y Y Y Y Y Y Y Y Y Y Y Y Z d X R E O ",
"7 8 W O 5 N Y Y Y Y Y Y Y Y Y Y Y Y T ` T G f % R ~ Q - ; x H Y Y Y Y Y Y Y ( ` T Y Y Y A p X R E O ",
"7 8 W O 5 N Y Y Y Y Y Y Y Y Y Y Y T _ | ( G f % R ~ Q - ; h P Y Y Y Y Y Y T _ | ) Y Y Y A d X R E * ",
"7 8 W O 5 N U Y Y Y Y Y Y Y Y Y Y { | } ) G f % R ~ Q - ; l I Y Y Y Y Y Y { | | ( Y Y Y A s X 9 0 O ",
"7 8 W O 5 N Y Y Y Y Y Y Y Y Y T { }  .| ( G f % R ^ Q - ; h L Y Y Y Y ( ' }  .| ) Y Y Y A s X 9 R @ ",
"7 7 E O 5 N Y Y Y Y Y Y Y Y T _ |  .} { ( G f % R ~ Q - ; x L Y Y Y T _ |  .} { T Y Y Y A s X 9 R $ ",
"7 8 W O 5 N Y Y Y Y Y Y Y Y ` | | | { Y Y H f % R ~ Q = ; h P Y Y Y `  .| | { Y Y Y Y Y A s X 9 0 O ",
"7 8 W O 5 N Y Y Y Y Y Y T ' | | | ` ( Y Y G f % R ~ Q - ; v I Y Y { |  .| ` T Y Y Y Y Y A s X 9 E O ",
"6 7 W O w N U Y Y Y Y ( _ | | | ' ( Y Y Y G f $ 9 ^ Q - ; v L Y T }  .} ' ) Y Y Y Y Y Y A s X 9 0 O ",
"- 7 W O 5 N U Y Y Y T `  .| | { Y Y Y Y Y J f o 9 ^ Q 6 1 l P Y T } | } Y Y Y Y Y Y Y Y A s X 9 0 $ ",
"- 7 E O w N Y Y Y Y ' |  . .` T Y Y Y Y Y G f o 8 Q Q 6 1 x L Y Y } ` T Y Y Y Y Y Y Y Y A s X 9 0 * ",
"- 7 W O 5 N T T Y Y {  .| ' ) Y Y Y Y Y Y H j + 7 Q Q 6 1 l I Y T ` ( Y Y Y Y Y Y Y Y Y Z s o 0 E * ",
"- 8 Q O 5 B U Y Y Y { | { T Y Y Y T Y T K m p X 7 Q Q 6 ; j M L Y Y Y Y Y Y Y Y Y Y Y Y A s X R E O ",
"6 8 Q O w V Y Y Y T { ' T T Y Y Y Y Y U 4 o . . 8 Q Q 6 o X X t Y Y Y Y Y Y Y Y Y Y Y Y A d o R W O ",
"- 8 Q O 5 N U Y Y T _ ( Y Y Y Y Y Y A q u 9 9 X 7 Q Q 6 = 0 9 y t L Y Y Y Y Y Y Y Y Y Y Z s   0 E O ",
"- 7 ! O 5 N U T Y Y Y Y Y T Y Y Y Y b . E ! Q O 7 Q Q 6 6 ! ! 9 o F Y Y Y Y Y Y Y Y Y Y A d X 9 0 O ",
"- 8 Q O 5 N U Y Y Y Y Y Y Y Y Y Y Y n o 9 E R O 7 Q Q 6 - E E 7 # F Y Y Y Y Y Y Y Y Y Y Z s X 9 E O ",
"6 7 W O w V T Y Y Y Y Y Y Y Y Y Y ` / a < = * . 8 Q ~ 7 @ = = 3 j U Y Y Y Y Y Y Y Y Y Y Z s X 0 0 O ",
"- 7 E O 5 N U Y Y Y Y Y Y Y T Y ) } ] S e ; ; . 7 ! ^ 7 o ; : i D Y Y Y Y Y Y Y Y Y Y Y Z s X 0 0 = ",
"- 7 W O 5 N Y Y Y Y Y Y Y Y Y ) }  .{ Y Z B f o 7 ! ^ 6 ; h V D Y Y Y Y Y Y Y Y Y Y Y Y A s X 9 E - ",
"- 7 W O 5 N U Y Y Y Y Y Y Y ` }  . .{ Y U Z g o 8 Q ^ 6 ; h J Y Y Y Y Y Y Y ) { ) Y Y Y A s X 9 R - ",
"- 7 W O 5 N U Y Y Y Y Y Y _ {  . .{ [ Y Y J g o 7 Q ^ 7 ; h L Y Y Y Y Y Y ) [ } ) Y Y Y A s X 9 E - ",
"- 7 E O 5 N Y Y Y Y Y T ( }  .| } ) Y Y Y J f o 8 ! ^ 6 ; x P Y Y Y Y Y T {  .| ) Y Y Y A s X 9 R - ",
"- 7 W O 5 m Y Y Y Y Y _ } |  .} ) Y Y Y Y J f o 7 ! ^ 6 & k P Y Y Y Y T } | | | ) Y Y Y A s X 9 R - ",
"- 7 E O 5 N Y Y Y Y _ ' |  .' _ Y Y Y Y Y A f $ 8 ! ^ 7 & v L Y Y Y ) [ | | } ` T Y Y Y A s X 0 E - ",
"6 7 W O 5 N Y Y Y T '  .| } _ Y Y Y Y Y Y G g % 8 Q ^ 6 ; x L Y Y Y [  .| } ` Y Y Y Y Y A s X R W = ",
"- 7 W O 5 N U Y Y Y }  .} ( Y Y Y Y Y Y Y G g % 8 ! ^ 6 ; h L Y Y Y `  .| _ Y Y Y Y Y Y A d X R W - ",
"- 7 W O w v C L Y T } ' _ Y Y Y Y Y Y Y A N g % 8 Q ~ 6 ; h N H Y Y [ } [ T Y Y Y Y Y A N s X R W = ",
"- 7 W O w v z A I Y ` ` Y Y Y Y Y Y U P N x g & 8 ! ^ 7 ; h z V P U [ [ Y Y Y Y Y Y H v z s X R W - ",
"6 7 Q O w v x x C Y Y Y Y Y Y Y Y Y G z x x g % 8 ! ^ 8 1 v x v N U Y Y Y Y Y Y Y G v c v d X R W = ",
"- 8 ! O w v x z N V V V V V V N V V N z x x g & 8 ! ^ 7 1 v v v x V V V V V B x V N v v v d X R W - ",
"- - 9 O > i r r r r r r r r r r i i i i r i e O 6 9 E - $ r r r i i i e i i e i i i r i i 5   7 8 * ",
"< O O O O * O O O O O * O O O O O O . O o O O * O O O O O * O O o X O X O O O O . O X * O O O O O O ",
"....................................................................................................",
"X.X.X.X.X.X.X.X.X.X.X.X.X.X.X.X.X.X.X.X.X.X.X.X.X.X.X.X.X.X.X.X.X.X.X.X.X.X.X.X.X.X.X.X.X.X.X.X.X.X.",
"X.X.X.X.X.X.X.X.X.X.X.X.X.X.X.X.X.X.X.X.X.X.X.X.X.X.X.X.X.X.X.X.X.X.X.X.X.X.X.X.X.X.X.X.X.X.X.X.X.X."
};
