/* XPM */
static char *result[] = {
/* columns rows colors chars-per-pixel */
"50 49 235 2 ",
"   c #3A3D3C",
".  c #3A403C",
"X  c #41453E",
"o  c #554C3A",
"O  c #393E42",
"+  c #403D40",
"@  c #3C4C4C",
"#  c #37464A",
"$  c #2D4D5B",
"%  c #3C4653",
"&  c #344B55",
"*  c #3C4A54",
"=  c #3D465B",
"-  c #354C5B",
";  c #3B4A5A",
":  c #364750",
">  c #2C5258",
",  c #3B545B",
"<  c #365559",
"1  c #2F4E4B",
"2  c #2A4A66",
"3  c #374B60",
"4  c #3B5662",
"5  c #3B5875",
"6  c #2B5465",
"7  c #35677B",
"8  c #444342",
"9  c #434B4C",
"0  c #4B4C4C",
"q  c #474847",
"w  c #514945",
"e  c #444453",
"r  c #424A52",
"t  c #454959",
"y  c #42555B",
"u  c #4D5A5C",
"i  c #47555A",
"p  c #5B5A55",
"a  c #545B5A",
"s  c #5A5B5B",
"d  c #565657",
"f  c #44524A",
"g  c #625658",
"h  c #5B625B",
"j  c #64645D",
"k  c #69655B",
"l  c #444961",
"z  c #435B6D",
"x  c #475967",
"c  c #555C63",
"v  c #5A5C65",
"b  c #575B67",
"n  c #485971",
"m  c #615C65",
"M  c #635F71",
"N  c #5B6365",
"B  c #5B656C",
"V  c #58676A",
"C  c #5A6771",
"Z  c #586976",
"A  c #576B72",
"S  c #646362",
"D  c #65696A",
"F  c #64737A",
"G  c #6B7679",
"H  c #7A7976",
"J  c #76797A",
"K  c #7B7B7B",
"L  c #787778",
"P  c #686E71",
"I  c #837D7A",
"U  c #847D6D",
"Y  c #7C847E",
"T  c #84827E",
"R  c #89857B",
"E  c #93847E",
"W  c #587887",
"Q  c #587B97",
"!  c #4D6A8F",
"~  c #6A7A81",
"^  c #7D7D83",
"/  c #737E84",
"(  c #657D96",
")  c #677F99",
"_  c #617AA8",
"`  c #57818D",
"'  c #538394",
"]  c #5C8294",
"[  c #58849A",
"{  c #7D8483",
"}  c #65839B",
"|  c #77939B",
" . c #6F8994",
".. c #5D96BC",
"X. c #5F91AA",
"o. c #6789A9",
"O. c #6D99AD",
"+. c #6B96A3",
"@. c #7493A2",
"#. c #7395AC",
"$. c #7997A6",
"%. c #6B8DBB",
"&. c #698DB9",
"*. c #728CBB",
"=. c #718EB6",
"-. c #6A91BC",
";. c #659BBC",
":. c #6898B8",
">. c #7498BA",
",. c #7C8DA0",
"<. c #5AA1BD",
"1. c #6AA3BD",
"2. c #77A4B4",
"3. c #5F91C2",
"4. c #6D8DC1",
"5. c #6999C5",
"6. c #749AC7",
"7. c #629ED5",
"8. c #57A2C9",
"9. c #59A6D9",
"0. c #6DA5CB",
"q. c #68A6C7",
"w. c #77A6CA",
"e. c #68A8D5",
"r. c #73ADDE",
"t. c #7DABDC",
"y. c #77A6D2",
"u. c #6DB1DE",
"i. c #6BAEE7",
"p. c #73AEE5",
"a. c #6BB2E6",
"s. c #7DB3ED",
"d. c #78B5E7",
"f. c #7CAEFE",
"g. c #78AEF3",
"h. c #6EB4FC",
"j. c #6FB6F7",
"k. c #73B5F4",
"l. c #7CB3F4",
"z. c #74B4FD",
"x. c #7BB3FC",
"c. c #78B9F8",
"v. c #848484",
"b. c #8A8485",
"n. c #848983",
"m. c #8B8985",
"M. c #8C8C8B",
"N. c #88868A",
"B. c #938787",
"V. c #8D918B",
"C. c #869589",
"Z. c #92928D",
"A. c #8D8891",
"S. c #938F93",
"D. c #8D9394",
"F. c #8B9399",
"G. c #929394",
"H. c #9A9694",
"J. c #959A93",
"K. c #999B94",
"L. c #969499",
"P. c #9B9C9B",
"I. c #959C9B",
"U. c #A6A29C",
"Y. c #9B9BA2",
"T. c #8698AB",
"R. c #9FA4AB",
"E. c #99A1A4",
"W. c #A2A3A4",
"Q. c #A3A8AA",
"!. c #AEB9B9",
"~. c #BDBCBC",
"^. c #B7B9B9",
"/. c #A9ACB0",
"(. c #A09B98",
"). c #C1BCB9",
"_. c #BDC0BD",
"`. c #C2C1BD",
"'. c #849EC1",
"]. c #84AAD7",
"[. c #87A0C1",
"{. c #B3BBC4",
"}. c #ACB8C2",
"|. c #87ACE5",
" X c #83B3EC",
".X c #87B5E8",
"XX c #82AEF8",
"oX c #83B4F4",
"OX c #8AB4F3",
"+X c #8BBBF5",
"@X c #83B3FB",
"#X c #8BB3FB",
"$X c #85BBFD",
"%X c #8CBBFC",
"&X c #84BAF4",
"*X c #93BCFC",
"=X c #9BBEFE",
"-X c #93B9F8",
";X c #99B6E9",
":X c #A3BFFE",
">X c #C1BFC0",
",X c #8EC3FC",
"<X c #87C3FF",
"1X c #96C3FE",
"2X c #9CC4FE",
"3X c #9DCAFF",
"4X c #94CAFF",
"5X c #9AD0FF",
"6X c #A3C4FF",
"7X c #A4CAFF",
"8X c #ABCCFF",
"9X c #ABC6FF",
"0X c #CACCCB",
"qX c #C7CCC9",
"wX c #DDDDDC",
"eX c #D7D9D8",
"rX c #E4DFDE",
"tX c #DFDEE1",
"yX c #E1DFE3",
"uX c #E3E3E4",
"iX c #EBEAE6",
"pX c #E3E6EA",
"aX c #E7ECEB",
"sX c #ECECEC",
"dX c #E8E8E7",
"fX c #F2ECED",
"gX c #F4E8E7",
"hX c #EBF0EE",
"jX c #EDEEF0",
"kX c #E7EDF0",
"lX c #F2ECF0",
"zX c #ECF3F1",
"xX c #F4F2F0",
"cX c #DCE1E2",
"vX c None",
/* pixels */
"vXvXvXvXvXvXvXvXvXvXvXvXvXvXvXvXvXvXvXvXvXvXvXvXvXvXvXvXvXvXvXvXvXvXvXvXvXvXvXvXvXvXvXvXvXvXvXvXvXvX",
"vXvXvXvXvXvXvXvXvXvXvXvXvXvXvXvXvXvXvXvXvXvXvXvXvXvXvXvXvXvXvXvXvXvXvXvXvXvXvXvXvXvXvXvXvXvXvXvXvXvX",
"vXvXvXvXvXvXvXvXvXvXvXvXvXvXvXvXvXvXvXvXvXvXvXvXvXvXvXvXvXvXvXvXvXvXvXvXvXvXvXvXvXvXvXvXvXvXvXvXvXvX",
"Y.I.J.J.J.P.L.K.K.K.J.Z.G.D.V.M.M.Z.M.V.Z.V.V.Z.G.M.G.S.S.Z.Z.D.D.D.V.V.Z.G.H.K.H.K.Z.G.I.J.J.J.P.L.",
"d v S j j S j S j j j h s p p h s N h h a a p a s s v s s s p a b x a a s j S j k k k D D D j h j d ",
"g I (.Z.H.L.F.J.V.V.Z.J.L.L.P.U.E.Y.E.I.J.D.D.D.V.D.D.D.D.D.D.D.F.L.D.D.D.L.L.H.U.U.W.W.Y.W.U.W.K s ",
"m b.H.j v b b b c N V b b b N N N V N N h p p h d s s N h s s h v b v v v b N m m S M b M M m H.n.s ",
"g b.Z.9 l n n 5 z z 5 z z z z 4 x y u u u u u u r i i u u u u u c c u x z z n x x x n x b l 0 H.v.d ",
"d b.D.# } >.6.6.:.>.5.;.1.O.O.O.:.+.#.@.@.,.@.,.@.@.$.@.@.@.$.| | | $.+.1.<.1.<.;.;.;.q.:.( ; D.v.s ",
"0 v.C.& o.].p.p.p.r.p.d.0.8.<.<.1.7 6 6 6 4 - $ $ $ $ > $ $ 4 4 , , ` O.<.<.9.a.u.u.u.p.t.o.& F.v.0 ",
"p n.C.< -.oXl.z.k.j.z.c.a.e.8.8.O.< - Z G J ^ L G G { ~ { J { A h 1 ` :.8.9.a.j.j.k.k.l..X*.= G.^ 0 ",
"p T C.> %.@Xx.z.z.z.z.z.k.a.e.q.+.y P !.eXrXgXlXsXhXaXaXaXaXrX_.Y @ ` 1.e.a.j.h.z.j.h.l.OX*.= S.v.0 ",
"g R n.- 4.#Xx.f.z.x.x.f.l.l.d.y.$.y G ^.rXgXgXgXxXfXiXiXaXiXiX^.M.# ] 0.a.j.x.x.c.z.z.x.OX*.= L.^ 0 ",
"g I n.& 4.#Xx.x.x.x.f.f.oX+XOX].$., F ^.dXgXgXgXiXfXaXaXaXiXgX).N.# ] y.s.z.x.x.x.x.c.$XOX%.* G.I 0 ",
"g I { $ 4.x.x.z.k.k.f.@X1X1X+Xp.#.4 F {.pXlXfXfXiXsXkXzXjXaXiX).N.: Q 0.l.c.@Xx.l.l.<X<X+XO.& M.K 0 ",
"d K n.- 4.c.z.k.c.l.@X*X3X3X%Xt.#.4 F {.pXlXfXfXlXsXpXkXkXsXhX~.v.* ] 0.l.k.@XXX@X$X4X5X+X&.: C.K q ",
"d Y m.* :.l.z.x.x.#X*X6X6X2X%Xd.#.x F }.cXiXhXhXhXsXsXsXkXsXsX~.N.: [ e.k.x.f.XX*X2X7X3X;X=.; A.K 0 ",
"d K b.e &.l.k.x.x.%X6X9X6X2X#X].#.4 F !.aXiXiXiXfXiXjXsXjXjXsX~.v.# Q e.l.x.@X*X6X6X3X1XOX&.= N.K 0 ",
"a ^ N.t -.l.l.XX%X2X8X6X*X+Xl.r.#., F !.pXaXiXfXiXiXsXsXlXjXdX~.n.# ' y. X.X-X6X7X7X1X$XoX&.e B.L 0 ",
"b ^ A.3 %. XOX-X2X3X7X1X&Xc.j.r.#.y F {.pXiXxXiXhXfXsXsXsXjXdX~.R # ' 0..X-X:X9X8X1X$Xz.XX*.0 B.L 0 ",
"d ^ A.l 4.l.*X2X6X3X2X@Xz.j.j.r.#.x F !.pXaXiXiXdXfXkXsXjXjXdX~.T @ Q 0..X3X9X8X=XOXz.z.z.-.e E I 0 ",
"0 J A.= %.+X6X8X9X=X#Xc.h.h.j.p.#.y P !.tXaXfXiXsXsXfXkXjXsXsX~.v.r [ q.s.3X6X=XOX Xz.h.z.;.@ b.H 0 ",
"+ U N.O ..+X7X6X2X#X@Xz.z.z.g.p.$., B /.wXiXsXiXsXsXlXsXlXjXsX).v.r [ e.s.,X1X%XoXl.k.j.z...& N.L 0 ",
"o I A.3 &.,X1X2X%X@Xf.z.z.g.g.].T.y B Q.eXaXfXiXsXsXsXkXsXlXdX>Xb.= Q y.s.<X@Xx.x.l.l.z.c...- C.K 0 ",
"o U Z.; ..c.1X$Xx.@Xz.x.k.s.|.'.| r V Q.eXdXxXfXsXsXsXsXjXlXdX{.v.r W >.y. Xg.x.z.x.x.l.l...6 F.^ 0 ",
"o I Z.= ..x.x.l.x.z.x.x.l.|.Q 3 t O D E.rXhXiXiXfXsXkXsXjXsXiX).v.f - $ 5 w.oXz.z.z.x.l.oX%.; F.K 0 ",
"w I H.= 5.h.c.z.z.z.c.l.y.[ ( ~ G i P E.wXiXiXhXdXjXjXkXsXsXiX).C.X u Y / ) 4.$Xz.z.f.XXOX*.= A.K q ",
"w I S.t 5.z.z.z.h.z.l. X6.2 ,.}.R.a S E.wXdXfXsXsXsXsXsXsXsXsX`.R X C./.R.n ! @Xz.h.f.XX#X*.= A.K 0 ",
"0 v.S.e 5.x.z.z.z.z.g..X6.2 ) T.T.r N Q.rXdXsXiXsXkXjXkXjXhXsXqXH.8 Y I.F.l Q oXz.z.x.f.#X*.e B.L 0 ",
"r ^ A.e %.g.x.z.z.z.x.-X;X_ ( n B q D U.wXiXiXfXsXsXaXaXhXsXgX0X(.0 i V ! ( 6.oXz.z.z.z.@X%.e B.L 0 ",
"9 J m.e =. X@Xx.z.x.#X2X:X;X_ n x O D W.wXsXsXsXsXsXkXsXsXsXsX0XL.t ; 5 ! 6.+Xg.z.z.z.z.&X-.* n.L 0 ",
"9 G m.e =. X@Xf.f.@X2X6X:X|.|.].F.r D W.wXiXfXaXsXsXjXsXsXsXsX0XY.t W w.t. Xx.z.h.z.z.z.l.-.* n.I d ",
"r / b.% 4.@XXXXX-X:X6X8X2XXXoX].#.y D W.tXdXsXsXsXsXfXfXlXjXsX0XY.= Q y.oXx.h.h.h.z.f.XX*X>.e M.K s ",
"r K v.* 4.oX@X#X:X:X6X3X%Xx.x.p.O., C R.tXsXsXsXsXsXlXfXlXjXaX0XY.; Q e.x.z.z.h.z.z.XX*X6X'.t v.K d ",
"t J v.* &. X&X1X9X8X2X,X#Xx.l.r.#., Z R.tXdXsXsXsXsXlXfXlXjXhXqXI.* Q 0.l.x.x.z.k.oX%X=X8X[.9 R K s ",
"0 K n.r O.&X,X3X6X2X.X&Xg.x.c.r.#.4 Z R.tXdXsXsXsXdXjXfXlXjXaXqXJ.@ ` 0. Xx.x.g.oX%X2X6X8XT.9 n.T d ",
"0 L m.* &.+X5X5X2X1Xs.l.x.x.j.r.O., Z Y.uXsXhXaXsXaXjXfXfXsXiXqXJ.@ ' q.s.l.oXoX+X2X6X3X3X>.@ m.T d ",
"q I m.% &.1X4X4X%X&Xl.z.x.z.k.r.O., C Q.yXiXhXhXkXsXsXgXfXsXiXqXJ.@ ' 0.l.l.oXOX2X8X7X2X,X=.* V.v.d ",
"w L R * &.$X,X$Xx.x.z.c.c.h.j.e.O., Z R.uXaXhXaXkXsXsXsXfXfXiXqXJ.@ ' e.l.k.l.#X3X7X1X#X#X%.; G.v.s ",
"0 L v.* &.$X$Xx.f.@Xx.h.h.k.a.q.O., C Q.uXsXhXiXjXsXhXfXfXsXaXqXJ.* [ q.g.g.g.oX4X1X%Xf.oX4.3 G.v.s ",
"q H M.% %.oXl.@X@XXXz.x.c.i.9.q.#.< V Q.pXsXaXaXzXsXsXxXiXhXiX0XI.r [ <.e.i.d.d.,X&X XXXoX%.l D.v.s ",
"0 { G.= =..Xs.&XXXXXs.s.p.0.5.:.+.< B W.tXdXiXhXaXsXsXfXxXxXiXqXP.# } 1.7.e.e.d.d.d. X.X.X%.= L.N.p ",
"9 Y Z.O o.w.w.2.].y.y.w.0.>.;.2.| x B R.yXfXsXhXkXzXjXjXxXxXiX0XP.q F 2.:.;.q.q.2.1.w.w.].o.% D.n.s ",
"f P H 9 F } ] ` ( ( [ [ [ ] [ } ~ i v v./.~.^.^.^.~.~.^.).`._.Q.K 9 V ` } [ [ ' ' ' +.} } Z @ J P d ",
"q 8 w 8 ; & 1 < * ; < & & & , ; y # 8 0 w 8 X . . #   + 8 8 q 8 0 . f @ * - $ > > > * y : : . f 0 q ",
"vXvXvXvXvXvXvXvXvXvXvXvXvXvXvXvXvXvXvXvXvXvXvXvXvXvXvXvXvXvXvXvXvXvXvXvXvXvXvXvXvXvXvXvXvXvXvXvXvXvX",
"vXvXvXvXvXvXvXvXvXvXvXvXvXvXvXvXvXvXvXvXvXvXvXvXvXvXvXvXvXvXvXvXvXvXvXvXvXvXvXvXvXvXvXvXvXvXvXvXvXvX",
"vXvXvXvXvXvXvXvXvXvXvXvXvXvXvXvXvXvXvXvXvXvXvXvXvXvXvXvXvXvXvXvXvXvXvXvXvXvXvXvXvXvXvXvXvXvXvXvXvXvX",
"vXvXvXvXvXvXvXvXvXvXvXvXvXvXvXvXvXvXvXvXvXvXvXvXvXvXvXvXvXvXvXvXvXvXvXvXvXvXvXvXvXvXvXvXvXvXvXvXvXvX"
};
