/* XPM */
static char *result[] = {
/* columns rows colors chars-per-pixel */
"50 50 46 1 ",
"  c #DFE0E7",
". c #ECF1E9",
"X c #F7FFEA",
"o c #E0E2E7",
"O c #E0E1E7",
"+ c #F6FEEA",
"@ c #F6FDEA",
"# c #F2F8E9",
"$ c #F5FCEA",
"% c #EAEEE8",
"& c #E4E6E8",
"* c #E4E7E8",
"= c #E9EDE8",
"- c #E6E9E8",
"; c #DEDFE7",
": c #E5E8E8",
"> c #E6EAE8",
", c #DFDFE7",
"< c #E7EAE8",
"1 c #E2E3E7",
"2 c #E1E3E7",
"3 c #E7EBE8",
"4 c #F5FDEA",
"5 c #E3E5E8",
"6 c #E3E6E8",
"7 c #EEF3E9",
"8 c #EBF0E9",
"9 c #ECF0E9",
"0 c #F4FBEA",
"q c #F3FAEA",
"w c #F4FCEA",
"e c #E1E2E7",
"r c #F7FEEA",
"t c #F1F7E9",
"y c #DFE1E7",
"u c #E2E4E7",
"i c #F0F6E9",
"p c #EBEFE8",
"a c #F8FFEA",
"s c #EDF2E9",
"d c #F3FAE9",
"f c #EFF5E9",
"g c #F1F8E9",
"h c #E8ECE8",
"j c #F2F9E9",
"k c white",
/* pixels */
"                  .XXXXXXXXXXXXXXXXXXXXXXXXXXXXXXX",
"                  .XXXXXXXXXXXXXXXXXXXXXXXXXXXXXXX",
"oooooooooooooooooO.XXXXXXXXXXXXXXX+@@@@@@@@+XXXXXX",
"##################$XXXXXXXXXXXXXXX%&******&=+XXXXX",
"XXXXXXXXXXXXXXXXXXXXXXXXXXXXXXXXXX-;      ;:+XXXXX",
"XXXXXXXXXXXXXXXXXXXXXXXXXXXXXXXXX+>,       :+XXXXX",
"XXXXXXXXXXXXXXXXXXXXXXXXXXXXXX+%<<1        2<33333",
"XXXXXXXXXXXXXXXXXXXXXXXXXXXXXX45;,          ,,,,,,",
"XXXXXXXXXXXXXXXXXXXXXXXXXXXXXX46;                 ",
"XXXXXXXXXXXXXXXXXXXXXXXXXXXXXX+7899999999999999999",
"XXXXXXXXXXXXXXXXXXXXXXXXXXXXXXXXXXXXXXXXXXXXXXXXXX",
"XXXXXXXXXXXXXXXXXXXXXXXXXXXXXXXXXXXXXXXXXXXXXXXXXX",
"XXXXXXXXXXXXXXXXXXXXXXXXXXXXXXXXXXXXXXXXXXXXXXXXXX",
"XXXXXXXXXXXXXXXXXXXXXXXXXXXXXXXXXXXXXXXXXXXXXXXXXX",
"XXXXXXXXXXXXXXXXXXXXXXXXXXXXXXXXXXXXXXXXXXXXXXXXXX",
"XXXXXXXXXXXXXXXXXXXXXXXXXXXXXXXXXXXXXXXXXXXXXXXXXX",
"XXXXXXXXXXXXXXXXXXXXXXXXXXXXXXXXXXXXXXXXXXXXXXXXXX",
"XXXXXXXXXXXXXXXXXXXXXXXXXXXXXXXXXXXXXXXXXXXXXXXXXX",
"XXXXXXXXXXXXXXXXXXXXXXXXXXXXXXX0qqqqqqqqqqqwXXXXXX",
"XXXXXXXXXXXXXXXXXXXXXXXXXXXXXX@:2222222222e<+XXXXX",
"XXXXXXXXXXXXXXXXXXXXXXXXXXXXXX@6,         ;:+XXXXX",
"XXXXXXXXXXXXXXXXXXXXXXXXr4444406           :$4@XXX",
"XXXXXXXXXXXXXXXXXXXXXXXX#*66665O           o65>4XX",
"XXXXXXXXXXXXXXXXXXXXXXXXty                   ;u$XX",
"XXXXXXXXXXXXXXXXXXXXXXXXtoyyyyyyyyyyyyyyyyyyy 5$XX",
"XXXXXXXXXXXXXXXXXXXXXXXX4iiiiiiiiiiiiiiiiiiiiit+XX",
"XXXXXXXXXXXXXXXXXXXXXXXXXXXXXXXXXXXXXXXXXXXXXXXXXX",
"XXXXXXXXXXXXXXXXXXXXXXXXXXXXXXXXXXXXXXXXXXXXXXXXXX",
"========8@XXXXXXXXXXXXXXXXXXXXXXXXXXXXXXXXXXXX$p==",
",,,,,,,;uwXXXXXXXXXXXXXXXXXXXXXXXXXXXXXXXXXXXXqe;,",
"        u$aXXXXXXXXXXXXXXXXXXXXXXXXXXXXXXXXXXa02  ",
"        e8sssss0XXXXXXXXXXXXXXXXXXXXXXXXdssssspo  ",
"               fXXXXXXXXXXXXXXXXXXXXXXXXs         ",
",,,,,,,,,,,,,, fXXXXXXXXXXXXXXXXXXXXXXXXs,,,,,,,,,",
"---------------#XXXXXXXXXXXXXXXXXXXXXXXXi---------",
"rrrrrrrrrrrrrrrXXXXXXXXXXXXXXXXXXXXXXXXXXrrrrrrrrr",
"XXXXXXXXXXXXXXXXXXXXXXXXXXXXXXXXXXXXXXXXXXXXXXXXXX",
"XXXXXXXXXXXXXXXXXXXXXXXXXXXXXXXXXXXXXXXXXXXXXXXXXX",
"XXXXXXXXXXXXXXXXXXXXXXXXXXXXXXXXXXXXXXXXXXXXXXXXXX",
"XXXXXXXXXXXXXXXXXXXXXXXXXXXXXXXXXXXXXXXXXXXXXXXXXX",
"XXXXXXXXXXXXXXXXXXXXXXXXXXXXXXXXXXXXXXXXXXXXXXXXXX",
"XXXXXXXXXXXXXXXXXXXXXXXXXXXXXXXXXXXXXXXXXXXXXXXXXX",
"XXXXXXXXXXXXXXXXXXXXXXXXXXXXXXXXXXXXXXXXXXXXXXXXXX",
"XXXXXXXXXXXXXXXXXXXXXXXXXXXXXXXXXXXXXXXXXXXXXXXXXX",
"XXXXXXXXXXXXXXXXXXXXXXXXXXXXXXXXXXXXXXXXXXXXXXXXXX",
"XXXXXXXXXXXXXXXXXXXXXXXXXXXXXXXXXXXXXXXXXXXXXXXXXX",
"XXXXXXXXXXXXXXXXXXXXXXXXXXXXXXXXXXXXXXXXXXXXXXXXXX",
"XXghhhhhhhh=0XXXXXXXXXXXXXXXXXXXXXXXXXXXXXXXXXXXXX",
"XX7,,,,,,,;OjXXXXXXXXXXXXXXXXXXXXXXXXXXXXXXXXXXXXX",
"XX7        ojXXXXXXXXXXXXXXXXXXXXXXXXXXXXXXXXXXXXX"
};
