/* XPM */
static char *result[] = {
/* columns rows colors chars-per-pixel */
"50 50 159 2 ",
"   c #231827",
".  c #261B29",
"X  c #2A1D2A",
"o  c #351E2C",
"O  c #3C1F2D",
"+  c #2D212D",
"@  c #32222B",
"#  c #3A232C",
"$  c #481F30",
"%  c #41242E",
"&  c #44292B",
"*  c #54332D",
"=  c #442431",
"-  c #4B2232",
";  c #442E32",
":  c #5D2434",
">  c #4B363C",
",  c #4C383D",
"<  c #503837",
"1  c #543A39",
"2  c #673C2E",
"3  c #642536",
"4  c #6A2637",
"5  c #742739",
"6  c #7A273B",
"7  c #7C293B",
"8  c #643C31",
"9  c #76432E",
"0  c #7F472F",
"q  c #7F482F",
"w  c #65473F",
"e  c #684A3E",
"r  c #784631",
"t  c #7F4930",
"y  c #70443F",
"u  c #764C42",
"i  c #7B5545",
"p  c #86293D",
"a  c #88293D",
"s  c #80492F",
"d  c #8E4F2F",
"f  c #8E5031",
"g  c #8D593E",
"h  c #945838",
"j  c #AA5E31",
"k  c #BD6933",
"l  c #C4493F",
"z  c #CB513F",
"x  c #D75D3D",
"c  c #C96E33",
"v  c #CF6539",
"b  c #DF653B",
"n  c #CA7035",
"m  c #C7763E",
"M  c #D47334",
"N  c #DC7336",
"B  c #E66C3A",
"V  c #E96F3A",
"C  c #EF7737",
"Z  c #E57D34",
"A  c #EA7339",
"S  c #E47E39",
"D  c #F57D36",
"F  c #972C40",
"G  c #9A2C40",
"H  c #A32C42",
"J  c #AD2D44",
"K  c #B12E45",
"L  c #A53644",
"P  c #AF3042",
"I  c #A93D4C",
"U  c #B13143",
"Y  c #B73A42",
"T  c #B13649",
"R  c #B33B4C",
"E  c #B83A42",
"W  c #825947",
"Q  c #825A49",
"!  c #8E5C44",
"~  c #9A5B4C",
"^  c #BE4240",
"/  c #B74351",
"(  c #B94552",
")  c #BC4B55",
"_  c #B6545B",
"`  c #8E614C",
"'  c #94654D",
"]  c #996A4F",
"[  c #9C6B52",
"{  c #B2744D",
"}  c #AC7657",
"|  c #A37053",
" . c #B07958",
".. c #B17A57",
"X. c #C1535B",
"o. c #C3595F",
"O. c #D96647",
"+. c #C97F4E",
"@. c #E26D41",
"#. c #E0744E",
"$. c #CD6B6B",
"%. c #CA6666",
"&. c #C5726D",
"*. c #D3746C",
"=. c #CD7F76",
"-. c #D27470",
";. c #D57A74",
":. c #F18335",
">. c #FA8635",
",. c #FF8A34",
"<. c #FE8B39",
"1. c #F9863B",
"2. c #BE835D",
"3. c #D7854C",
"4. c #C2855E",
"5. c #C98A5F",
"6. c #C88456",
"7. c #EF854A",
"8. c #E28645",
"9. c #F08346",
"0. c #FE9243",
"q. c #FE974A",
"w. c #FE994C",
"e. c #E98354",
"r. c #E3975F",
"t. c #E39054",
"y. c #FE9C53",
"u. c #FE9F58",
"i. c #F59955",
"p. c #FEA15B",
"a. c #CB8C60",
"s. c #D39164",
"d. c #DE887D",
"f. c #DB857B",
"g. c #E18262",
"h. c #E39D69",
"j. c #E08C7C",
"k. c #EEA46D",
"l. c #FDA764",
"z. c #FEA865",
"x. c #F2A76E",
"c. c #FDA968",
"v. c #FDAE71",
"b. c #FFB172",
"n. c #DC9A87",
"m. c #E08E80",
"M. c #E89E8B",
"N. c #E7A48E",
"B. c #EFA790",
"V. c #F1AC93",
"C. c #E9B196",
"Z. c #EBB599",
"A. c #F4B297",
"S. c #FFBE95",
"D. c #F7B69A",
"F. c #FABD9E",
"G. c #FCBFA0",
"H. c #FFC3A2",
"J. c None",
/* pixels */
"J.J.J.J.J.J.J.J.J.J.J.J.J.J.J.J.J.J.J.X X X X X X X X X X X X J.J.J.J.J.J.J.J.J.J.J.J.J.J.J.J.J.J.J.",
"J.J.J.J.J.J.J.J.J.J.J.J.J.J.J.J.J.J.J.X X X X X X X X X X . X J.J.J.J.J.J.J.J.J.J.J.J.J.J.J.J.J.J.J.",
"J.J.J.J.J.J.J.J.J.J.J.J.J.J.J.J.J.J.J.# # @ # # @ # # # # # # J.J.J.J.J.J.J.J.J.J.J.J.J.J.J.J.J.J.J.",
"J.J.J.J.J.J.J.J.J.J.J.J.J.J.J.J.+ + r M M M M M M M M M M M n * + + J.J.J.J.J.J.J.J.J.J.J.J.J.J.J.J.",
"J.J.J.J.J.J.J.J.J.J.J.J.J.J.J.X X . 0 ,.,.,.,.,.,.,.,.,.,.,.:.* . + J.J.J.J.J.J.J.J.J.J.J.J.J.J.J.J.",
"J.J.J.J.J.J.J.J.J.J.J.J.J.J.J.+ + X s ,.,.,.,.,.,.,.,.,.,.,.:.* X @ J.J.J.J.J.J.J.J.J.J.J.J.J.J.J.J.",
"J.J.J.J.J.J.J.J.J.J.J.J.J.+ + Q 2.2.3.,.,.,.,.,.,.,.,.,.,.,.>.c k k 8 + + J.J.J.J.J.J.J.J.J.J.J.J.J.",
"J.J.J.J.J.J.J.J.J.J.J.J.+ X . ] b.b.p.,.,.,.,.,.,.,.,.,.,.,.,.,.,.>.2 . + J.J.J.J.J.J.J.J.J.J.J.J.J.",
"J.J.J.J.J.J.J.J.J.J.J.J.+ X . ] b.b.p.,.,.,.,.,.,.,.,.,.,.,.,.,.,.>.2 . X J.J.J.J.J.J.J.J.J.J.J.J.J.",
"J.J.J.J.J.J.J.J.J.J.J.J.+ X X 1 W i { u.u.u.u.u.u.u.u.u.u.u.i.h s 0 & X X J.J.J.J.J.J.J.J.J.J.J.J.J.",
"J.J.J.J.J.J.J.J.J.J.J.J.+ X X . .   i v.v.v.v.v.v.v.v.v.b.c.k.<   . X X X J.J.J.J.J.J.J.J.J.J.J.J.J.",
"J.J.J.J.J.J.J.J.J.J.J.J.+ . . . .   i b.b.b.b.b.b.b.b.b.b.b.x.< . . . . . J.J.J.J.J.J.J.J.J.J.J.J.J.",
"J.J.J.J.J.J.J.J.J.J.J.J.i ` ` g d d h ] ] ] ] ] ] ] ] ] ] ] ] h d f ! ` ` w J.J.J.J.J.J.J.J.J.J.J.J.",
"J.J.J.J.J.J.J.J.J.+ X X } b.b.y.,.,.j . . . X . X . . . X . @ M ,.<.l.b.b.i . X J.J.J.J.J.J.J.J.J.J.",
"J.J.J.J.J.J.J.J.J.+ X X } b.b.y.,.,.j . . . . . . . . . . . @ M ,.,.p.v.v.i . X J.J.J.J.J.J.J.J.J.J.",
"J.J.J.J.J.J.J.J.J.+ X X } b.v.p.q.0.+.9 9 9 9 9 9 9 9 9 9 9 s 8.q.q.c.v.v.i . X J.J.J.J.J.J.J.J.J.J.",
"J.J.J.J.J.J.J.J.J.+ X X } b.v.v.c.b.p.>.,.,.,.,.,.,.,.,.,.,.<.l.v.v.v.v.v.i . X J.J.J.J.J.J.J.J.J.J.",
"J.J.J.J.J.J.J.J.J.+ X X } b.v.v.b.b.p.,.,.,.,.,.,.,.,.,.,.,.<.z.b.v.b.v.b.i   X J.J.J.J.J.J.J.J.J.J.",
"J.J.J.J.J.J.J.J.J.- - - ' a.a.a.5.6.6.c c c c c n c c c c c n 6.5.5.5.a.5.u $ - = J.J.J.J.J.J.J.J.J.",
"J.J.J.J.J.J.+ X X F J H : @ @ # @ @ @ @ + @ o @ @ @ + @ + @ @ @ + @ @ # @ 6 J J 4 X + + J.J.J.J.J.J.",
"J.J.J.J.J.J.X X X p K J : . . . . . . X X . . . . . . . X X . . . . X X . 6 K K 4 . X X J.J.J.J.J.J.",
"J.J.J.J.J.J.+ + + 6 F F 3 O O ; , , ; # = = , , , , , > % O % > , , = # O 6 G F 4 X + + J.J.J.J.J.J.",
"J.J.J.J.J.J.J.J.J.@ # o 6 H G &.Z.Z.f.H H _ C.Z.C.C.Z.N.I H L n.Z.C._ G H : o o o J.J.J.J.J.J.J.J.J.",
"J.J.J.J.J.J.J.J.J.+ X X 6 K J ;.H.H.f.L J X.G.H.H.H.H.A.R J T B.H.F.o.J J : . . J.J.J.J.J.J.J.J.J.J.",
"J.J.J.J.J.J.J.J.J.# o o 7 J J -.D.D.f.R T %.F.H.H.H.H.A.) R / M.S.A.X.J J 3 o o # J.J.J.J.J.J.J.J.J.",
"J.J.J.J.J.J.+ X @ 7 G G H J J R ( ( $.V.V.A.H.G.H.H.H.G.V.V.B.o.R R T K J H G G 3 X X + J.J.J.J.J.J.",
"J.J.J.J.J.J.+ X X a K K K J J J J J $.H.H.H.G.H.G.H.G.H.H.H.D.) J J J J J J J J 4 X X + J.J.J.J.J.J.",
"J.J.J.J.J.J.+ X + p J H J J J J U J %.F.F.F.F.F.G.F.F.F.G.G.A.) K K K J J J H J 4 X + + J.J.J.J.J.J.",
"J.J.J.J.J.J.J.J.J.- - - p J J z A A O.X._ X.X.X.X.X.X.X._ X.X.B C A j K J 4 - - = J.J.J.J.J.J.J.J.J.",
"J.J.J.J.J.J.J.J.J.+ + . 6 J J x ,.,.b J J J J J J J J J K J K C ,.,.^ K J : . X J.J.J.J.J.J.J.J.J.J.",
"J.J.J.J.J.J.J.J.J.+ X X 6 P J x ,.,.b J J P P P J J K P J J U C ,.,.X.J J : X X J.J.J.J.J.J.J.J.J.J.",
"J.J.J.J.J.J.J.J.J.+ X X ~ g.g.7.,.>.D B b #.m.m.m.d.j.j.O.B B >.,.,.#.e.*.u . X J.J.J.J.J.J.J.J.J.J.",
"J.J.J.J.J.J.J.J.J.+ X X  .b.b.u.,.,.,.,.,.y.G.H.H.H.H.S.0.,.,.,.,.,.p.b.b.i . X J.J.J.J.J.J.J.J.J.J.",
"J.J.J.J.J.J.J.J.J.+ X X } b.v.y.,.>.,.,.,.y.G.H.H.H.H.S.0.,.,.,.,.,.l.v.v.i . X J.J.J.J.J.J.J.J.J.J.",
"J.J.J.J.J.J.J.J.J.+ X X } b.v.l.y.y.0.,.,.9.*.*.*.*.;.*.1.,.<.w.y.u.l.v.v.i . X J.J.J.J.J.J.J.J.J.J.",
"J.J.J.J.J.J.J.J.J.+ X X } b.v.v.v.v.p.,.,.B J J J J J Y D ,.<.z.v.v.v.v.c.i . X J.J.J.J.J.J.J.J.J.J.",
"J.J.J.J.J.J.J.J.J.X . . } b.v.v.v.v.p.,.<.V K J J J J Y D >.<.l.v.v.v.v.v.u . . J.J.J.J.J.J.J.J.J.J.",
"J.J.J.J.J.J.J.J.J.i W Q 5.v.v.v.v.v.u.,.,.V K J J J J Y :.,.<.l.v.v.v.v.v...i W u J.J.J.J.J.J.J.J.J.",
"J.J.J.J.J.J.+ X + a.b.v.v.v.v.v.v.v.p.,.,.B P J J J J Y D ,.<.l.v.v.v.v.v.v.v.b.` . X + J.J.J.J.J.J.",
"J.J.J.J.J.J.X X X 2.b.v.v.v.b.c.v.b.p.,.,.B K J J J J Y D ,.<.l.v.v.v.v.v.v.v.b.' . X X J.J.J.J.J.J.",
"J.J.J.J.J.J.X X o a.v.v.v.v.v.v.v.v.u.,.,.B K J J J J Y D ,.<.l.b.c.v.v.v.v.b.b.' . X X J.J.J.J.J.J.",
"J.J.J.J.J.J.+ X X 2.b.v.v.v.v.v.v.v.u.,.,.V U J J J J Y D ,.<.l.v.v.v.v.v.v.b.b.' . X + J.J.J.J.J.J.",
"J.J.J.J.J.J.+ X X a.v.v.v.v.v.v.v.v.u.,.,.V P J J J J Y D ,.<.c.v.v.b.v.v.v.b.b.' . X X J.J.J.J.J.J.",
"J.J.J.J.J.J.X X @ | s.s.k.v.v.v.v.v.u.,.,.B J J J J J Y :.,.,.c.v.v.b.b.b.s.s.s.i . X + J.J.J.J.J.J.",
"J.J.J.J.J.J.+ X + + # # } b.v.v.v.v.u.,.,.B K J J J J E D ,.,.c.v.v.v.v.v.i @ # @ X X X J.J.J.J.J.J.",
"J.J.J.J.J.J.X X X . + X } b.v.v.v.b.p.,.,.V U K J J J E :.>.,.z.b.v.v.v.b.i . X X X X + J.J.J.J.J.J.",
"J.J.J.J.J.J.+ X . X X X ] k.h.h.h.h.t.Z Z v F G G G G L B :.S r.h.h.h.h.h.u . X X X X + J.J.J.J.J.J.",
"J.J.J.J.J.J.J.J.J.+ X X # ; ; ; ; ; ; & & & O O O O O O & & & ; ; ; ; ; ; # X X X J.J.J.J.J.J.J.J.J.",
"J.J.J.J.J.J.J.J.J.+ X X X X . X . X . X . X X X X X X X . . X . X X . . . X X X J.J.J.J.J.J.J.J.J.J.",
"J.J.J.J.J.J.J.J.J.+ X X X X X X X X X X X X X X X X X X X X X X X X X X X X X X J.J.J.J.J.J.J.J.J.J."
};
