/* XPM */
static char *result[] = {
/* columns rows colors chars-per-pixel */
"50 50 140 2 ",
"   c #2C344C",
".  c #2F3A52",
"X  c #323B53",
"o  c #3E475A",
"O  c #364761",
"+  c #364861",
"@  c #444B5E",
"#  c #434960",
"$  c #484F60",
"%  c #495162",
"&  c #545C6A",
"*  c #5E6673",
"=  c #5F6978",
"-  c #626B75",
";  c #BB675F",
":  c #BA695F",
">  c #BD6A62",
",  c #C0756D",
"<  c #C07670",
"1  c #C37D73",
"2  c #FC852E",
"3  c #FD8732",
"4  c #FD8835",
"5  c #C68A7F",
"6  c #476482",
"7  c #4A6683",
"8  c #4B6984",
"9  c #6A7082",
"0  c #717687",
"q  c #7B7F90",
"w  c #7F878B",
"e  c #7E8394",
"r  c #778E9D",
"t  c #788F9E",
"y  c #828997",
"u  c #879092",
"i  c #8B9495",
"p  c #909B9C",
"a  c #8E92A2",
"s  c #9297A3",
"d  c #949AA1",
"f  c #8C97B2",
"g  c #A998AA",
"h  c #9CA5A1",
"j  c #9BABB2",
"k  c #A6A9B7",
"l  c #A0A4BF",
"z  c #ACAEB9",
"x  c #B9A9B1",
"c  c #A7B1BF",
"v  c #B0B9B1",
"b  c #C98E85",
"n  c #C99185",
"m  c #CB9488",
"M  c #C89693",
"N  c #CB9B92",
"B  c #D19F92",
"V  c #D1A091",
"C  c #D4AC9E",
"Z  c #F8BE86",
"A  c #CDA2A2",
"S  c #D7AFA0",
"D  c #D7B8A8",
"F  c #D9BBAA",
"G  c #C2B8BB",
"H  c #B9C4BB",
"J  c #BEC8BC",
"K  c #C0C9BD",
"L  c #DCC5B3",
"P  c #DEC9B7",
"I  c #E3CBBA",
"U  c #EBCEBA",
"Y  c #F5DDBA",
"T  c #A1A6C1",
"R  c #A7ACC5",
"E  c #A9ADC5",
"W  c #ACB2C5",
"Q  c #B4B6C2",
"!  c #BABFC3",
"~  c #B3B7CD",
"^  c #B7BCCB",
"/  c #BABFCE",
"(  c #B9BBD0",
")  c #C1B9C7",
"_  c #BFC7C6",
"`  c #BCC1CB",
"'  c #BEC2D3",
"]  c #C3CDC0",
"[  c #C2C2CE",
"{  c #C3C8CC",
"}  c #CCD5C7",
"|  c #CED7C8",
" . c #C2C4D4",
".. c #C6CBD3",
"X. c #CACDD5",
"o. c #CDCFDA",
"O. c #CDD1D2",
"+. c #CFD0DC",
"@. c #DBD1D7",
"#. c #D4D9D5",
"$. c #D1D3DD",
"%. c #DAD4D9",
"&. c #D7DDDB",
"*. c #DBDBDC",
"=. c #E4D9C6",
"-. c #E5DBC8",
";. c #E2D4D3",
":. c #D7E1D0",
">. c #DBE5D4",
",. c #DEE8D5",
"<. c #DBE2DB",
"1. c #ECE1D0",
"2. c #EDEBD7",
"3. c #E4E5DA",
"4. c #E3EDDC",
"5. c #ECEDDA",
"6. c #F5EFD2",
"7. c #E6F0DD",
"8. c #E9F3DE",
"9. c #D6D6E2",
"0. c #D7D8E3",
"q. c #DEDEE6",
"w. c #DFDFE8",
"e. c #DFE1E7",
"r. c #DFE0E8",
"t. c #E1E4E7",
"y. c #E6EAE6",
"u. c #E8EDE7",
"i. c #E1E2E8",
"p. c #E6EAE8",
"a. c #E8EEE8",
"s. c #ECF3E6",
"d. c #EFF8E4",
"f. c #EDF4E8",
"g. c #EFF8E8",
"h. c #F0F7E7",
"j. c #F4FEE7",
"k. c #F0F7E8",
"l. c #F5FFE8",
"z. c #F8FEEB",
/* pixels */
"o.$.+.+.$.$.$.$.$.$.$.$.$.$.9.+.$.9.<.7.7.7.7.7.7.7.7.7.7.7.7.7.5.H p p p p p p :.7.4.4.7.7.4.4.4.4.",
"q.q.e.e.e.e.e.e.e.e.e.w.e.e.e.e.e.e.a.l.j.j.j.j.j.j.j.j.j.j.j.j.j.i             ,.j.j.j.j.j.l.l.j.j.",
"t.t.t.t.t.e.e.e.t.t.t.t.t.t.t.r.t.t.s.l.l.l.l.l.l.l.l.j.l.l.l.l.j.i             >.l.k.l.l.l.l.l.j.j.",
"f.f.g.g.g.g.g.g.f.k.k.k.f.g.g.g.g.f.g.l.l.l.l.4.:.:.4.j.l.l.,.:.#.y             ! O.O.<.l.l.l.l.j.j.",
"l.l.l.l.l.l.l.l.l.l.l.l.l.l.j.j.l.l.l.l.l.l.l.u .   - j.l.l.$                         d k.l.l.l.l.j.",
"l.l.l.l.l.l.l.l.l.l.l.l.l.l.l.z.l.l.l.l.l.l.l.u     - j.l.l.%                         p h.l.k.j.l.j.",
"l.l.l.l.l.l.l.l.l.l.l.l.l.l.l.j.l.l.l.l.l.l.l.u     - j.j.j.%                         s p.p.p.p.u.u.",
"l.l.l.l.l.l.l.l.l.l.l.l.l.l.l.l.l.l.l.l.l.l.l.,.| | v & & & .                   z ` [ $.t.i.i.i.i.i.",
"l.l.l.l.l.l.l.l.l.l.l.l.l.l.z.l.l.l.l.l.l.l.l.l.j.j.J                           X.i.i.t.i.i.i.i.i.i.",
"l.l.l.l.l.l.l.l.l.l.l.l.l.l.j.j.l.l.l.l.l.l.l.l.j.j._                           #.f.a.a.a.a.f.a.a.a.",
"l.l.l.l.l.l.l.l.l.l.l.l.l.l.l.l.l.l.l.l.l.l.l.k.h.s.{ O + + 9 9 0 %             3.h.l.j.l.l.l.l.j.j.",
"l.l.l.l.l.l.l.l.l.l.l.l.j.j.z.l.l.l.l.l.l.l.l.u.w.w.^ = 6 6 o.q.0.e             ,.j.l.l.l.l.l.l.l.l.",
"l.l.l.l.l.l.j.l.l.l.j.l.l.l.l.l.l.l.l.l.l.l.l.u.e.q.` 6 8 7 +.e.q.y             ,.l.l.l.l.l.l.l.l.l.",
"l.l.l.l.l.l.j.2.2.6.j.l.l.l.l.l.l.l.l.l.l.l.l.5.;.@.G = = = +.e.t.y . . X % % % } :.,.8.l.l.l.l.l.l.",
"l.l.l.l.l.l.-.> > > 5.l.l.l.l.l.l.l.l.z.l.l.j.Z 3 3 3 4 4 3 6.l.j.j 8 8 t j.j.j.@     h l.l.l.l.l.l.",
"l.l.l.l.l.l.=.> > > 8.l.l.l.l.l.l.l.l.l.l.l.j.Z 4 3 3 3 4 3 6.l.j.j 8 8 t l.l.l.@     h j.l.l.l.l.l.",
"z.j.z.j.j.j.=.; > > 6.j.j.j.j.j.l.l.l.l.l.l.j.Z 3 3 3 3 2 2 6.j.l.j 6 8 r l.j.l.@     h j.l.l.l.j.j.",
"j.j.j.L m b 5 , > > n m m I j.j.l.l.l.l.l.l.j.1.I U U Y Y Y j.j.l.` f f c l.l.l.] J K ,.j.l.l.l.l.j.",
"j.j.j.S > > ; ; : , ; > > F j.j.z.j.l.z.l.l.j.u.w.q.y.j.j.j.j.j.l.X.T l ^ g.g.g.g.g.k.l.l.l.l.l.l.l.",
"j.z.j.C > > ; , ; ; > ; , F j.d.j.j.j.j.l.l.l.u.w.q.t.j.j.j.j.j.g.X.T T ~ e.t.t.t.t.t.a.l.l.l.l.l.l.",
"j.j.j.I V V V B B B B B V F I I I I I P u.s.s.y.q.q.e.&.&.&.&.&.e...( (  .r.r.r.e.e.w.p.k.l.l.l.l.l.",
"z.j.j.j.j.j.l.l.j.j.j.j.j.C > , , : > : @.w.w.q.q.q.$.l l T T T T  .q.r.w.r.r.r.e.e.i.p.k.k.l.l.l.l.",
"j.j.j.j.j.j.j.j.j.j.j.j.j.C ; , ; > > ; ;.q.q.q.q.q.$.l T T T T T  .w.w.r.r.r.r.w.w.e.i.t.p.a.k.l.l.",
"z.j.z.j.j.z.j.j.z.j.j.j.j.D 1 1 < , , , @.q.q.$.X.X. .E E W E E E ) %.@.@.%.%.%.w.e.e.0.*.%.*.k.l.l.",
"j.j.l.l.l.l.l.l.l.l.l.l.l.l.l.l.k.w.w.q.q.q.q.q     * z.z.z.i.i.w.A > > > > > > *.t.i.B ; ; b h.l.l.",
"j.j.l.l.l.l.l.l.l.l.l.l.l.l.l.l.k.w.w.q.w.q.q.w     - l.j.j.i.q.w.A > > > > > > 3.a.k.C ; , b j.l.l.",
"z.j.j.l.l.l.l.l.l.l.l.l.l.l.l.l.k.w.q.i.w.q.w.q     * l.j.l.w.q.q.N > > > > > > 2.j.j.C , ; b j.l.l.",
"j.j.l.l.j.l.l.l.l.l.l.l.l.l.l.l.k.w.q.i.w.q.w. .z Q [ j.j.l.t.q.q.) g g x -.-.-.N b b , ; ; , 5 n n ",
"a.a.a.a.a.u.u.a.f.k.l.l.l.l.l.l.k.q.w.q.q.q.q.q.q.w.t.j.j.l.t.w.w.' T T ^ l.l.l.1 > > > , ; ; ; ; ; ",
"e.i.i.i.i.i.i.i.p.k.l.l.l.l.l.l.k.w.w.w.q.0.q.q.q.q.p.j.j.l.t.q.q.' T T ^ l.l.l.1 > > > ; , ; , , , ",
"w.r.e.w.i.w.w.w.t.k.j.j.l.l.l.l.k.q.w.i.k k k ) w.q.t.k.a.k.t.q.q.' T T ^ l.l.l.C V B B B B B M b M ",
"r.r.e.w.w.e.w.w.t.a.a.f.f.a.a.k.k.q.q.i.#     a q.q.w.w.i.q.w.q.t. .T T ^ l.l.l.f.f.a.a.u.u.u.i.q.w.",
"r.w.r.r.i.w.w.i.w.i.i.i.i.i.i.k.h.q.q.i.#     a q.w.w.w.i.w.w.i.w.( R T ^ j.l.l.f.i.i.i.i.i.i.q.w.i.",
"i.w.i.i.w.i.i.w.w.w.w.i.i.w.t.a.h.t.w.t.& @ o s 9.0.0.0.0.0.0.0.0.' R R / j.j.h.f.i.i.i.i.q.w.i.w.i.",
"p.p.p.p.p.p.p.u.p.p.p.p.p.t.q.i.t.j.l.l.k.z.z...T T T T T l l l T  .i.q.w.w.w.w.s.u.p.p.p.p.t.p.u.p.",
"k.k.j.k.j.k.j.z.k.j.k.z.k.p.q.w.p.j.l.l.z.j.j...T T T T T T T T T  .q.w.w.w.w.q.h.j.k.j.j.j.z.k.j.z.",
"z.l.l.l.l.l.l.l.l.j.l.l.l.u.w.i.t.j.j.j.j.j.j...T T T T T T T T T  .q.w.q.w.w.w.j.l.l.l.z.l.l.l.l.l.",
"l.l.l.l.l.l.l.l.l.j.z.j.l.u.w.w.t.j.z.j.j.j.j.u.<.&.*.<.<.<.<.<.&.q.q.w.9.~ ~ ~ f.l.l.l.l.l.l.l.l.l.",
"l.l.l.l.l.l.l.l.l.l.j.j.j.u.w.w.p.j.l.l.j.j.j.l.j.j.j.l.j.j.j.j.j.a.w.q.$.T T T s.j.l.l.l.l.l.l.l.l.",
"l.l.l.l.l.l.l.l.l.l.z.l.j.u.w.w.p.j.l.l.j.j.l.l.j.j.l.l.j.l.l.j.j.u.w.q.o.T T T s.j.l.l.l.l.l.l.l.l.",
"l.l.l.l.l.l.l.l.z.j.l.z.j.u.t.w.t.h.s.s.z.j.l.l.j.j.j.u.h.s.h.s.k.t.i.q.$.l T T 8.j.l.l.l.l.l.l.l.l.",
"l.l.l.l.l.l.l.l.l.j.l.j.j.u.w.w.w.w.q.q.k.j.l.j.j.j.k.w.q.q.q.q.q.q.q.q.$.l R l s.l.l.l.l.l.l.l.z.l.",
"l.l.l.l.l.l.l.l.l.l.l.j.j.u.w.w.w.q.w.w.k.z.j.j.l.z.h.q.q.w.w.w.w.q.q.w.$.T T l s.j.j.l.l.l.l.l.l.l.",
"l.l.l.l.l.l.l.l.l.l.z.j.j.u.t.t.t.0.0.9.k.j.j.j.h.j.s.w.q.q.q.0.0.0.q.0.o.E E E 8.j.l.l.l.l.l.l.l.l.",
"l.z.l.l.l.l.l.l.l.l.l.l.j.j.j.l.4.T T l *.q.q.q.w.q.q.w.q.q.E T T T T T ^ j.j.j.j.z.l.l.l.j.j.l.l.l.",
"l.l.l.l.l.l.l.l.l.l.l.l.z.j.l.l.4.T T T 9.q.q.w.w.q.w.w.w.w.E T T T T T / l.j.j.j.l.l.l.z.j.j.z.l.l.",
"l.l.l.l.j.j.z.k.j.j.j.j.l.l.l.l.4.T T T 0.i.w.w.w.w.w.w.w.i.E T T T T T / j.l.l.j.l.l.l.l.l.j.l.l.l.",
"l.l.k.a.a.a.a.a.p.u.a.a.j.l.l.l.h.<.<.*./ ~ ~ ~ ~ ~ ~ ~ ~ ~ &.,.<.<.3.3.4.l.l.j.j.z.j.j.z.l.l.l.l.l.",
"l.l.k.i.i.i.w.w.w.i.w.i.k.j.l.l.l.l.l.l.~ T T T T T T T T T s.j.l.l.l.l.l.l.l.l.l.l.l.l.l.l.l.l.l.l.",
"l.l.a.t.i.w.w.i.i.w.i.i.f.j.l.l.l.l.l.l.W T T T T T T T T T h.z.l.l.l.l.l.l.l.l.l.l.l.l.l.l.l.l.l.l."
};
