/* XPM */
static char *result[] = {
/* columns rows colors chars-per-pixel */
"50 50 122 2 ",
"   c #2B1C2A",
".  c #311C30",
"X  c #3A1D39",
"o  c #2D202D",
"O  c #352935",
"+  c #392739",
"@  c #441D43",
"#  c #481E46",
"$  c #4D1D4B",
"%  c #521D4B",
"&  c #5B1D4B",
"*  c #4C1C51",
"=  c #651C4C",
"-  c #6C1C4D",
";  c #761C4D",
":  c #7A1D4D",
">  c #4F204D",
",  c #52224E",
"<  c #5D204A",
"1  c #4D324B",
"2  c #542451",
"3  c #572A54",
"4  c #5A2C55",
"5  c #5A2E58",
"6  c #5E345B",
"7  c #6E2246",
"8  c #612049",
"9  c #6E2249",
"0  c #742448",
"q  c #792448",
"w  c #792C4E",
"e  c #612C55",
"r  c #60375D",
"t  c #693559",
"y  c #61385E",
"u  c #643D63",
"i  c #663F68",
"p  c #51484F",
"a  c #534B51",
"s  c #674165",
"d  c #684164",
"f  c #6F4C69",
"g  c #7B4662",
"h  c #73516E",
"j  c #775575",
"k  c #785374",
"l  c #7C5C7E",
"z  c #7F617C",
"x  c #821E4B",
"c  c #812647",
"v  c #8F2845",
"b  c #84204A",
"n  c #8C2249",
"m  c #832D4E",
"M  c #942547",
"N  c #9A2746",
"B  c #942946",
"V  c #9C2946",
"C  c #942548",
"Z  c #922E4A",
"A  c #94304C",
"S  c #A52B44",
"D  c #AC2C43",
"F  c #824263",
"G  c #864D68",
"H  c #805F78",
"J  c #916074",
"K  c #876C81",
"L  c #896F8B",
"P  c #8D7589",
"I  c #8F7889",
"U  c #917C8A",
"Y  c #898883",
"T  c #95808E",
"R  c #9C8591",
"E  c #9D8A96",
"W  c #9B819A",
"Q  c #A1919B",
"!  c #A9959D",
"~  c #9F8CA2",
"^  c #A08BA3",
"/  c #AC9DA3",
"(  c #B2A3A7",
")  c #B7A8A9",
"_  c #BBB3B2",
"`  c #BBB1BD",
"'  c #C1B8B7",
"]  c #C4BFBB",
"[  c #C6C1BB",
"{  c #C6CABC",
"}  c #C7C1C6",
"|  c #CDCAC6",
" . c #C8C2CE",
".. c #CFCDC9",
"X. c #D1CFC6",
"o. c #D1D6C7",
"O. c #D1D8C7",
"+. c #D6D7CB",
"@. c #DADCCF",
"#. c #CFCBD6",
"$. c #D0CCD7",
"%. c #DCDFD0",
"&. c #D6D5DD",
"*. c #DBDBDF",
"=. c #DEE1D2",
"-. c #E0E3D4",
";. c #E1E5DC",
":. c #E6EDDA",
">. c #E9EFDE",
",. c #E7F0DB",
"<. c #EBF2DF",
"1. c #DEDFE5",
"2. c #DFE0E8",
"3. c #E6E9E6",
"4. c #E0E2E8",
"5. c #E6EAE8",
"6. c #E8EDE8",
"7. c #EEF6E2",
"8. c #EFF8E4",
"9. c #EDF4E8",
"0. c #F3FCE6",
"q. c #F5FFE8",
/* pixels */
"q.q.q.q.q.q.q.q.q.q.q.,.Y O     . # % % & & & = = ; : : : : ; ; : x M M M S D D S - # % 5 ~ 1.9.0.q.",
"q.q.q.q.q.q.q.q.q.q.q.:.Y O     X # $ $ & - ; ; ; ; ; ; : : ; : x N S S S S D D S ; % # 5 ^ &.6.q.q.",
"q.q.q.q.q.q.q.q.q.q.q.:.Y O     X # $ $ & - ; ; ; ; ; ; : : ; : x S D D D D D D S 7 % % 5 ^ =.9.q.q.",
"q.q.q.q.q.q.q.q.q.q.q.,.Y O     X # $ $ & ; ; ; ; ; ; ; : ; ; ; : S S D D D D D S ; % # 5 / 9.q.q.q.",
"q.q.q.q.q.q.q.q.q.q.q.,.Y O     X # $ $ % - - - - ; : : : ; : : x M N N V S D D S 7 % $ 5 / <.q.q.q.",
"q.q.q.q.q.q.q.q.q.q.q.:.Y o     X $ $ $ $ $ % % * ; : : ; ; ; ; ; ; : : x S S D S 7 % $ 5 / <.q.q.q.",
"q.q.q.q.q.q.q.q.q.q.0.,.Y O     X # % $ $ $ $ $ & ; ; : : ; ; ; : ; ; : : V S D S 9 % $ 5 / <.q.q.q.",
"q.q.q.q.q.q.q.q.q.q.q.,.Y O     X # $ $ $ $ $ $ * ; ; ; ; ; ; ; ; ; ; : : V D D S 7 $ $ 5 / <.q.q.q.",
"q.q.q.q.q.q.q.q.q.q.q.,.Y O     X # $ $ * $ $ $ & - - - - - - - - - - - ; N D D S 9 $ $ 5 / <.q.q.q.",
"q.q.q.q.q.q.q.q.q.q.q.<.Y O     X $ $ $ % $ $ $ * * % % % % % % % % % % & C D D S 9 % $ 5 / <.q.q.q.",
"q.q.q.q.q.q.q.0.q.q.q.,.Y O     X # $ $ * $ $ $ % $ $ $ $ $ * % $ $ % % & v S D S 7 % $ 5 / <.q.q.q.",
"q.0.0.q.0.0.0.0.0.0.0.:.Y O     X $ $ $ * % $ $ * $ $ $ $ $ * % $ $ $ # % v S D S 9 % $ 5 / <.q.q.q.",
"o.o.O.O.O.o.O.O.{ @.{ { J O . . X # $ * $ $ $ $ * % % % & & % % % % % % & c V V B 9 $ $ 6 / <.q.q.q.",
"a a a a a a a p a a a p 1 1 @ @ # $ $ % % $ $ $ & - ; - - - - ; - ; ; - - = < < < % $ $ 4 / <.0.q.q.",
"o o o   o o o o o o o o + # $ $ $ $ $ $ $ $ * $ % ; ; ; : ; ; ; ; ; ; ; ; & $ $ $ $ $ $ 5 / 6.0.q.q.",
"                o       X > $ % $ $ $ $ $ $ $ % % ; ; : : ; ; ; : ; ; ; ; & $ $ $ $ $ $ 5 Q *.3.5.5.",
"  .                     X $ $ $ $ $ $ $ * * % % & ; ; : : ; : ; : : : : : = % & & & & % e W  .#.$.1.",
"@ @ @ @ @ @ @ @ @ @ @ @ # $ $ $ $ $ $ $ & - - - - ; ; : ; : : ; : C S N N N N N B B B v A F k j l ^ ",
"$ $ $ # $ $ $ $ $ $ $ $ $ $ $ $ $ $ $ % & - ; ; ; ; : : : ; : ; : S D D D D S D D S D D S q , , 5 L ",
"$ $ $ $ $ $ $ $ $ $ $ $ $ $ $ $ $ $ $ $ = - ; : ; ; ; ; ; : ; ; x S D D D D D D D D D D S 0 , $ 3 L ",
"% % $ % $ $ $ $ * $ $ $ * * % % % % % % & - : ; : : ; ; : : : x x S S D S D D D D D D D D q % $ 3 L ",
"= - - = & * $ $ % $ $ $ & - ; - - - - - - : ; ; : : ; ; x C N N N x x x x S D D D D D D S 0 % % 3 L ",
"; ; ; ; & % $ $ $ $ $ % = - ; ; ; ; ; : ; ; : : : : ; ; x S D D S x : : x S D D D D D D S 0 % # 5 P ",
"- ; ; ; & * $ $ $ $ $ $ = ; ; : ; ; : : : ; : ; ; ; ; : x S D D S x : : : N D D D D D D S q > % 5 P ",
"; ; ; ; = % % % $ $ $ $ = ; ; : : : : ; ; ; ; : : : : : x S D S S x x : x N D D D D D D S 0 % $ 5 P ",
"; ; ; ; - = = = & * $ % = ; ; : : : ; : ; ; : ; x n C C C n n n x M N M N S D D D D D D S 0 % $ 5 P ",
"; ; ; ; ; ; - ; & % $ % = : : : : : ; : : : ; : x S D D N x : : x V S D S D D D D D D D S q % $ 3 I ",
"; ; ; ; ; ; ; ; & $ $ $ = - ; ; ; ; : ; ; ; : : x S D D N x : : x S D D D D D D D D D D S 0 % $ 4 I ",
": : : : ; ; ; ; & % $ % - x : x : : ; : : : : : x S D D S x : : x S S D D D S D D D S S S w 4 4 u T ",
"x M n n x ; ; ; & % $ % ; x n n x : ; ; x n n M n M n C C n n C N D D D D D D D D B c c m J R E Q _ ",
"D S D S x : ; ; = $ # % : S S S C : : ; x S S D N x : : x N D D D D D D D D D D S 0 & , 5 ! -.>.>.7.",
"S D D D x : ; ; & % $ % c S D D C : ; : x D D D N x : : x D D D D D D D D D D D S 7 & # 4 / <.q.q.q.",
"S D D S x x : : = % % % c S D D C : : : n S D S S x : : x D D D D D D D D D D D D 9 % $ 4 / <.0.q.q.",
"D D D D M x x x = % # % c S D D N n n n n C N N C b n b N D D D D D D D D D D D S 9 % $ 5 / <.q.q.q.",
"D D D D D S D S ; % # % c D D D D S D D N x : : x S S S D D D D D D D D D D D D S 9 , $ 4 / <.q.q.q.",
"D D D D D D D D 7 % % % c S D D D D D D N x : ; x D D D D D D D D D D D D D D D S 7 , $ 5 / <.q.q.q.",
"D D D D D D D D 0 % # % c S D D D D D D N : : : x S D D D D D D D D D D D D D S S 0 2 2 r / 7.q.q.q.",
"D D D D D D D D 7 % % & c S D D D D D D S n n A n S D D D D D D D D D D D D C C Z G H H K ' 7.q.q.q.",
"D D D D D D D D 0 % # % c S D D D D D D D S D D D D D D D D D D D D D D D 9 2 & 6 ( %.:.:.<.0.q.q.q.",
"D D D D D D D D 0 > % % c D D D D D D D D D D D D D D D D D D D D D D D S - * * 5 _ 7.q.q.q.q.q.q.q.",
"D D D D D D S S 0 % % % c D D D D D D D D D D D D D D D D D D D S D D D V 9 < , 6 _ <.q.q.q.q.q.q.q.",
"B V B B B B V v 7 % # % c S D D D D D D D D D D D D D D S N B N B V B B A g h h l [ 7.q.q.q.0.q.q.q.",
"< < < & < < < < # $ $ , c S D D D D D D D D D D D D D D V 8 & & < & < < t ) +.@.%.,.q.q.q.q.q.q.q.q.",
"$ # $ % # $ $ $ % $ $ % c D D D D D D D D D D D D D D D B & * * $ $ $ $ 6 [ 7.q.0.q.q.q.q.q.q.q.q.q.",
", > $ > > > > > $ $ > % c S D D D D D D D D D D D D D S V 2 * * * $ $ > r ] 7.q.q.q.q.q.q.q.q.q.q.q.",
"d d d d d d s y 3 $ $ % q V V V V V V S V V V V S S V V A d i i i s d d k | 7.q.q.q.q.q.q.q.q.q.q.q.",
"X.X.o.X.X.| } ` z 2 $ $ & 8 8 8 8 8 8 8 8 8 = < 8 8 8 e g _ | | | | | | ..>.9.9.9.0.0.9.0.8.0.8.9.q.",
"0.0.0.0.0.0.8.;.I 3 $ $ # % % # $ % $ $ % % % $ $ % % % f =.8.6.1.1.1.1.2.4.4.4.4.4.4.4.4.4.4.4.4.4.",
"0.q.q.q.q.q.q.:.U , , $ $ $ $ $ $ $ $ $ $ $ $ $ $ $ $ > f =.0.6.1.1.2.2.2.2.2.2.2.2.2.2.2.2.2.2.2.4.",
"q.q.q.q.q.q.q.:.U 3 $ % $ $ $ $ > $ $ $ > $ $ $ $ > $ > f =.0.6.4.2.2.2.2.2.2.2.2.2.2.2.2.2.2.2.2.2."
};
