/* XPM */
static char *result[] = {
/* columns rows colors chars-per-pixel */
"50 50 84 1 ",
"  c #291C2A",
". c #381D37",
"X c #3D1D3B",
"o c #481D46",
"O c #4E1D4B",
"+ c #521D4B",
"@ c #5A1E4B",
"# c #4C1B50",
"$ c #611F47",
"% c #641C4D",
"& c #6C1C4E",
"* c #761C4D",
"= c #791C4D",
"- c #472A46",
"; c #4F204D",
": c #52224E",
"> c #423841",
", c #522350",
"< c #572C56",
"1 c #592D56",
"2 c #572B5B",
"3 c #5F375A",
"4 c #642149",
"5 c #6A2149",
"6 c #722348",
"7 c #683658",
"8 c #733B5B",
"9 c #7F3D5E",
"0 c #653F61",
"q c #6C486C",
"w c #745270",
"e c #841F4A",
"r c #822647",
"t c #8E2846",
"y c #85214A",
"u c #8D2249",
"i c #962647",
"p c #992747",
"a c #952A45",
"s c #9D2A46",
"d c #942548",
"f c #982648",
"g c #9B2949",
"h c #A32B45",
"j c #AC2D43",
"k c #814663",
"l c #926276",
"z c #837E7E",
"x c #8C7686",
"c c #8F7892",
"v c #947E92",
"b c #878681",
"n c #888781",
"m c #998592",
"M c #9C8995",
"N c #9F8DA2",
"B c #A28FA7",
"V c #A694A7",
"C c #A897A7",
"Z c #AFA2A7",
"A c #B0A2A7",
"S c #B0A2A8",
"D c #BEB5B5",
"F c #C2BDB9",
"G c #C9C5BF",
"H c #D0CFC6",
"J c #D2D2C7",
"K c #D1CED4",
"L c #DCDFD3",
"P c #DFE2D4",
"I c #E3EBD7",
"U c #E3EBD8",
"Y c #E9F0DD",
"T c #DDDDE6",
"R c #DEDFE8",
"E c #DFE0E8",
"W c #E2E5E7",
"Q c #E2E3E9",
"! c #E5E9E9",
"~ c #E8EDE8",
"^ c #EDF5E4",
"/ c #EDF4E8",
"( c #F3FDE7",
") c #F5FFE8",
/* pixels */
"QREEEEEEQEEEEERQRQ~)(3OOOOOOOOOOOOOOOOOOOx(())))))",
"QREEEEEERREEEERRRR~)^3OOOOOOOOOOOOOOOOOOOx(())))))",
"ERRRRRRRTRTTETRRRR~)^3OOOOOOo+O+OO++OOOO#x()))))))",
"(((//(((((((^LLLLLLPL7@@@@@@@:@@@@@:@+OOolKKPPPPPP",
"))))))))))))J111<2222hjjjhjjjjhjjjjhjrOOO,<<<11111",
")))))))))))(J:;OO####hjjjjjjjjjjjjjjj6OOOOOO;OOO+O",
"))))))))())(H:OOO####hjjjjjjjjjjjjjjjrOOOOOOOOOOOo",
"))))))))(YYYG:;:++##+hjjjjjjjjjjjjjjjrOo#;O;O+;++@",
"))))))))G0008hhhhshhhjjjjjjjjjjjjjjjjrOO+$hhhhhjhh",
"))))))))FOOO:jjjjjjjjjjjjjjjjjjjjjjjjrOO+*jjjjjjjj",
")))))))(DOOO4jjjjjjjjjjjjjjjjjjjjjjjjr+OO&jjjjjjjj",
")))))()(DOOO4jjjjjjjjjjjjjjjjjjjjjjjjrOOo6jjjjjjjj",
"))))Fwwwkgaahjjjjjjjjjjjje=euhjjjjjjjrOO+6jjjjjjjj",
"))))S#O+5jjjjjjjjjjjjjjjj====hjjjjjjjrOOo6jjjjjjjj",
"))))SOOO5jjjjjjjjjjjjjjjje=*=gjjjjjjjroO+6jjjjjjjj",
"))))S+OO5jjjjjjjjjjjjjjjje*==gjjjjjjjrOOO6jjjjjjjj",
")))(Z+OO*jjjjjjjjjjjjeeeegphpeeeesjjjrOOO%eeedjjjj",
")))(ZOOO&jjjjjjjjjjjje===hjjje=e=djjjroOO@===ejjjj",
")))(AOOO&jjjjjjjjjjjj=**=hjjje===djjjrOO+@===ejjjh",
"))((Z+O+5jjjjjjjjjjjj==*=hjjje===fjjjrOOO@==*ejjjh",
"FMMMlrrrtjjjjjjjjfududddiduuu===*eduu&OOO@**==uudy",
"m+;;6jjjjjjjjjjjh=*==hjjj6======*=***%OOO%=*==**==",
"m;OO6jjjjjjjjjjjh==*=hjjje****==**=*=%OOO@=*==*===",
"mOOO6jjjjjjjjjjjhe===jjjj=**=====*===%OOO@===***==",
"m;OO6jjjjjjjjhdfseueefffp==***===*=*=%OO#@&%%&*=**",
"m;OO6jjjjjjjh**=ejjjj=*===**==6*===*=%OOOo#OO@**=&",
"m+#O6jjjjjjjh==*=jjjje*====**====*===%OOOOOO+@*=**",
"mO;O6jjjjjjjg=*==jjjj=*======*===*===%OOOOOO++*=**",
"v:OO6jjjjjjjheeeeghss==*===**&&&&&*&&$OoOOOOO+&&&&",
"cOOO6jjjjjjjjjjjj=*=**===*=**@+#OOo#OOOOO+OOOOOOOo",
"cOOO*jjjjjjjjjjjh===*******=*@OOOOOOOOOOOOOOOOOOOO",
"c:O+6jjjjjjjjjjjh=**====****=@OOOOOOOOOOOOOOOOOoOO",
"Nqqq9gssssasshhhp======*=**&*+OOOOOOOOoooooooooooo",
"TTTTB+;OO;OO@****=====*=*+OOOOOOOOOOOX            ",
"!!WWVOOOOOOO+=*==******==+OO+OOOOOOOOX            ",
")(((S;OOOOOO+==*********=+OOOOOOOOOOOX            ",
")))(SOOOo@++$*******&*&**+OOOOOOOOOOo->>>>>>>>>>>>",
")))(S+OO5hhhd+OOO+OO+++++#OOOOOOO.   zUUUUUUUUUUII",
")))(SOOO&jjjaOOOOOOOOOOOOo#O+OOOO.   b))))))))(())",
"))))SOOO5jjjaOOOOOOOO+O+OO+OOOOOO.   b))))))))))))",
")))(AOOO5jjjaoO+OOOOOO#+OOOOOOOO+.   n))))))))))))",
")))(A+OO5jjjh6&*&**&&&&&&+OOOOOOO.   n))))))))))))",
")))(AOOO5jjjh*===**===**=+OOOOOOO.   n()))))))))))",
")))(S+OO5jjjs****=**===*=+OOOOOOO.   n))))))))))))",
")))(A+OO$jjjh***==*==*=*=+#OOOOOO.   n()))))))))))",
")))(AOOO&jjjhhshp=**===*=&&&&+OOO.   n()))))))))))",
")))(AO+o5jjjjjjjj=***==***===@OOO.   n))))))))))))",
"))(!COO+5jjjjjjjh=**====*=*=*@OOO.   n))))))))))))",
"))/RB;OO5jjjjjjjh==*=*=***===@OOO.   n()))))))))))",
"))/RB#OO5jjjhuuue======**%@@@#+#O.   z()))))))))))"
};
