/* XPM */
static char *result[] = {
/* columns rows colors chars-per-pixel */
"50 50 120 2 ",
"   c #2B1C2A",
".  c #311C30",
"X  c #3A1D39",
"o  c #2D202D",
"O  c #352935",
"+  c #441D43",
"@  c #481E46",
"#  c #4D1D4B",
"$  c #521D4B",
"%  c #5B1D4B",
"&  c #4C1C51",
"*  c #651C4C",
"=  c #6C1C4D",
"-  c #761C4D",
";  c #7A1D4D",
":  c #4F204D",
">  c #52224E",
",  c #5D204A",
"<  c #4D324B",
"1  c #542451",
"2  c #572A54",
"3  c #5A2C55",
"4  c #5A2E58",
"5  c #5E345B",
"6  c #6E2246",
"7  c #612049",
"8  c #6E2249",
"9  c #7E2547",
"0  c #742448",
"q  c #792448",
"w  c #792C4E",
"e  c #612C55",
"r  c #623157",
"t  c #693559",
"y  c #61385E",
"u  c #643D63",
"i  c #663F68",
"p  c #51484F",
"a  c #534B51",
"s  c #674165",
"d  c #684164",
"f  c #6F4C69",
"g  c #7B4662",
"h  c #73516E",
"j  c #775575",
"k  c #785374",
"l  c #7C5C7E",
"z  c #7D6077",
"x  c #7D7578",
"c  c #821E4B",
"v  c #812647",
"b  c #8F2845",
"n  c #84204A",
"m  c #8C2249",
"M  c #832D4E",
"N  c #942547",
"B  c #9A2746",
"V  c #942946",
"C  c #9C2946",
"Z  c #942548",
"A  c #922E4A",
"S  c #94304C",
"D  c #A52B44",
"F  c #AC2C43",
"G  c #824263",
"H  c #864D68",
"J  c #805F78",
"K  c #916074",
"L  c #876C81",
"P  c #876E89",
"I  c #896F8B",
"U  c #8D7589",
"Y  c #8F7889",
"T  c #917C8A",
"R  c #898883",
"E  c #9C8591",
"W  c #9D8A96",
"Q  c #9B819A",
"!  c #A9959D",
"~  c #9F8CA2",
"^  c #A08BA3",
"/  c #A491A3",
"(  c #AC9DA3",
")  c #B2A3A7",
"_  c #B7A8A9",
"`  c #BBB3B2",
"'  c #BBB1BD",
"]  c #C1B8B7",
"[  c #C6C1BB",
"{  c #C6CABC",
"}  c #C7C1C6",
"|  c #CDCAC6",
" . c #C8C2CE",
".. c #CFCDC9",
"X. c #D1CFC6",
"o. c #D1D6C7",
"O. c #D1D8C7",
"+. c #D6D7CB",
"@. c #DADCCF",
"#. c #CFCBD6",
"$. c #D0CCD7",
"%. c #DCDFD0",
"&. c #D6D5DD",
"*. c #DBDBDF",
"=. c #DEE1D2",
"-. c #E0E3D4",
";. c #E6EDDA",
":. c #E9EFDE",
">. c #E7F0DB",
",. c #EBF2DF",
"<. c #DEDFE5",
"1. c #DFE0E8",
"2. c #E6E9E6",
"3. c #E0E2E8",
"4. c #E6EAE8",
"5. c #E8EDE8",
"6. c #EEF6E2",
"7. c #EDF4E8",
"8. c #F3FCE6",
"9. c #F5FFE8",
/* pixels */
"9.9.8.X.u > # % V F F F F F F F F F F D c c ; - - - - = * @ $ @ +     o p O.8.9.9.9.9.9.9.9.9.9.9.9.",
"9.9.8.X.d $ # % V F F F F F F F F F F D N ; ; - - - - - = $ $ @ +     o p O.8.9.9.9.9.9.9.9.9.9.9.9.",
"9.9.8.X.d : # , C F F F F F F F F F F F N ; - - - - - - = $ # # :     o p O.8.9.9.9.9.9.9.9.9.9.9.9.",
"9.9.8.o.d # # , D F F F F F F F F D D D c - - - - - - - * $ # # +     o a O.8.8.9.9.9.9.9.9.9.9.9.9.",
"8.8.8.o.d : # , V F F F F F F F N m c m c - - - = % % % $ # # # +     o a o.8.9.9.9.9.9.9.9.9.9.9.9.",
"9.8.8...d : @ % V F F F F F F D n ; ; - - ; - - = $ # # # # # # +     o a o.9.9.9.9.9.9.9.9.9.9.9.9.",
"9.9.8.} u : # , V F F F F F F D m ; - - ; - - - * # # # # # # # + .   o a O.8.9.9.9.9.9.9.9.9.9.9.9.",
":.:.-.' u # # % V D D D D F D D n - - - - - - - * $ # $ # # # @ +     o a o.8.9.9.9.9.9.9.9.9.9.9.9.",
"T T T J 3 # # $ 8 0 0 0 0 0 0 6 * % % % % % % % $ $ # # # # # # +     o a O.8.9.9.9.8.9.9.9.9.9.9.9.",
"> 2 2 1 # @ # # # $ > # $ > $ $ $ $ $ $ $ $ $ # # # # # # # # # @     o a O.8.9.9.9.9.9.9.9.9.9.9.9.",
"# # # # # : $ @ # # @ # # # @ @ # # # # & # # # # # # & # # # # +       p O.8.8.9.9.8.9.9.9.8.9.9.9.",
"# # # # $ $ $ > $ $ $ $ $ $ % > $ $ $ $ $ $ $ $ $ # # $ # # # # @     . p { ;.>.>.:.;.>.>.;.;.;.>.>.",
"# # # % q 9 v v v v v 9 v v 9 v c v v v - * * * * * * * % # # # @ X X X < x R R R R R R R R R R R R ",
"# # # 7 C D D F D F F F F D F D D D D D m - - - - - - - = # # # # @ # # + O O O O O O O O . O O O O ",
"# # # 7 C F F F F F F F F F F F F F F D Z ; - - - - - - = $ # # # # # # @ .                         ",
"# # # * C F F F F F F F F F F F F D F D m ; - - - - - - = $ # # $ # # @ @ .                         ",
"# $ & 7 F F F F F F F F F F F D B N N N c ; ; - - ; - - = $ # # # & # # @ X X X X X X X X X X X X X ",
"# & $ 7 C F F F F F F F F F F D m c ; ; ; - ; - - ; ; - = $ # # # $ # # # # @ # @ # @ @ @ # @ # # @ ",
"$ # & 7 D F F F F F F F F F F D c ; ; ; ; - - - ; ; ; ; = $ # # # # # # # # # # # # # # # # # # # # ",
"# # & = S F F F F F F F F F F D c ; ; ; ; - - - ; ; - - = $ # # # # # # # # # # # # # # # # # # # # ",
"& # # 7 C F F F F F F F D B D B N m m c c ; ; - ; ; - - = % % % $ $ # # # $ # # # # # # # $ $ % % $ ",
": # # 7 C F F F F F F F c ; ; c B D D D m ; - ; ; - ; - - - - - = $ # # # # # # $ & # # $ = - - - % ",
"# # $ 7 D F F F F F F F c c - ; B F F F m c ; - ; ; ; - - - - - = $ # # & # # # # # # # # = - - - * ",
"# # # * F F F F F F F F c ; - ; B D F D m ; ; - - ; - - - - - - = $ # # # # # # # # # # $ = - - - % ",
": # # * C F F F F F F F c c c c Z B D B Z c c c ; ; - ; ; ; ; - = % % % & & # # $ & % & % = - ; - * ",
"# # # 7 C F F F F F F F F F D D c c ; c Z D D D Z ; - ; ; ; - - - - - = = % # # $ = - - - - - - - - ",
"# # # 7 C F F F F F F F F F F F Z ; - ; Z D F D Z c - - - ; ; - - ; - - - $ & # & - - - - - - ; - - ",
": : > 7 D F F F F F F F F F F F c ; ; ; Z D F F Z ; - - ; - - ; - ; ; - = $ # $ $ = - ; - ; - ; - - ",
"f f f g S V V C F F F F F F F F N c c c m D D B Z c c c ; ; - ; - ; - - - $ # # $ = ; ; - ; - ; - - ",
"=.=.%.] d , % 7 B F F F F F F F F D D D m c c c m B D D Z ; ; ; ; ; ; - = $ # # & = - ; ; ; ; - - - ",
"8.8.7...i & & % B F F F F F F F F F F D Z c - ; m F F F B ; - ; ; - - - - $ # # $ = - - ; - ; ; ; - ",
"5.5.4...i & & % D F F F F F F F F F F F m ; - ; m F F F B ; ; - - - - - - $ $ & $ = - - - - ; ; - - ",
"3.3.<.| s & & % V F F F F F F F F F F F D m ; c m D D D B c c c ; - - - - $ @ # $ = - ; - ; c c c ; ",
"1.1.<.| d # # % V F F F F F F F F F F F D D D C N c c c c D D B B - ; - - $ # # $ = - - ; Z B D D c ",
"<.<.<.| d # # , V F F F F F F F F F F F F F F F N ; - ; c F F F D ; ; - = $ @ $ $ = ; - c B F D D m ",
"1.<.<.| d : # , V F F F F F F F F F F F F F F F B ; - ; c F D F B c - - - $ $ @ $ = - ; ; C D F F m ",
"1.1.1...j y y t S C D D F F F F F F F F F F F F B ; ; c c F F D B ; - - = % $ $ % - ; c c B F F F m ",
"1.1.3.2.| [ [ _ g 8 8 6 D F F F F F F F F F F F F C B C D F F F B * % % * v b b N B B B B F F F F D ",
"1.1.3.7.6.8.,.+.h > $ $ V F F F F F F F F F F F F F F F F F F F N % # # % C F F D F D F F F F F F F ",
"1.1.3.7.8.8.8.@.h > # $ V F F F F F F F F F F F F F F F F F F F N % # # % C F F F F F F F F F F F F ",
"1.3.3.7.9.9.8.=.z 5 3 r A D D D D D D D D F F F F F F F F F F F V % # # , V D D D D D D D D D D D D ",
"1.3.3.8.8.9.8.,.[ ` ` ) H 0 8 8 0 6 8 0 b D F F F F F F F F F F V $ # # $ 7 6 6 6 = 0 6 6 6 8 8 = = ",
"1.1.3.7.9.9.9.8.6.6.6.-.J > : # $ # $ % v D F F F F F F F F F F V % # # $ $ $ # $ $ $ $ $ $ # $ $ $ ",
"1.1.3.8.9.9.9.9.8.8.8.;.J 1 # # # # # > v D F F F F F F F F F D V $ # # # # # # @ $ @ # # # # # & & ",
"1.1.3.7.9.9.9.9.9.9.9.;.L 5 4 5 4 4 4 e M D D D F D D D D D D D A e 4 4 2 4 4 4 4 4 4 4 5 4 4 4 2 2 ",
"1.1.3.8.9.9.9.9.9.9.9.6.] ) ( ( ( ( ( ! K w 0 0 w q 0 q 0 0 q q G Q ^ ( ( ( ( ( ( ( ( ( ( ( ( / ~ ~ ",
"1.1.3.7.9.8.9.9.9.9.9.8.6.6.>.6.,.,.,.-.E 3 $ > $ $ $ $ $ $ $ 1 k  .*.,.6.6.6.6.,.,.6.6.6.5.:.=.<.<.",
"1.1.3.8.9.9.9.9.9.9.9.9.8.9.8.8.9.8.8.:.W 3 # # # # # # # $ $ & j #.2.9.9.8.8.9.8.8.9.8.8.9.9.7.7.7.",
"1.1.1.7.9.9.9.9.9.9.9.9.9.9.9.9.9.9.9.5.! u 2 2 2 4 2 2 2 2 2 4 l $.4.8.9.9.9.9.9.9.9.9.9.9.9.9.9.9.",
"3.3.4.7.9.9.9.9.9.9.9.9.9.9.9.9.9.9.9.8.] T Y Y Y Y T Y U P P I ~ &.4.8.9.9.9.9.9.9.9.9.9.9.9.9.9.9."
};
