/* XPM */
static char *result[] = {
/* columns rows colors chars-per-pixel */
"50 50 237 2 ",
"   c #E0E1E9",
".  c #DFE0E8",
"X  c #E8EDE8",
"o  c #F4FEE8",
"O  c #F5FFE8",
"+  c #DEDFE8",
"@  c #C1B9BD",
"#  c #B3A9AE",
"$  c #B4ACAE",
"%  c #B5ACAE",
"&  c #B4ABAE",
"*  c #B4ABAD",
"=  c #B5ACAD",
"-  c #B6AEAD",
";  c #AEA2AD",
":  c #AB9DAD",
">  c #ACA0AD",
",  c #734E6E",
"<  c #4E1D4C",
"1  c #4F1E4D",
"2  c #4F1F4D",
"3  c #745070",
"4  c #4D1D4C",
"5  c #75506F",
"6  c #4F1D4B",
"7  c #B25B6A",
"8  c #9E2B45",
"9  c #BD5C69",
"0  c #AC2D43",
"q  c #AD2C43",
"w  c #BD5D6A",
"e  c #AD2D44",
"r  c #AC2C43",
"t  c #AC2D44",
"y  c #AD2C44",
"u  c #AD2D43",
"i  c #AC2C44",
"p  c #AD2D42",
"a  c #AC2E42",
"s  c #AB2D44",
"d  c #AC2D45",
"f  c #AD2E43",
"g  c #AC2E44",
"h  c #AD2C42",
"j  c #AB2D43",
"k  c #AC2D42",
"l  c #AD2D45",
"z  c #AC2C42",
"x  c #AB2D45",
"c  c #9A2747",
"v  c #821E4C",
"b  c #821F4B",
"n  c #831F4A",
"m  c #A52B45",
"M  c #9C2946",
"N  c #821F4A",
"B  c #811F4B",
"V  c #A22A47",
"C  c #9F2946",
"Z  c #811F4C",
"A  c #831E49",
"S  c #A22A46",
"D  c #A12A45",
"F  c #821E4B",
"G  c #A02A47",
"H  c #A32A47",
"J  c #821E4A",
"K  c #811E4A",
"L  c #A42A47",
"P  c #972648",
"I  c #781C4E",
"U  c #771B4E",
"Y  c #781D4D",
"T  c #A32B45",
"R  c #992847",
"E  c #781C4D",
"W  c #771C4E",
"Q  c #791C4D",
"!  c #A12A46",
"~  c #9C2846",
"^  c #A02946",
"/  c #AB2C43",
"(  c #9F2846",
")  c #781B4E",
"_  c #9E2947",
"`  c #AB2D42",
"'  c #771C4D",
"]  c #761B4F",
"[  c #9D2846",
"{  c #AB2E43",
"}  c #A32A46",
"|  c #972748",
" . c #781D4C",
".. c #992748",
"X. c #781B4D",
"o. c #9B2847",
"O. c #9F2A46",
"+. c #9E2948",
"@. c #A02B46",
"#. c #771C4C",
"$. c #761B4E",
"%. c #9D2746",
"&. c #A02A46",
"*. c #9B2848",
"=. c #781B4C",
"-. c #AB2C44",
";. c #9F2847",
":. c #9D2947",
">. c #771B4D",
",. c #771D4D",
"<. c #751B4E",
"1. c #9D2847",
"2. c #B35A6A",
"3. c #9F2945",
"4. c #90244A",
"5. c #791C4C",
"6. c #9E2A46",
"7. c #912549",
"8. c #A02845",
"9. c #A02945",
"0. c #932549",
"q. c #962648",
"w. c #962548",
"e. c #771C4F",
"r. c #952648",
"t. c #972649",
"y. c #942648",
"u. c #935071",
"i. c #761C4D",
"p. c #761B4D",
"a. c #761C4E",
"s. c #771D4E",
"d. c #771A4E",
"f. c #945071",
"g. c #781D4E",
"h. c #791B4E",
"j. c #781B4F",
"k. c #6A1D4E",
"l. c #571C4C",
"z. c #581B4E",
"x. c #581C4C",
"c. c #591C4B",
"v. c #731B4D",
"b. c #6B1D4C",
"n. c #591B4C",
"m. c #5A1B4C",
"M. c #711C4D",
"N. c #6D1D4E",
"B. c #581C4A",
"V. c #701C4E",
"C. c #761D4D",
"Z. c #701C4F",
"A. c #581C4B",
"S. c #591C4A",
"D. c #6D1D4D",
"F. c #711C4E",
"G. c #6E1D4C",
"H. c #731B4F",
"J. c #671D4D",
"K. c #4D1C4B",
"L. c #4E1C4B",
"P. c #4D1D4B",
"I. c #711D4E",
"U. c #691C4D",
"Y. c #4E1D4B",
"T. c #6E1D4E",
"R. c #6A1C4E",
"E. c #6E1D4D",
"W. c #6D1C4D",
"Q. c #6C1C4E",
"!. c #4D1C4C",
"~. c #6B1D4D",
"^. c #914C71",
"/. c #661D4D",
"(. c #4F1D4C",
"). c #681D4D",
"_. c #6A1C4D",
"`. c #904971",
"'. c #671D4C",
"]. c #691D4D",
"[. c #4C1D4B",
"{. c #6E1C4D",
"}. c #6B1C4D",
"|. c #4E1D4A",
" X c #4D1E4A",
".X c #6E1C4E",
"XX c #6D1C4E",
"oX c #6F1C4D",
"OX c #4D1D4A",
"+X c #6B1C4E",
"@X c #8A4971",
"#X c #701C4D",
"$X c #621D4D",
"%X c #501D4B",
"&X c #681D4F",
"*X c #631C4D",
"=X c #4C1D4C",
"-X c #4F1C4B",
";X c #681D4E",
":X c #651D4D",
">X c #671D4E",
",X c #701C4C",
"<X c #661D4E",
"1X c #6F1D4D",
"2X c #671E4F",
"3X c #4E1C4C",
"4X c #4B1D4B",
"5X c #661C4D",
"6X c #681E4F",
"7X c #6F496F",
"8X c #4D1C4A",
"9X c #4D1E4B",
"0X c #4C1C4B",
"qX c #4D1B4B",
"wX c #4E1C4A",
"eX c #6F4A6F",
"rX c #704C70",
"tX c #60505C",
"yX c #341C32",
"uX c #585055",
"iX c #2A1C2A",
"pX c #291C2A",
"aX c #595156",
"sX c #2B1D2B",
"dX c #2B1D2A",
"fX c #777373",
"gX c #514A50",
"hX c #514950",
"jX c #EFF7E3",
"kX c #EDF5E0",
"lX c #ECF5E0",
"zX c #F5FFE9",
"xX c #F0F8E8",
"cX c #F2FCE8",
"vX c #EDF4E8",
"bX c #F1FAE8",
"nX c white",
/* pixels */
"  . . . . . . . . . . . . . . . . . X o O O O O O O O O O O O O O O O O O O O O O O O O O O O O O O ",
"  . . . . . . . . . . . . . . . . . X o O O O O O O O O O O O O O O O O O O O O O O O O O O O O O O ",
"  + + + + + + + + + + + + + + + + + X o O O O O O O O O O O O O O O o O O O O O O O O O o O O O O O ",
"@ # $ % & * * * * * * * * * * * * * = - - - - - - - - - - - - - - - ; : : : : : : : : > - - - - - - ",
", < 1 2 2 2 2 2 2 2 2 2 2 2 2 2 2 2 2 2 2 2 2 2 2 2 2 2 2 2 2 2 2 2 1 2 2 2 2 2 2 2 2 2 2 2 2 2 2 2 ",
"3 < < < < < 4 4 < < < < < 4 4 4 4 4 4 4 4 4 4 4 4 4 4 4 4 4 4 4 4 4 4 4 4 4 4 4 4 4 4 4 4 4 4 4 4 4 ",
"3 < < < < < < < < < < < < < < < < < < < < < < < < < < < < < < < < < < < < < < < < < < < < < < < < < ",
"5 6 6 6 6 6 6 6 6 6 6 6 6 6 6 6 6 6 6 6 6 6 6 6 6 6 6 6 6 6 6 6 6 6 6 6 6 6 6 6 6 6 6 6 6 6 6 6 6 6 ",
"7 8 8 8 8 8 8 8 8 8 8 8 8 8 8 8 8 8 8 8 8 8 8 8 8 8 8 8 8 8 8 8 8 8 8 8 8 8 8 8 8 8 8 8 8 8 8 8 8 8 ",
"9 0 0 0 0 0 0 0 0 0 0 0 0 0 0 0 0 0 0 0 0 0 0 0 0 0 0 0 0 0 0 0 0 0 0 0 0 0 0 0 0 0 0 0 0 0 0 0 0 0 ",
"9 q q q q q q q q q q q q q q q q q q q q q q q q q q q q q q q q q q q q q q q q q q q q q q q q q ",
"w e e e e e e e e e e e e e e e e e e e e e e e e e e e e e e e e e e e e e e e e e e e e e e e e e ",
"w e e e e e e e e e e e e e e e e e e e e e e e e e e e e e e e e e e e e e e e e e e e e e e e e e ",
"w e e e e e e e e e e e e e e e e e e e e e e e e e e e e e e e e e e e e e e e e e e e e e e e e e ",
"w e e e e 0 0 e e e r t e t y q e e e e t r e u e e u t e e q t u e i 0 t e e q 0 e e e q t e e t 0 ",
"w e e r r r r r r r r r r r r r r r r r r r r r r r r r r r r r r r r r r r r r r r r r r r r r r r ",
"w e e r p u a u u s s r r s d u u f t 0 r i u g u u t s r 0 r s t u p g h j r t k u u u l i r r z x ",
"w e e 0 c v b b n m q r r M N B b n V r r 0 C Z b b A S s r s D N b F Z G 0 q z H J b B K C r r r L ",
"w e e 0 P I U I Y T s r r R E W I Q ! 0 r 0 ~ W E E E ^ / r s ( ) I E W _ z r ` G ' I I ] [ r r { } ",
"w t t 0 | I ' '  .T r r t ..X.W ' Q ! t r i o.X.' ' X.O.r 0 i +.X.' W E _ t r j @.#.E ' $.%.r r j H ",
"9 r r r P ) ' '  .T j r r ..E ' W Q &.s r r *.X.' ' =.^ / r -.;.X.' ' X.:.r r s &.>.E ,.<.1.r r ` } ",
"2.3.3.3.4.X.W ' 5...6.3.3.7.=.W ' E | 8.3.9.0.W ' ' I q.C 3.C w.' ' ' e.r.9.3.8.t.' E W X.y.3.3._ ..",
"u.i.i.i.>.X.W ' ' U >.i.i.U W ' ' ' U i.i.i.>.' ' ' ' U p.i.i.] ) ' ' W i.a.i.i.U s.' ' W d.i.a.U U ",
"f.' ' ' ' ' ' E W ' ' ' ' ' ' ' E E ' ' ' ' ' ' ' ' E ' ' ' ' ' ' ' ' ' ' ' ' ' ' ' ' ' ' ' ' ' ' ' ",
"f.g.g.' ' ' ' ' ' ' ' ' ' ' ' ' ' ' ' ' ' ' ' W ' ' ' ' W ' ' ' ' ' ' ' ' ,.' ' ' ' ' ' ' ' ' ' ' ' ",
"f.g.g.' E g.Y E E ' ' ' ' E W E I E ' ' ' ' ) I I Y h.X.' ' X.) j.Y E I X.E ' ' ' I I I W W ' ' ' W ",
"f.g.g.' k.l.z.x.c.v.' ' E b.n.x.x.m.M.' ' ' N.c.x.x.B.V.C.' C.Z.A.x.x.S.D.>.' W F.n.x.x.l.G.' ' W H.",
"f.g.g.' J.K.L.P.6 I.>.' ' U.L.4 Y.6 T.W ' ' R.P.P.P.Y.E.W ' W W.L.Y.P.P.Q.' ' ' N.L.Y.< !.~.' ' ) F.",
"^.W W ' /.4 L.P.(.I.' ' ' ).L.4 Y.6 T.W ' ' _.L.P.P.Y.D.I ' U W.L.P.P.Y.D.' ' ' T.L.Y.< P.~.' ' E F.",
"`.X.X.>.'.!.L.P.Y.F.' X.' ].L.[.P.6 {.i.X.>.}.|.P.P. X.X' X.' W.K.P.P.P.XXE X.' oXP.Y.OXK.+X>.X.#.V.",
"@X#X#X#X$XP.OXP.%X&XV.#X#X*X=X4 Y.-X;XoX#XoX:XY.P.P.Y.>XoX#X,X<XL.P.P.K.J.oX#X1X2XP.P.3X4X5X#X#XV.6X",
"7XK.K.K.8XP.OXY.4 K.8XK.K.L.OXP.9XP.K.0XK.K.K.K.P.P.P.K.qXK.K.[.4 P.P.P.K.P.K.[.L. X< P.wXK.K.P.8X0X",
"eXP.P.P.P.P.P.P.P.P.P.P.P.P.P.P.P.P.P.P.P.P.P.P.P.P.P.P.P.P.P.P.P.P.P.P.P.P.P.P.Y.P.9XP.P.P.P.P.P.P.",
"eX9X9X9X9X9X9X9X9X9X9X9X9X9X9X9X9X9X9X9X9X9X9X9X9X9X9X9X9X9X9X9X9X9X9X9X9X9X9X9X9X9X9X9X9X9X9X9X9X9X",
"rX4 4 4 4 4 4 4 4 4 4 4 4 4 4 4 4 4 4 4 4 4 4 4 4 4 4 4 4 4 4 4 4 4 4 4 4 4 4 4 4 4 4 4 4 4 4 4 4 4 ",
"tXyXyXyXyXyXyXyXyXyXyXyXyXyXyXyXyXyXyXyXyXyXyXyXyXyXyXyXyXyXyXyXyXyXyXyXyXyXyXyXyXyXyXyXyXyXyXyXyXyX",
"uXiXiXiXiXiXiXiXiXiXiXiXiXiXiXiXiXiXiXiXiXiXiXiXiXiXiXiXiXiXiXiXiXiXiXiXiXiXiXiXiXiXiXiXiXiXiXiXiXiX",
"uXpXpXpXpXpXpXpXpXpXpXpXpXpXpXpXpXpXpXpXpXpXpXpXpXpXpXpXpXpXpXpXpXpXpXpXpXpXpXpXpXpXpXpXpXpXpXpXpXpX",
"aXsXsXsXsXsXsXdXdXdXdXdXdXdXdXdXdXdXdXdXdXdXdXdXdXdXdXdXdXdXdXdXdXdXdXdXdXdXdXdXdXdXdXdXdXdXdXdXdXdX",
"fXgXhXhXhXgXhXhXhXhXhXhXhXhXhXhXhXhXgXgXhXgXgXgXgXgXgXgXgXgXgXgXgXgXgXgXgXgXgXgXgXgXgXgXgXgXgXgXgXgX",
"jXkXkXlXlXkXlXlXlXlXlXlXlXlXlXlXlXlXlXlXlXlXlXlXlXlXlXlXlXlXlXlXlXlXlXlXlXlXlXlXlXlXlXlXlXlXlXlXlXlX",
"zXO O O O O O O O O O O O O O O O O O O O O O O O O O O O O O O O O O O O O O O O O O O O O O O O O ",
"zXO O O O O O O O O O O O O O O O O O O O O O O O O O O O O O O O O O O O O O O O O O O O O O O O O ",
"zXO O O O O O O O O O O O O O O O O O O O O O O O O O O O O O O O O O O O O O O O O O O O O O O O O ",
"zXO O O O O O O O O O O O O O O O O O O O O O O O O O O O O O O O O O O O O O O O O O O O O O O O O ",
"zXO O O O O O O O O O O O O O O O O O O O O O O O O O O O O O O O O O O O O O O O O O O O O O O O O ",
"zXO o o o o o o o o o o o O O O O O O O O O O O O O O O O O O O O O O O O O O O O O O O O O O O O O ",
"zXO xXX X X X X X X X X cXO O O O O O O O O O O O O O O O O O O O O O O O O O O O O O O O O O O O O ",
"zXO vX. . . . . . . . + bXO O O O O O O O O O O O O O O O O O O O O O O O O O O O O O O O O O O O O ",
"zXO vX. . . . . . . . + bXO O O O O O O O O O O O O O O O O O O O O O O O O O O O O O O O O O O O O "
};
