/* XPM */
static char *result[] = {
/* columns rows colors chars-per-pixel */
"50 50 65 1 ",
"  c #2A1C2B",
". c #361C34",
"X c #2F222F",
"o c #312230",
"O c #352935",
"+ c #3B2239",
"@ c #4D1D4B",
"# c #511C4B",
"$ c #5A1D4B",
"% c #641D4D",
"& c #6B1C4D",
"* c #761C4D",
"= c #7B1D4C",
"- c #4E234D",
"; c #52224F",
": c #5D254F",
"> c #532350",
", c #5A2F59",
"< c #5B3159",
"1 c #6F2151",
"2 c #7B2352",
"3 c #52494F",
"4 c #554C52",
"5 c #5B4958",
"6 c #605A5D",
"7 c #6B446A",
"8 c #6F496B",
"9 c #784B6A",
"0 c #645E61",
"q c #785674",
"w c #7E7A79",
"e c #86204A",
"r c #8A2249",
"t c #972747",
"y c #9A2746",
"u c #962A45",
"i c #9C2846",
"p c #942548",
"a c #9B2748",
"s c #9B2F4A",
"d c #A52B44",
"f c #AC2C43",
"g c #AF3247",
"h c #AE3349",
"j c #84436C",
"k c #8D456C",
"l c #91496C",
"z c #AB5366",
"x c #BB5765",
"c c #A99BA8",
"v c #ADA0A8",
"b c #B1A6A8",
"n c #B9AEB6",
"m c #D9E1CF",
"M c #DBE1D0",
"N c #E0E6D5",
"B c #D9D8E0",
"V c #DFE0E8",
"C c #E0E2E8",
"Z c #E8EDE8",
"A c #EDF4E0",
"S c #EEF5E8",
"D c #F4FEE7",
"F c #F0F7E8",
"G c #F5FFE8",
/* pixels */
"GGAb<@@$ufffffffffddiy=*****&*%@@@@.  X6mDDDGGGGGG",
"GGAb<-@$uffffffffffffy=*=*****&#@@@.  X6mDDDGGGGGG",
"GGAb<@@$uffffffffffffy==******&#@@@.  X6mDDDGGGGGG",
"GGAb<@@$yffffffffffddy=*******&#@@@.  X6mDDDGGGGGG",
"GGAb<@#$ufffffffdiyyyr=***&&&&$#@@@.  X6mDGGGGGGGG",
"GGAv<@@$yfffgffffr====****$#@###@@+.  X6mDGDGGGGGG",
"GGAc,@@:ifffffffde**=*****$##@@@@@@.  X6mDDDGGGGGG",
"GGAc,@@$dffffgffde=*=*=***##@@@@@-@.  X6mDDDGGGGGG",
"GGAc,@@$pffffgfffe=====***$#####@@@.  X6MGGGGGGGGG",
"GGAc,@@$tffffffffdiiar=***&&&&%#@@@.  X6MGGGGGGGGG",
"GGAc,@@$tfffffffffffda=*******&#@@@.  X6MDGGGGGGGG",
"GGAc,@@$ufgffffffffffa=*******&#@@@.  X6MDGGGGGGGG",
"GGAc,@@$ufffffgfffffda==*****&&#@-@.  X6mDDDGGGGGG",
"GGAc,@@$ufffffffdiyyar==**&&&&%#@@@   X6mDGGGGGGGG",
"GGAc,@@$ufffffffdr====****$#####@@@.  X6MDGGGGGGGG",
"GGAc,@@$udfffgffde=*******$@@@@#@@@.  X6mDGGGGGGGG",
"GDAb<@@$ffgffffffe=*==****$###@@@@@.  X6mDDDGGGGGG",
"GDAb<@@$ifffgfffdr=====***$####@@@@   X6mDDDGGGGGG",
"GGAb<@@$iffffffffiiyyr=***&&&&$#@@@.  X6mDGGGGGGGG",
"GGAb<@#$uffffffffdffdy==******&#@@@.  X6mDGGGGGGGG",
"GGAb<@@$ufffffgffffffy=*******&#@@@.  X6mDGDGGGGGG",
"GGAb<@@;ufffffffffffdy=*******&#@@@   X6mDGGGGGGGG",
"GGAb<@#$uffffffffiiiyp=***&&&&$#@@@.  X6mDGGGGGGGG",
"GGAb:@@$ufffffffdr====*=**$#####@@@X  X6mDGGGGGGGG",
"GGAb<##$udffffffde**=*****$#@@@@@@@.  X6MGGGGGGGGG",
"GGAb<;@$ufffffffde*****=**$#@@@#@@@.  X6MGGGGGGGGG",
"GGAb<@@$yfffffffde=e==****$####@@@@.  X6MGGGGGGGGG",
"GGAb<@#;yffffffffyyyyr=***&&&&$#@@@.  X6mDGGGGGGGG",
"GGAb<@#$yffffffffffffy=******&&#@@@.  X6mDGGGGGGGG",
"GGAb<@@$yffffffffffffy=*******&#@@@o  X6mDGGGGGGGG",
"DFAb,@@$iffffffffffffy=*******&#@@@.  X6MDGGGGGGGG",
"ZZNv,@@:iffffffffyyyyr****&&&&%#@@@.  X6mDGGGGGGGG",
"CCBv<@@$tffffffffre====***$####@@@@.  X6mFGGGGGGGG",
"CVBv,@@$ufffgfffde***=****$#@@@@@@@.  X6MGGGGGGGGG",
"VVBv,@@$udffffffde===*****$#@@@#@@@.  X6mDGGGGGGGG",
"VVBv,@@:uffffgffde=====***$#####@@@.  X6mDGGGGGGGG",
"VVBv<@@$dffgfffffiyyar=***&%&%$#@@@.  X6MDGGGGGGGG",
"VVBv<#@$yffffgfffdddda=*******&#@@@.  X6mGGGGGGFFF",
"VVBv<@@$yffffffffffffa==******&#@@@.   6mDGGGGDZCC",
"VVBc<@#$ufffffffffffdy=****=**&#@@@    6mDGGGDDZCV",
"CCBv<#@$uffffffffdddap=****&1&%@@@@.  X6mDGGGGDZVV",
"BCBv<@@$ufffffffdr*===****$####@@@@.  X6mDGGGGFZCV",
"CCBc<@@$ufffffffde=****=**$@@@@@@@@.  X6mDDGGDDZCV",
"CCBv<@@$udffffffde=*****=&$###@@@@@.  X6mDDGGDDZCV",
"CCBv<@@$dfffffffdee===**=*$####@@@@X  X6MDGGGGGZCV",
"BCBv<#@$iffffgfffapppr==**&%%%%@@@@.  X6mDGGGGFZVV",
"VVBv,@@$yffggffffffdfp=*******&#@@@.  X6mDGGGGGZCC",
"VVBv,@@$ufffffffffffdd=******=&#@@@.  X6mDGGGGGSSS",
"VVBv<>>:shfhhhhhhhhhhs222222221>@--+XXO0MGGGGGGGGF",
"CCBnqq89zxxxxxxxxxxxxzllllllkkj77775334wMDGGGGGGGG"
};
