/* XPM */
static char *result[] = {
/* columns rows colors chars-per-pixel */
"50 50 122 2 ",
"   c #2B1C2A",
".  c #311C30",
"X  c #3A1D39",
"o  c #2D202D",
"O  c #352935",
"+  c #392739",
"@  c #441D43",
"#  c #481E46",
"$  c #4D1D4B",
"%  c #521D4B",
"&  c #5B1D4B",
"*  c #4C1C51",
"=  c #651C4C",
"-  c #6C1C4D",
";  c #761C4D",
":  c #7A1D4D",
">  c #4F204D",
",  c #52224E",
"<  c #5D204A",
"1  c #4D324B",
"2  c #542451",
"3  c #572A54",
"4  c #5A2C55",
"5  c #5A2E58",
"6  c #5E345B",
"7  c #6E2246",
"8  c #612049",
"9  c #6E2249",
"0  c #7E2547",
"q  c #742448",
"w  c #792448",
"e  c #792C4E",
"r  c #612C55",
"t  c #623157",
"y  c #60375D",
"u  c #693559",
"i  c #643D63",
"p  c #6D3C64",
"a  c #663F68",
"s  c #51484F",
"d  c #534B51",
"f  c #674165",
"g  c #684164",
"h  c #6F4C69",
"j  c #7B4662",
"k  c #73516E",
"l  c #785374",
"z  c #7C5C7E",
"x  c #7D6077",
"c  c #7F617C",
"v  c #821E4B",
"b  c #812647",
"n  c #8F2845",
"m  c #84204A",
"M  c #8C2249",
"N  c #832D4E",
"B  c #942547",
"V  c #9A2746",
"C  c #942946",
"Z  c #9C2946",
"A  c #942548",
"S  c #922E4A",
"D  c #94304C",
"F  c #A52B44",
"G  c #AC2C43",
"H  c #824263",
"J  c #864D68",
"K  c #805F78",
"L  c #916074",
"P  c #876E89",
"I  c #896F8B",
"U  c #8F7889",
"Y  c #917C8A",
"T  c #898883",
"R  c #95808E",
"E  c #9C8591",
"W  c #9D8A96",
"Q  c #9B819A",
"!  c #A1919B",
"~  c #A9959D",
"^  c #9F8CA2",
"/  c #A08BA3",
"(  c #A491A3",
")  c #AC9DA3",
"_  c #B2A3A7",
"`  c #B7A8A9",
"'  c #BBB3B2",
"]  c #BBB1BD",
"[  c #C1B8B7",
"{  c #C4BFBB",
"}  c #C6C1BB",
"|  c #C6CABC",
" . c #C7C1C6",
".. c #CDCAC6",
"X. c #C8C2CE",
"o. c #D1CFC6",
"O. c #D1D6C7",
"+. c #D1D8C7",
"@. c #D6D7CB",
"#. c #DADCCF",
"$. c #D0CCD7",
"%. c #DCDFD0",
"&. c #D6D5DD",
"*. c #DBDBDF",
"=. c #DEE1D2",
"-. c #E0E3D4",
";. c #E1E5DC",
":. c #E6EDDA",
">. c #E9EFDE",
",. c #E7F0DB",
"<. c #EBF2DF",
"1. c #DEDFE5",
"2. c #DFE0E8",
"3. c #E6E9E6",
"4. c #E0E2E8",
"5. c #E6EAE8",
"6. c #E8EDE8",
"7. c #EEF6E2",
"8. c #EFF8E4",
"9. c #EDF4E8",
"0. c #F3FCE6",
"q. c #F5FFE8",
/* pixels */
"q.q.q.q.q.q.q.q.q.q.q.q.q.q.0.5.&./ I I P I U U U U U U R ' <.q.q.q.q.q.q.q.q.q.q.q.q.q.q.q.9.5.4.4.",
"q.q.0.0.q.q.q.q.q.q.q.q.q.q.0.3.$.z 5 3 3 4 3 3 3 4 4 3 y ! <.q.q.q.q.q.q.q.q.q.q.q.q.q.q.q.9.4.2.4.",
"9.6.9.0.q.q.q.q.q.q.0.0.q.0.0.3.$.l , $ $ $ $ $ $ $ $ $ 4 W ,.0.q.q.0.0.q.q.q.q.q.q.q.q.q.q.8.4.2.2.",
"1.&.;.6.>.<.<.7.<.<.<.<.7.7.6.*.X.l , % % % % % , % % % 4 E -.<.<.<.<.<.7.7.q.q.q.q.q.q.q.q.8.4.2.2.",
"^ ^ ( ) ) ) ) ) ) ) ) ) ) ) ~ ( Q H e q q q w q w q q w e L ~ ) ) ) ) ) _ ' 7.q.q.q.q.q.q.q.9.4.2.2.",
"5 5 5 5 5 5 5 5 5 5 5 5 5 5 5 4 r S F F F F F F F F F F F N 4 6 5 5 5 5 6 L :.0.q.q.q.q.q.q.0.4.2.2.",
"* $ $ $ $ $ % $ $ $ $ $ > $ $ $ & C F G G G G G G G G G F 0 & $ $ $ $ $ 3 c :.0.q.q.q.q.q.q.0.4.2.2.",
"% % $ % % % % % % % $ % % $ $ $ & C G G G G G G G G G G F b & % % $ % $ 3 x =.<.8.8.q.q.q.q.0.2.2.2.",
"- 7 9 9 - 7 7 7 7 7 7 q 7 % # $ & C G G G G G G G G G G G C 7 7 7 7 7 7 e J _ ' ' } <.0.q.0.0.4.2.2.",
"F F F F F F F F F F F F C & $ $ & V G G G G G G G G G G G G F F G G F F Z S t 4 6 x =.0.q.q.9.4.2.2.",
"G G G G F G G G G G G G Z < $ $ & C G G G G G G G G G G G G G G G G G G G C , $ , k #.0.q.q.0.2.2.2.",
"G G G G G G G G F G G F Z & % $ & C G G G G F G G G G G G G G G G G G G F C , % , k @.7.9.0.9.2.2.2.",
"F G G G F V V F Z C n n b = & % & C G G G F V F V G G G G G G G G G G G F Z 7 7 7 j ` } { ..:.2.2.2.",
"A F G G V v : : ; % & % & - ; ; : Z G G F A : : v Z G G G G G G G G G G G F F F Z D u y y l ..1.2.2.",
"M G G G V : : ; - % $ $ % - : ; : Z G G F v : ; : B G G G G G G G G G G G G G G G C < > 2 a ..1.2.2.",
"M G F G Z : : ; - % $ $ & - : : : Z G G G v : : : V G G G G G G G G G G G G G G G C < $ $ a ..1.2.2.",
"v V V F A : ; ; - % $ $ & - ; : : B F V F v v v v A V F F F G G G G G G G G G G G Z = * $ f ..1.2.2.",
": v v v v ; ; ; - % % $ % - ; ; : v : v v V F F F A v v : A G G G G G G G G G G G G & * * a ..1.4.2.",
": : ; ; ; ; ; ; - % % * % - ; : ; : : : : V F G F A : : : M G F G G G G G G G G G A & * * f ..3.6.6.",
": : : : ; ; ; ; - % * * % ; : ; : ; ; : v V F G F v : : v M G G G G G G G G G G G V 2 * * a o.9.0.0.",
": ; : ; ; : : ; - % * % & - ; : : ; ; ; : B F F F M v : v M F G F F G G G G G G G V = 2 & p [ %.=.=.",
"; : ; ; ; : : ; - % * * % - ; ; ; : : : : v v v v B V F F M v v v A F G G G G G G G Z Z V D j h h h ",
"; : ; : : ; : ; - % % $ & - ; ; : : : ; ; ; : : v B G G F A : ; : M G G G G G G G F G G F Z r % > > ",
"; : ; ; ; : ; ; - % $ $ * ; ; ; ; ; ; ; : ; ; ; : B F G G A : ; : m G G G G G G G G G G G F = $ $ > ",
"; ; ; ; ; : ; - - % $ $ % - - ; ; : ; ; : : ; : : B F F F A v : : v F F F G G G G G G G G Z = % $ $ ",
"- ; ; ; ; * % & % $ $ $ % % & & & - ; ; : : : ; ; v v v v A V V F A m m m M G G G G G G G Z < $ $ $ ",
"= ; ; ; - % * * $ $ $ $ $ $ % $ * - ; : : ; : ; ; ; ; : v M G G G V : : : m F G G G G G G Z 8 $ $ $ ",
"& ; ; ; - % % * $ $ $ $ $ $ $ $ % - ; ; : ; ; : ; : : ; : M G G G V : : : m G G G G G G G F 8 % $ > ",
"& ; ; ; = % * $ $ $ % $ $ $ % $ % - ; ; - ; ; ; ; : ; ; : v F F F A v : v D G G G G G G G Z 8 $ $ > ",
"% & % & % % $ $ $ $ $ $ $ $ * $ % % & & = - ; ; : ; ; : : v M v M M V V Z G G G G G G G G Z 8 % $ $ ",
"# $ $ % $ * $ $ $ $ $ $ % $ $ $ $ $ * * % - ; ; : : ; ; ; : : : : M F G G G G G G G G G G Z 8 $ $ $ ",
"$ $ $ $ $ # $ $ $ $ $ $ $ $ $ $ $ $ $ $ * - ; : : : : : ; : : : : m F G G G G G G G G G G Z 8 $ $ $ ",
"$ # # $ # # $ # # $ # $ # $ $ $ $ $ $ $ % - : : ; : ; : ; : : : : v G G G G G G G G G G G F 8 % $ $ ",
"X X X X X X X X X X X . X $ $ $ $ $ % $ % - ; ; ; : : ; : v B B V V G G G G G G G G G G G G 8 % $ % ",
"                        . @ $ $ * $ $ $ $ - ; : : : ; ; : B F G G G G G G G G G G G G G G F 8 $ $ $ ",
"                        . @ # $ $ $ % $ % - ; ; ; ; ; : v v F G G G G G G G G G G G G G G Z 8 $ $ $ ",
". o O O O O O O O O O O + > > > % * $ $ % = ; ; ; ; ; ; ; v F F G G F F G G F G F F G F F Z < $ $ $ ",
"T T T T T T T T T T T T K 1 X . X @ $ $ $ & = = = = = = = ; 0 b 0 0 b b b b b b b b b b 0 w & $ $ $ ",
":.:.:.:.:.:.,.,.,.,.,.,.| s o     @ $ $ $ $ $ % * % $ % % % % % % % % % % % % % , % % % % % $ $ $ $ ",
"q.q.q.q.q.q.q.q.q.0.0.0.+.s o     @ $ $ $ $ $ * * $ $ $ $ $ $ $ # % # % $ $ $ $ $ $ $ # > $ $ $ $ $ ",
"q.q.q.q.q.q.q.q.q.q.q.0.+.d o     @ $ % $ $ $ $ $ $ $ $ % $ % % $ $ % > < # > > % % $ $ $ $ , 3 < 4 ",
"q.q.q.q.q.q.q.q.q.q.q.0.O.d o     @ $ $ * $ $ $ $ & & & & = & & & 7 7 7 7 w w q 7 7 % $ # 5 c U Y Y ",
"q.q.q.q.q.q.q.q.q.q.q.0.+.s o     @ $ $ * % $ $ % = ; ; ; ; ; ; : v F F F F G G F C < $ $ i ] ;.,.,.",
"q.q.q.q.q.q.q.q.q.q.q.0.+.s o     @ $ $ $ $ $ $ % = ; ; ; ; : : : M G G G G G G G C < $ > i  .0.q.q.",
"q.q.q.q.q.q.q.q.q.q.q.0.+.d o     @ $ $ $ % $ % % = ; ; ; ; ; : : M G G G G G G G Z < $ > f ..0.q.q.",
"q.q.q.q.q.q.q.q.q.q.q.q.+.s o     @ $ $ $ % & & & - ; ; ; v v M v V G G G G G G F C < $ > f O.0.q.q.",
"q.q.q.q.q.q.q.q.q.q.q.0.+.s o     @ $ $ % = ; ; ; ; ; ; : n F F F G F G G G G G G C & $ > g o.0.q.q.",
"q.q.q.q.q.q.q.q.q.q.q.0.+.s o     @ $ $ % - ; ; ; ; ; ; v v G G G G G G G G G G G Z < $ > g ..0.q.q.",
"q.q.q.q.q.q.q.q.q.q.q.0.@.d o o o # # % % - ; ; ; ; ; ; : n F G G G G G G G G G G Z & $ > g o.8.0.q.",
"q.q.q.q.q.q.q.q.q.q.q.0.| d o o   @ % % % = ; ; ; ; ; ; : v F G G F G G G G G G G Z & $ % g O.8.0.q."
};
